20 Preset/INSTA/【3】LUT video cho PR-AE-FCPX/INS LUT (1).cube
# Created by Adobe Lightroom plugin Export LUT (1.24.0)
# www.johnrellis.com/lightroom/exportlut.htm
# Preset: INS胶片Cole[素材江湖]01
# Color profile: C:\Program Files (x86)\Common Files\Adobe\Color\Profiles\Recommended\VideoHD.icc
LUT_3D_SIZE 32
DOMAIN_MIN 0.0 0.0 0.0
DOMAIN_MAX 1.0 1.0 1.0
0.194888 0.137697 0.111269
0.195315 0.137850 0.111238
0.196597 0.138094 0.111452
0.199710 0.138430 0.111574
0.204715 0.139559 0.111452
0.210422 0.140475 0.111635
0.216678 0.141726 0.111757
0.223606 0.142947 0.112123
0.231357 0.144381 0.112062
0.240330 0.145846 0.112215
0.251011 0.147433 0.111910
0.263096 0.149142 0.111757
0.277348 0.150881 0.111391
0.293462 0.152834 0.110445
0.311528 0.154604 0.109590
0.331884 0.156954 0.108217
0.354803 0.159152 0.106416
0.380377 0.161501 0.104372
0.408942 0.163943 0.101137
0.440223 0.166354 0.097261
0.473518 0.168917 0.092226
0.509239 0.171756 0.084627
0.551934 0.175387 0.065583
0.595239 0.180270 0.038025
0.638361 0.186435 0.007141
0.681422 0.194858 0.000000
0.724514 0.205722 0.000000
0.767544 0.219638 0.000000
0.809323 0.236332 0.000000
0.849760 0.255528 0.000000
0.889006 0.277653 0.000000
0.926940 0.302403 0.000000
0.194919 0.138155 0.111513
0.195163 0.138094 0.111513
0.196780 0.138277 0.111421
0.200015 0.138827 0.111482
0.204868 0.139742 0.111421
0.210575 0.140688 0.111604
0.216556 0.141970 0.112032
0.223331 0.143221 0.112062
0.231052 0.144656 0.112337
0.240055 0.146120 0.112184
0.250462 0.147555 0.111910
0.262577 0.149264 0.111757
0.276432 0.151125 0.111086
0.292332 0.152926 0.110506
0.310338 0.154971 0.109590
0.330510 0.157015 0.108339
0.353429 0.159243 0.106538
0.378729 0.161746 0.104524
0.407172 0.163943 0.101381
0.438087 0.166415 0.097597
0.471199 0.169131 0.092592
0.506554 0.171725 0.085634
0.547936 0.175448 0.066987
0.590051 0.179995 0.040925
0.632532 0.185916 0.011139
0.674952 0.193698 0.000000
0.717586 0.204074 0.000000
0.760830 0.217472 0.000000
0.803128 0.233829 0.000000
0.843992 0.252842 0.000000
0.883665 0.274479 0.000000
0.922179 0.299107 0.000000
0.195804 0.140047 0.111757
0.196048 0.140017 0.111757
0.197238 0.140047 0.111696
0.200595 0.140322 0.111482
0.205509 0.140993 0.111452
0.210971 0.141970 0.111666
0.216831 0.143008 0.111818
0.223575 0.144289 0.111849
0.231296 0.145693 0.112123
0.240177 0.146944 0.112001
0.250492 0.148623 0.112032
0.262669 0.150088 0.111604
0.276493 0.151919 0.111238
0.292424 0.153719 0.110323
0.310277 0.155764 0.109438
0.330419 0.157992 0.108125
0.353124 0.160311 0.106325
0.378485 0.162600 0.104341
0.406775 0.165194 0.101076
0.437659 0.167666 0.097322
0.470771 0.170230 0.092348
0.506432 0.173159 0.084871
0.547051 0.176791 0.066346
0.588495 0.181247 0.040833
0.630365 0.186984 0.011810
0.672450 0.194553 0.000000
0.714992 0.204837 0.000000
0.757961 0.217990 0.000000
0.800381 0.234104 0.000000
0.841428 0.252995 0.000000
0.881163 0.274327 0.000000
0.919707 0.298711 0.000000
0.197391 0.144015 0.112856
0.197543 0.144198 0.112795
0.198795 0.143984 0.112795
0.201297 0.144198 0.112306
0.205905 0.144472 0.112062
0.211765 0.144472 0.111452
0.217807 0.145449 0.111604
0.224399 0.146487 0.111696
0.232181 0.147646 0.111696
0.241184 0.148867 0.111879
0.251438 0.150484 0.111574
0.263554 0.151919 0.111482
0.277501 0.153689 0.110780
0.293278 0.155673 0.110170
0.310948 0.157717 0.108949
0.331121 0.159884 0.107942
0.353674 0.162203 0.106142
0.378729 0.164889 0.103700
0.406744 0.167361 0.100496
0.437263 0.169772 0.096742
0.469795 0.172580 0.091737
0.505882 0.175479 0.083742
0.545312 0.179355 0.065064
0.586053 0.183902 0.040009
0.627955 0.189670 0.010986
0.670466 0.197391 0.000000
0.713649 0.207950 0.000000
0.757259 0.221012 0.000000
0.800046 0.237186 0.000000
0.841123 0.255863 0.000000
0.880552 0.277073 0.000000
0.918547 0.300694 0.000000
0.199741 0.149783 0.114076
0.199985 0.149722 0.114076
0.201205 0.149508 0.114076
0.203159 0.149172 0.114046
0.206577 0.149630 0.113527
0.211978 0.149722 0.112947
0.218479 0.149538 0.112337
0.225650 0.149630 0.111635
0.233433 0.150515 0.111666
0.242313 0.151919 0.111513
0.252598 0.153292 0.111238
0.264775 0.154849 0.110750
0.278691 0.156771 0.110353
0.294652 0.158816 0.109346
0.312535 0.160891 0.108400
0.332647 0.163363 0.106966
0.355444 0.165652 0.105104
0.380865 0.168429 0.102846
0.408881 0.171084 0.099550
0.439521 0.173831 0.095521
0.472236 0.176669 0.090303
0.508751 0.179965 0.080751
0.547478 0.183932 0.060395
0.587762 0.188632 0.035218
0.629358 0.194705 0.004639
0.671870 0.202640 0.000000
0.714809 0.213077 0.000000
0.758145 0.226291 0.000000
0.800473 0.242130 0.000000
0.841093 0.260655 0.000000
0.880186 0.281376 0.000000
0.917784 0.304601 0.000000
0.202152 0.156008 0.115450
0.202640 0.155917 0.115450
0.203677 0.155550 0.115480
0.205356 0.155276 0.115450
0.208011 0.155215 0.115358
0.212741 0.155795 0.114717
0.219150 0.155856 0.114107
0.226749 0.155856 0.112795
0.235264 0.155764 0.112032
0.244724 0.156405 0.111025
0.255406 0.157595 0.110445
0.267643 0.159243 0.110231
0.281804 0.161166 0.109468
0.297887 0.163210 0.108400
0.316136 0.165805 0.107210
0.336614 0.168124 0.105715
0.359625 0.171023 0.103578
0.385473 0.173770 0.101137
0.413916 0.176638 0.097475
0.444709 0.179507 0.093233
0.477821 0.182620 0.087190
0.515343 0.186435 0.073274
0.579980 0.195132 0.032837
0.623255 0.201663 0.001862
0.666255 0.209934 0.000000
0.708858 0.220096 0.000000
0.750973 0.232853 0.000000
0.792020 0.247807 0.000000
0.831296 0.264805 0.000000
0.868833 0.283726 0.000000
0.904967 0.304753 0.000000
0.939605 0.327611 0.000000
0.204929 0.164431 0.116823
0.205142 0.164401 0.116823
0.206088 0.164248 0.116823
0.208011 0.163760 0.117159
0.210727 0.162936 0.117220
0.214725 0.163607 0.116579
0.221317 0.164523 0.115755
0.229618 0.164736 0.114992
0.238865 0.164858 0.113588
0.249393 0.164828 0.112032
0.261357 0.164920 0.110628
0.274418 0.166567 0.109682
0.289372 0.168429 0.108095
0.306004 0.170626 0.106844
0.324987 0.173190 0.105135
0.346136 0.175814 0.103334
0.369970 0.178683 0.101228
0.396521 0.181491 0.098054
0.425696 0.184848 0.093782
0.457374 0.188113 0.088624
0.494514 0.192416 0.076967
0.535058 0.197269 0.054627
0.577356 0.202914 0.027344
0.621118 0.209873 0.000000
0.665064 0.218418 0.000000
0.708003 0.229191 0.000000
0.749996 0.241611 0.000000
0.790494 0.256291 0.000000
0.829282 0.272526 0.000000
0.866270 0.290929 0.000000
0.902037 0.311162 0.000000
0.936492 0.333135 0.000000
0.207431 0.174014 0.118379
0.207584 0.174136 0.118349
0.208804 0.173800 0.118654
0.210788 0.173159 0.118715
0.213443 0.172427 0.118776
0.217014 0.171878 0.118746
0.222690 0.173190 0.118166
0.230961 0.174746 0.117128
0.241489 0.175296 0.116426
0.252567 0.175814 0.114168
0.265263 0.175875 0.112428
0.279118 0.176181 0.110445
0.294530 0.176761 0.108522
0.311498 0.178958 0.106813
0.330663 0.181369 0.104372
0.352026 0.184115 0.101625
0.376104 0.187350 0.098085
0.402869 0.190494 0.094850
0.432166 0.193973 0.090059
0.465492 0.197879 0.081422
0.502770 0.202731 0.063416
0.541802 0.207919 0.040711
0.582879 0.213840 0.011902
0.625360 0.221317 0.000000
0.668269 0.230381 0.000000
0.710353 0.240940 0.000000
0.751675 0.253513 0.000000
0.791440 0.267552 0.000000
0.829587 0.283696 0.000000
0.866178 0.301427 0.000000
0.901488 0.320684 0.000000
0.935546 0.342260 0.000000
0.210330 0.186099 0.120241
0.210575 0.186069 0.120241
0.211551 0.185763 0.120272
0.213718 0.185153 0.120607
0.216617 0.184298 0.120699
0.220432 0.183108 0.120821
0.225376 0.183474 0.120485
0.232700 0.185489 0.119631
0.243473 0.187778 0.118227
0.256992 0.189120 0.117403
0.270481 0.189761 0.114900
0.285435 0.190066 0.112245
0.301701 0.190311 0.109346
0.319158 0.190311 0.106844
0.338628 0.191989 0.104128
0.360540 0.194827 0.100801
0.385168 0.197879 0.096620
0.412146 0.201602 0.091585
0.442908 0.205783 0.082948
0.477180 0.210513 0.066316
0.513573 0.215610 0.045441
0.551720 0.221195 0.020539
0.591638 0.227634 0.000000
0.633021 0.235294 0.000000
0.674800 0.244724 0.000000
0.715846 0.255497 0.000000
0.756191 0.267979 0.000000
0.795132 0.282109 0.000000
0.832425 0.297704 0.000000
0.868162 0.314824 0.000000
0.902800 0.333623 0.000000
0.936309 0.354314 0.000000
0.213443 0.201022 0.122652
0.213657 0.200992 0.122652
0.214755 0.200595 0.122438
0.216861 0.200046 0.122774
0.220218 0.199069 0.122896
0.224216 0.197818 0.123049
0.229068 0.196170 0.123262
0.235813 0.198062 0.122438
0.245487 0.200961 0.121187
0.259190 0.204196 0.119509
0.276555 0.206729 0.118868
0.292424 0.207553 0.114870
0.310063 0.207919 0.111208
0.328985 0.208011 0.107576
0.349371 0.208103 0.103456
0.370916 0.208164 0.099550
0.396307 0.211429 0.094820
0.426001 0.215640 0.088258
0.457771 0.220188 0.074708
0.491585 0.225376 0.051392
0.526940 0.231083 0.024414
0.563592 0.237034 0.000000
0.601404 0.243534 0.000000
0.640620 0.251347 0.000000
0.680201 0.260472 0.000000
0.719631 0.271183 0.000000
0.758968 0.283543 0.000000
0.797086 0.297337 0.000000
0.833860 0.312444 0.000000
0.869413 0.329259 0.000000
0.903777 0.347692 0.000000
0.937133 0.367895 0.000000
0.216220 0.218906 0.124849
0.216434 0.218906 0.124849
0.217563 0.218631 0.125154
0.220096 0.217868 0.125002
0.223484 0.217105 0.125368
0.228153 0.215671 0.125551
0.233555 0.213993 0.125795
0.239994 0.213169 0.125734
0.249210 0.216556 0.124544
0.262242 0.220645 0.122896
0.279210 0.225284 0.120668
0.300694 0.228855 0.119478
0.320867 0.230472 0.114412
0.341619 0.230961 0.109224
0.363958 0.231113 0.103792
0.388739 0.231418 0.097658
0.414405 0.231693 0.090913
0.442206 0.233127 0.080812
0.473518 0.237583 0.060487
0.506645 0.242557 0.036316
0.540917 0.248020 0.007568
0.576318 0.254246 0.000000
0.613489 0.261814 0.000000
0.651484 0.270207 0.000000
0.689998 0.279545 0.000000
0.728389 0.290654 0.000000
0.766598 0.302831 0.000000
0.803433 0.316381 0.000000
0.839109 0.331151 0.000000
0.873686 0.347295 0.000000
0.907164 0.365118 0.000000
0.939788 0.384497 0.000000
0.218570 0.241398 0.127779
0.218997 0.241337 0.127779
0.220218 0.241001 0.127840
0.222873 0.240330 0.127962
0.226810 0.239384 0.128084
0.232059 0.237949 0.128328
0.238254 0.236149 0.128634
0.245243 0.234134 0.128939
0.253910 0.235172 0.128450
0.266606 0.239994 0.126986
0.283207 0.245609 0.124361
0.305089 0.252232 0.121340
0.342626 0.266239 0.119387
0.373053 0.271000 0.111330
0.400671 0.271855 0.101900
0.428870 0.272038 0.091768
0.457374 0.271427 0.075410
0.485939 0.270573 0.048371
0.514336 0.269535 0.022736
0.546288 0.272801 0.000000
0.580560 0.278386 0.000000
0.615259 0.284764 0.000000
0.650660 0.292302 0.000000
0.686854 0.301549 0.000000
0.723201 0.312291 0.000000
0.759030 0.323674 0.000000
0.793362 0.335241 0.000000
0.826413 0.347662 0.000000
0.858579 0.361181 0.000000
0.890105 0.375891 0.000000
0.921019 0.392157 0.000000
0.951415 0.410254 0.000000
0.220188 0.272770 0.131228
0.220401 0.272770 0.131228
0.222080 0.272160 0.131380
0.225162 0.271275 0.131319
0.230076 0.269841 0.131655
0.235935 0.267918 0.131868
0.243442 0.265629 0.132113
0.251926 0.263066 0.132631
0.260899 0.261021 0.133394
0.273838 0.266239 0.131868
0.292210 0.274418 0.129519
0.316594 0.284276 0.126009
0.348547 0.295720 0.120851
0.385321 0.304143 0.117830
0.424231 0.311589 0.106233
0.453895 0.311437 0.091981
0.483070 0.309941 0.065217
0.511406 0.307774 0.029877
0.539391 0.305364 0.000000
0.566796 0.303227 0.000000
0.593744 0.301335 0.000000
0.627131 0.307225 0.000000
0.661097 0.314427 0.000000
0.695827 0.323095 0.000000
0.730953 0.333227 0.000000
0.765682 0.344854 0.000000
0.799222 0.357336 0.000000
0.831540 0.369268 0.000000
0.862943 0.382208 0.000000
0.893919 0.396521 0.000000
0.924163 0.412085 0.000000
0.953887 0.429328 0.000000
0.218997 0.307927 0.134829
0.219577 0.307500 0.134981
0.221286 0.307012 0.134890
0.225223 0.305974 0.135195
0.230655 0.304417 0.135409
0.238163 0.302342 0.135470
0.247013 0.300053 0.136019
0.257145 0.297398 0.136629
0.268223 0.294560 0.137240
0.280095 0.293523 0.137514
0.298558 0.302403 0.135012
0.322881 0.313237 0.131685
0.354345 0.325536 0.126467
0.393469 0.339452 0.119081
0.434943 0.347967 0.115633
0.480690 0.357275 0.100252
0.510216 0.354955 0.068940
0.538689 0.351659 0.019074
0.566339 0.347997 0.000000
0.593011 0.344182 0.000000
0.619043 0.340948 0.000000
0.645380 0.338476 0.000000
0.674403 0.340246 0.000000
0.708095 0.348486 0.000000
0.741817 0.357916 0.000000
0.775113 0.368750 0.000000
0.807218 0.380407 0.000000
0.838560 0.392950 0.000000
0.869078 0.405646 0.000000
0.899016 0.419196 0.000000
0.928405 0.433906 0.000000
0.957427 0.450446 0.000000
0.214542 0.349676 0.139651
0.215518 0.349371 0.139742
0.217502 0.348730 0.139742
0.222080 0.347265 0.139864
0.229252 0.345129 0.140139
0.238193 0.342596 0.140291
0.248997 0.339727 0.140719
0.261265 0.336614 0.141176
0.274418 0.333227 0.141878
0.288212 0.329808 0.142916
0.304875 0.332860 0.142245
0.329412 0.344427 0.138796
0.360418 0.357427 0.134463
0.398627 0.371893 0.128023
0.443977 0.387121 0.118593
0.487770 0.394873 0.115267
0.539055 0.406439 0.097475
0.567437 0.402167 0.038361
0.594781 0.396857 0.000000
0.620569 0.391669 0.000000
0.645869 0.386969 0.000000
0.671382 0.383246 0.000000
0.697230 0.380713 0.000000
0.723445 0.379553 0.000000
0.753811 0.385657 0.000000
0.785397 0.395239 0.000000
0.816220 0.405859 0.000000
0.846525 0.417517 0.000000
0.876555 0.430549 0.000000
0.906065 0.444404 0.000000
0.934997 0.458747 0.000000
0.963470 0.474769 0.000000
0.208133 0.393408 0.146731
0.209049 0.393378 0.146944
0.211887 0.392767 0.146944
0.217380 0.391669 0.146914
0.226169 0.389715 0.147250
0.236851 0.387488 0.147372
0.250034 0.384833 0.147829
0.264683 0.381933 0.148501
0.280705 0.378546 0.149264
0.297429 0.374701 0.150332
0.314000 0.370397 0.151553
0.337224 0.378729 0.149264
0.367498 0.391485 0.145785
0.404150 0.405371 0.140566
0.446723 0.419898 0.133181
0.495308 0.435401 0.122683
0.539330 0.441993 0.121736
0.594659 0.456062 0.106508
0.621546 0.450202 0.030060
0.647059 0.443641 0.000000
0.672084 0.438025 0.000000
0.697322 0.433112 0.000000
0.722591 0.429419 0.000000
0.747646 0.426795 0.000000
0.772488 0.425055 0.000000
0.797574 0.424994 0.000000
0.827085 0.434424 0.000000
0.856138 0.444984 0.000000
0.884886 0.456733 0.000000
0.913237 0.469947 0.000000
0.941131 0.484108 0.000000
0.968200 0.498878 0.000000
0.202365 0.438941 0.158816
0.203342 0.438788 0.158907
0.206332 0.438239 0.158724
0.213565 0.437018 0.158816
0.223453 0.435309 0.158907
0.236179 0.433112 0.158907
0.251591 0.430549 0.159609
0.268620 0.427405 0.160067
0.286961 0.423804 0.160464
0.305577 0.419684 0.161379
0.324681 0.415167 0.162203
0.344213 0.412207 0.162997
0.374334 0.424964 0.160647
0.409918 0.438849 0.157321
0.451026 0.453498 0.152804
0.497169 0.468818 0.146181
0.547875 0.484871 0.137850
0.590326 0.490364 0.139925
0.648341 0.507500 0.134890
0.673274 0.500206 0.081483
0.698116 0.493446 0.000000
0.722469 0.487037 0.000000
0.746548 0.481544 0.000000
0.770352 0.477089 0.000000
0.793698 0.473548 0.000000
0.817105 0.471199 0.000000
0.840604 0.470344 0.000000
0.865843 0.474159 0.000000
0.893400 0.484688 0.000000
0.920684 0.496620 0.000000
0.947601 0.510155 0.000000
0.973968 0.524865 0.000000
0.201480 0.487037 0.178470
0.201877 0.487129 0.178744
0.208255 0.502708 0.187472
0.216159 0.501762 0.187350
0.228305 0.499916 0.187106
0.243626 0.497536 0.187076
0.261357 0.494575 0.187198
0.281498 0.490974 0.187045
0.302739 0.487007 0.187137
0.324529 0.482490 0.187503
0.346471 0.477485 0.187991
0.367651 0.471717 0.188327
0.393194 0.473701 0.188296
0.428840 0.487037 0.187411
0.468910 0.500847 0.185855
0.513237 0.515221 0.183474
0.560510 0.529870 0.179965
0.610468 0.545068 0.175814
0.649592 0.548394 0.180667
0.706752 0.566461 0.190036
0.729274 0.557275 0.144289
0.751766 0.548760 0.082277
0.773800 0.540856 0.000000
0.795468 0.533837 0.000000
0.816648 0.527428 0.000000
0.837827 0.522454 0.000000
0.859068 0.518700 0.000000
0.880735 0.516869 0.000000
0.903105 0.517021 0.000000
0.928038 0.524987 0.000000
0.953765 0.537163 0.000000
0.979034 0.550805 0.000000
0.210636 0.539605 0.210239
0.212039 0.541131 0.211521
0.217075 0.542168 0.212558
0.225711 0.542382 0.213291
0.238193 0.542046 0.213962
0.253544 0.540246 0.213870
0.272068 0.537560 0.213687
0.292424 0.534081 0.213291
0.314214 0.529961 0.212802
0.336553 0.525689 0.212802
0.359258 0.520836 0.212589
0.381476 0.515465 0.212772
0.403021 0.508904 0.212528
0.434180 0.517052 0.213199
0.472572 0.530571 0.214054
0.514519 0.544610 0.214908
0.559411 0.559106 0.215122
0.606439 0.574151 0.215610
0.655360 0.589593 0.215854
0.692714 0.593103 0.224399
0.746548 0.610651 0.247807
0.768521 0.602045 0.206363
0.790158 0.593622 0.160647
0.811093 0.585382 0.101167
0.831571 0.577874 0.000000
0.851896 0.571221 0.000000
0.872221 0.565972 0.000000
0.892760 0.562280 0.000000
0.913878 0.560571 0.000000
0.935790 0.560967 0.000000
0.958312 0.564111 0.000000
0.982696 0.576654 0.000000
0.230442 0.583398 0.244999
0.232731 0.584680 0.246372
0.237888 0.585962 0.247776
0.245853 0.586633 0.249088
0.257908 0.586236 0.249729
0.273320 0.584680 0.249699
0.290837 0.582147 0.248997
0.310796 0.579065 0.248417
0.332219 0.575219 0.247745
0.354559 0.571099 0.247135
0.377417 0.566278 0.246372
0.400122 0.561120 0.245884
0.421973 0.555108 0.245060
0.444404 0.549950 0.244388
0.480934 0.562921 0.247623
0.520653 0.576410 0.250706
0.562615 0.590356 0.254307
0.606622 0.604486 0.257877
0.651759 0.618555 0.262150
0.697658 0.632807 0.267399
0.732296 0.635950 0.278691
0.778988 0.650263 0.306432
0.802670 0.644526 0.274876
0.823239 0.636194 0.234287
0.843259 0.627985 0.189822
0.863066 0.620478 0.136782
0.882658 0.613825 0.000366
0.902434 0.608759 0.000000
0.922667 0.605524 0.000000
0.943389 0.604211 0.000000
0.964691 0.605188 0.000000
0.986481 0.608484 0.000000
0.263157 0.626886 0.287755
0.265049 0.628107 0.289311
0.269963 0.629084 0.290654
0.277897 0.629480 0.292027
0.288548 0.629206 0.292576
0.302190 0.627771 0.292210
0.318425 0.625605 0.291661
0.336706 0.622736 0.290715
0.356756 0.619409 0.289616
0.378210 0.615625 0.288701
0.400153 0.611261 0.287480
0.422248 0.606500 0.286687
0.444129 0.601129 0.285283
0.465522 0.594995 0.283787
0.492164 0.595941 0.285069
0.529473 0.608759 0.290806
0.568963 0.621851 0.297398
0.610315 0.635248 0.304601
0.652674 0.648920 0.313085
0.695674 0.662623 0.322515
0.738552 0.676417 0.332921
0.770993 0.680385 0.348333
0.810727 0.692164 0.379187
0.835355 0.689601 0.358984
0.855436 0.682124 0.321996
0.875090 0.674678 0.283909
0.894469 0.667781 0.243565
0.913848 0.661952 0.200900
0.933379 0.657618 0.151827
0.953277 0.655085 0.065736
0.973541 0.654658 0.000000
0.994202 0.656336 0.000000
0.319341 0.674495 0.348913
0.320531 0.674891 0.349493
0.323705 0.674861 0.349889
0.329137 0.674434 0.349676
0.337255 0.673426 0.349432
0.347845 0.671839 0.348425
0.360845 0.669734 0.347448
0.376287 0.667231 0.346166
0.393500 0.664271 0.344701
0.412451 0.661097 0.343603
0.432441 0.657404 0.342260
0.452979 0.653223 0.340581
0.473671 0.648615 0.339117
0.494118 0.643214 0.336980
0.513756 0.637324 0.334630
0.544396 0.643702 0.339666
0.580682 0.655177 0.347936
0.618067 0.666865 0.357061
0.656489 0.678828 0.367071
0.695338 0.690761 0.377691
0.734310 0.702693 0.388983
0.772641 0.714656 0.401038
0.801266 0.717861 0.416236
0.834348 0.726650 0.445380
0.858366 0.725917 0.433631
0.877440 0.719142 0.399664
0.896544 0.712551 0.364874
0.915587 0.706538 0.330053
0.934722 0.701808 0.295842
0.954040 0.698451 0.261295
0.973663 0.696742 0.226810
0.993561 0.697139 0.191623
0.372778 0.710170 0.404425
0.373968 0.710506 0.404944
0.376226 0.710475 0.405341
0.380682 0.710170 0.405432
0.386999 0.709285 0.404913
0.395239 0.708034 0.404059
0.405676 0.706325 0.402960
0.418189 0.704158 0.401709
0.432593 0.701747 0.400336
0.448737 0.698909 0.398779
0.466011 0.695918 0.397681
0.484291 0.692378 0.396124
0.502861 0.688350 0.394079
0.521569 0.683925 0.392218
0.540093 0.679011 0.389868
0.558923 0.674159 0.387793
0.592401 0.684749 0.397589
0.626886 0.695369 0.408179
0.662043 0.706142 0.419501
0.697505 0.717037 0.431373
0.733028 0.728023 0.443977
0.768063 0.738857 0.456916
0.802213 0.749599 0.470008
0.827726 0.752956 0.485420
0.853452 0.756710 0.505119
0.876280 0.757870 0.502007
0.894469 0.752193 0.472267
0.912902 0.746792 0.442359
0.931609 0.742031 0.412573
0.950500 0.738460 0.383886
0.969726 0.736416 0.357366
0.989136 0.736080 0.333074
0.435767 0.746273 0.469123
0.437232 0.746792 0.470314
0.439124 0.746731 0.470375
0.441810 0.746212 0.469886
0.445838 0.745174 0.468879
0.451270 0.743618 0.467170
0.458350 0.741604 0.464881
0.467018 0.739315 0.462562
0.477607 0.736721 0.460182
0.489937 0.733944 0.458076
0.503441 0.730770 0.455421
0.518181 0.727352 0.452979
0.533806 0.723629 0.450538
0.549645 0.719448 0.447608
0.565759 0.714778 0.444495
0.581964 0.709682 0.441016
0.603174 0.709499 0.442237
0.634485 0.718898 0.452979
0.666590 0.728634 0.464454
0.699153 0.738643 0.476905
0.731716 0.748775 0.489998
0.763882 0.758785 0.503075
0.795102 0.768490 0.515862
0.825284 0.777829 0.528191
0.847623 0.780636 0.541253
0.871000 0.785367 0.563195
0.892180 0.787961 0.566491
0.909026 0.783200 0.541527
0.926513 0.778927 0.516594
0.944457 0.775509 0.492409
0.962860 0.773220 0.469795
0.981628 0.772457 0.449744
0.487709 0.773861 0.522026
0.489082 0.774228 0.522911
0.490700 0.774350 0.523522
0.493141 0.774075 0.523400
0.496529 0.773373 0.522759
0.501213 0.772396 0.521996
0.507286 0.771145 0.520836
0.514885 0.769619 0.519615
0.523919 0.767819 0.518181
0.534295 0.765835 0.516838
0.545769 0.763455 0.515221
0.558221 0.760800 0.513420
0.571221 0.757870 0.511345
0.584833 0.754391 0.508812
0.598596 0.750546 0.506035
0.612512 0.746273 0.502708
0.626703 0.741726 0.499367
0.650294 0.745876 0.505516
0.678950 0.754421 0.516655
0.708125 0.763302 0.528527
0.737362 0.772305 0.540764
0.766232 0.781277 0.553094
0.794430 0.790036 0.565118
0.821805 0.798550 0.576989
0.848142 0.806729 0.588312
0.868040 0.809476 0.600214
0.887877 0.813016 0.618891
0.907439 0.816739 0.627192
0.923156 0.813443 0.607782
0.939544 0.810727 0.588922
0.956481 0.808835 0.571466
0.973968 0.808133 0.555718
0.541436 0.801816 0.576867
0.542168 0.801938 0.577203
0.543175 0.801907 0.577295
0.544945 0.801602 0.577142
0.547448 0.801022 0.576562
0.550896 0.800137 0.575647
0.555627 0.799039 0.574517
0.561517 0.797726 0.573541
0.568566 0.796201 0.572229
0.576776 0.794461 0.570947
0.586145 0.792477 0.569543
0.596399 0.790280 0.568017
0.607385 0.787839 0.566308
0.618738 0.785031 0.564263
0.630549 0.781796 0.561791
0.642481 0.778317 0.558984
0.654902 0.774533 0.556268
0.667475 0.770657 0.553552
0.692958 0.778195 0.563714
0.718776 0.786038 0.574456
0.744869 0.794003 0.585748
0.770687 0.801907 0.596918
0.796017 0.809628 0.607935
0.820676 0.817197 0.618738
0.844602 0.824430 0.629114
0.867735 0.831449 0.638880
0.885405 0.833951 0.649470
0.902312 0.836393 0.664881
0.920287 0.840635 0.676356
0.935027 0.838590 0.661280
0.950439 0.837217 0.647211
0.966522 0.836606 0.634577
0.588373 0.826322 0.624872
0.588830 0.826444 0.625147
0.589837 0.826444 0.625330
0.591272 0.826230 0.625238
0.593683 0.825925 0.625086
0.597009 0.825498 0.625025
0.601801 0.825132 0.625360
0.607721 0.824613 0.625696
0.614771 0.824094 0.626154
0.622827 0.823453 0.626764
0.631769 0.822690 0.627253
0.641382 0.821683 0.627649
0.651453 0.820371 0.627649
0.661707 0.818692 0.627222
0.672145 0.816648 0.626246
0.682460 0.814115 0.624628
0.692988 0.811307 0.622705
0.703792 0.808347 0.620661
0.718410 0.808408 0.622461
0.740688 0.815030 0.632013
0.763088 0.821775 0.641962
0.785428 0.828489 0.651942
0.807279 0.835050 0.661494
0.828702 0.841489 0.671046
0.849577 0.847654 0.680110
0.869963 0.853696 0.688716
0.889708 0.859495 0.697139
0.904997 0.861662 0.705837
0.919066 0.863096 0.718196
0.934966 0.867185 0.730587
0.948455 0.866056 0.719203
0.962799 0.865721 0.709133
0.642695 0.853635 0.679713
0.642817 0.853605 0.679774
0.643244 0.853452 0.679591
0.644129 0.853208 0.679286
0.645655 0.852811 0.678859
0.647883 0.852262 0.678340
0.650965 0.851682 0.677943
0.654780 0.850919 0.677424
0.659541 0.850126 0.676905
0.665187 0.849210 0.676570
0.671565 0.848142 0.676020
0.678706 0.846952 0.675532
0.686366 0.845579 0.674830
0.694484 0.843992 0.673945
