20 Preset/INSTA/【3】LUT video cho PR-AE-FCPX/INS LUT (24).cube
# Created by Adobe Lightroom plugin Export LUT (1.24.0)
# www.johnrellis.com/lightroom/exportlut.htm
# Preset: INS胶片-自然[素材江湖]24
# Color profile: C:\Program Files (x86)\Common Files\Adobe\Color\Profiles\Recommended\VideoHD.icc
LUT_3D_SIZE 32
DOMAIN_MIN 0.0 0.0 0.0
DOMAIN_MAX 1.0 1.0 1.0
0.028687 0.035340 0.052186
0.033631 0.035859 0.053132
0.056703 0.038727 0.056825
0.088075 0.044404 0.063233
0.121736 0.052918 0.072328
0.192203 0.038300 0.075410
0.295720 0.000000 0.074098
0.429938 0.000000 0.065217
0.577325 0.000000 0.045594
0.705562 0.000000 0.018647
0.804044 0.000000 0.000000
0.877104 0.000000 0.000000
0.930571 0.000000 0.000000
0.968750 0.000000 0.000000
1.000000 0.000000 0.000000
1.000000 0.000000 0.000000
1.000000 0.198337 0.063722
1.000000 0.269627 0.122438
1.000000 0.321416 0.161959
1.000000 0.365881 0.200320
1.000000 0.402838 0.237888
1.000000 0.435004 0.274113
1.000000 0.462684 0.308385
1.000000 0.487587 0.341100
1.000000 0.510246 0.372625
1.000000 0.531487 0.403296
1.000000 0.551873 0.433753
1.000000 0.571893 0.463996
1.000000 0.591669 0.494057
1.000000 0.611536 0.524071
1.000000 0.631434 0.553979
1.000000 0.651423 0.583764
0.026917 0.039918 0.054994
0.032868 0.039246 0.054963
0.053559 0.043549 0.057343
0.086549 0.048005 0.063905
0.120699 0.056764 0.071870
0.186709 0.047364 0.076112
0.285466 0.000000 0.075349
0.413519 0.000000 0.066651
0.558801 0.000000 0.048463
0.688960 0.000000 0.021820
0.789548 0.000000 0.000000
0.865782 0.000000 0.000000
0.921874 0.000000 0.000000
0.962219 0.000000 0.000000
1.000000 0.000000 0.000000
1.000000 0.000000 0.000000
1.000000 0.185153 0.038544
1.000000 0.258213 0.111360
1.000000 0.311620 0.151278
1.000000 0.355779 0.189273
1.000000 0.393317 0.225711
1.000000 0.425238 0.261234
1.000000 0.453101 0.294926
1.000000 0.478096 0.327214
1.000000 0.500908 0.358526
1.000000 0.522301 0.389410
1.000000 0.543053 0.420111
1.000000 0.563653 0.451179
1.000000 0.583948 0.482124
1.000000 0.604211 0.512840
1.000000 0.624750 0.543816
1.000000 0.645106 0.574395
0.024781 0.057801 0.062745
0.026337 0.058778 0.061463
0.049683 0.057069 0.067994
0.083345 0.065126 0.070710
0.116701 0.077424 0.075013
0.177432 0.078187 0.077699
0.268254 0.037751 0.076692
0.387976 0.000000 0.067140
0.528283 0.000000 0.049775
0.662165 0.000000 0.023163
0.768643 0.000000 0.000000
0.849516 0.000000 0.000000
0.909361 0.000000 0.000000
0.952941 0.000000 0.000000
0.993347 0.000000 0.000000
1.000000 0.026429 0.000000
1.000000 0.196597 0.012146
1.000000 0.263218 0.101472
1.000000 0.313664 0.142580
1.000000 0.356603 0.181277
1.000000 0.393103 0.218662
1.000000 0.424872 0.254337
1.000000 0.452003 0.287999
1.000000 0.476478 0.320378
1.000000 0.498909 0.351873
1.000000 0.519768 0.382452
1.000000 0.540642 0.413733
1.000000 0.560937 0.444739
1.000000 0.581262 0.476143
1.000000 0.601740 0.507561
1.000000 0.622156 0.538720
1.000000 0.642542 0.569512
0.020172 0.087892 0.078950
0.020478 0.087892 0.078218
0.042206 0.088289 0.077729
0.086091 0.086915 0.084627
0.116548 0.095827 0.082918
0.162905 0.101534 0.079347
0.242557 0.100771 0.076600
0.349065 0.062898 0.067964
0.483558 0.000000 0.050294
0.619806 0.000000 0.022858
0.735012 0.000000 0.000000
0.822477 0.000000 0.000000
0.888518 0.000000 0.000000
0.939910 0.000000 0.000000
0.980438 0.000000 0.000000
1.000000 0.150484 0.000000
1.000000 0.225467 0.000000
1.000000 0.278782 0.080690
1.000000 0.322057 0.128542
1.000000 0.360296 0.167788
1.000000 0.393530 0.204501
1.000000 0.423590 0.240604
1.000000 0.450080 0.275120
1.000000 0.474647 0.308843
1.000000 0.497566 0.342077
1.000000 0.519585 0.375280
1.000000 0.541161 0.408667
1.000000 0.562097 0.441596
1.000000 0.582574 0.474067
1.000000 0.602930 0.506035
1.000000 0.622858 0.537041
1.000000 0.642420 0.567132
0.000000 0.117220 0.089570
0.000000 0.117556 0.088258
0.000000 0.118563 0.082277
0.066835 0.118288 0.087129
0.120516 0.118624 0.094423
0.167758 0.128176 0.089052
0.217227 0.130800 0.079805
0.294102 0.130556 0.068360
0.413214 0.113375 0.051881
0.548577 0.000000 0.024537
0.675807 0.000000 0.000000
0.776303 0.000000 0.000000
0.852476 0.000000 0.000000
0.916106 0.000000 0.000000
0.959625 0.147189 0.000000
0.989014 0.218082 0.000000
1.000000 0.267460 0.000000
1.000000 0.309575 0.036805
1.000000 0.345830 0.116365
1.000000 0.378546 0.158968
1.000000 0.408148 0.197696
1.000000 0.434760 0.234348
1.000000 0.459083 0.269535
1.000000 0.482063 0.304356
1.000000 0.503960 0.338720
1.000000 0.525261 0.372961
1.000000 0.545922 0.406806
1.000000 0.566033 0.439979
1.000000 0.585779 0.472602
1.000000 0.605310 0.504326
1.000000 0.624567 0.535271
1.000000 0.643610 0.565270
0.000000 0.163333 0.094026
0.000000 0.163729 0.092653
0.000000 0.164157 0.083497
0.000000 0.165530 0.082704
0.098390 0.167300 0.090547
0.174777 0.168582 0.102480
0.236362 0.175906 0.091402
0.291417 0.172671 0.074922
0.343694 0.165927 0.052674
0.469215 0.159030 0.026368
0.603937 0.135042 0.000000
0.719600 0.112245 0.000000
0.813352 0.133944 0.000000
0.885801 0.189914 0.000000
0.934844 0.241123 0.000000
0.969177 0.284123 0.000000
0.994446 0.320012 0.000000
1.000000 0.352300 0.000000
1.000000 0.381323 0.107454
1.000000 0.408087 0.155032
1.000000 0.432929 0.195987
1.000000 0.455818 0.234195
1.000000 0.525841 0.344488
1.000000 0.543999 0.378729
1.000000 0.561364 0.411292
1.000000 0.578302 0.442695
1.000000 0.594873 0.472847
1.000000 0.611109 0.501427
1.000000 0.627375 0.529473
1.000000 0.643641 0.556817
1.000000 0.659724 0.583246
1.000000 0.675380 0.608453
0.000000 0.238560 0.093965
0.000000 0.238682 0.091402
0.000000 0.238254 0.077333
0.000000 0.238560 0.053559
0.000000 0.242893 0.068910
0.153689 0.246372 0.090150
0.271977 0.249393 0.113527
0.351507 0.250645 0.091676
0.411322 0.238254 0.050965
0.464576 0.223667 0.014954
0.541283 0.213535 0.000000
0.680507 0.224521 0.000000
0.792416 0.258030 0.000000
0.869932 0.301305 0.000000
0.921752 0.339208 0.000000
0.957488 0.369299 0.000000
0.984161 0.394659 0.000000
1.000000 0.417395 0.023499
1.000000 0.439063 0.127626
1.000000 0.460365 0.178500
1.000000 0.481605 0.224857
1.000000 0.503044 0.269932
1.000000 0.524193 0.313664
1.000000 0.544640 0.355932
1.000000 0.563775 0.395117
1.000000 0.581476 0.430671
1.000000 0.597498 0.462806
1.000000 0.613153 0.492897
1.000000 0.628717 0.521599
1.000000 0.644068 0.549187
1.000000 0.659541 0.576074
1.000000 0.674800 0.601831
0.000000 0.305577 0.084901
0.000000 0.305486 0.080690
0.000000 0.304631 0.053193
0.000000 0.303166 0.010315
0.000000 0.307347 0.022034
0.000000 0.314275 0.048554
0.232792 0.319982 0.090120
0.376410 0.324651 0.127138
0.457832 0.322026 0.095857
0.513725 0.304967 0.031891
0.574670 0.294163 0.000000
0.624475 0.281102 0.000000
0.715877 0.296269 0.000000
0.808469 0.333288 0.000000
0.874540 0.370123 0.000000
0.920500 0.399878 0.000000
0.953918 0.423957 0.000000
0.979950 0.444190 0.000000
1.000000 0.463020 0.090700
1.000000 0.481453 0.155306
1.000000 0.499916 0.206332
1.000000 0.518273 0.253910
1.000000 0.536797 0.299870
1.000000 0.554986 0.343572
1.000000 0.572473 0.384497
1.000000 0.588617 0.421546
1.000000 0.603784 0.455299
1.000000 0.618341 0.486397
1.000000 0.633082 0.516136
1.000000 0.647852 0.544793
1.000000 0.662593 0.572198
1.000000 0.677455 0.598688
0.000000 0.378698 0.051362
0.000000 0.378576 0.041444
0.000000 0.377264 0.011841
0.000000 0.375158 0.000000
0.000000 0.376837 0.000000
0.000000 0.385290 0.000000
0.126741 0.393591 0.026856
0.341344 0.400641 0.094209
0.503227 0.417670 0.149294
0.584253 0.419043 0.108644
0.634272 0.402869 0.007599
0.674464 0.385077 0.000000
0.706783 0.366613 0.000000
0.733822 0.349554 0.000000
0.815793 0.387091 0.000000
0.876219 0.421729 0.000000
0.919524 0.448829 0.000000
0.951873 0.469947 0.000000
0.977630 0.487984 0.000000
0.998657 0.504784 0.127871
1.000000 0.521111 0.187747
1.000000 0.537163 0.239475
1.000000 0.553277 0.288090
1.000000 0.569207 0.333745
1.000000 0.584680 0.376318
1.000000 0.599145 0.414832
1.000000 0.613123 0.450233
1.000000 0.626734 0.482734
1.000000 0.640558 0.513603
1.000000 0.654353 0.542840
1.000000 0.668421 0.571038
1.000000 0.682551 0.597986
0.000000 0.454047 0.000000
0.000000 0.453376 0.000000
0.000000 0.451850 0.000000
0.000000 0.449042 0.000000
0.000000 0.446448 0.000000
0.000000 0.458961 0.000000
0.000000 0.473518 0.000000
0.288640 0.486763 0.015991
0.478431 0.497627 0.114595
0.613489 0.509819 0.189792
0.668299 0.502770 0.145480
0.703304 0.482551 0.075319
0.732418 0.461402 0.000000
0.757504 0.441505 0.000000
0.779782 0.423285 0.000000
0.817502 0.426062 0.000000
0.876707 0.462409 0.000000
0.919493 0.489509 0.000000
0.951537 0.510124 0.000000
0.976959 0.527306 0.084688
0.997070 0.542260 0.164645
1.000000 0.555871 0.221225
1.000000 0.569024 0.271092
1.000000 0.581994 0.317052
1.000000 0.594751 0.359869
1.000000 0.607324 0.399664
1.000000 0.620020 0.436988
1.000000 0.632837 0.472023
1.000000 0.646052 0.505180
1.000000 0.659693 0.536889
1.000000 0.673640 0.567163
1.000000 0.687678 0.595972
0.000000 0.533288 0.000000
0.000000 0.533074 0.000000
0.000000 0.532372 0.000000
0.000000 0.530846 0.000000
0.000000 0.528099 0.000000
0.000000 0.535912 0.000000
0.000000 0.546868 0.000000
0.172580 0.556420 0.000000
0.434363 0.564202 0.096651
0.585870 0.572534 0.163912
0.688746 0.582238 0.247166
0.728359 0.571893 0.201602
0.755215 0.551476 0.143374
0.778531 0.530510 0.033692
0.799344 0.510826 0.000000
0.818448 0.493446 0.000000
0.836759 0.478859 0.000000
0.878965 0.498054 0.000000
0.919982 0.524071 0.000000
0.950958 0.543420 0.000000
0.975555 0.559014 0.124025
0.994965 0.572290 0.194156
1.000000 0.584833 0.250401
1.000000 0.596674 0.300694
1.000000 0.608240 0.347021
1.000000 0.619715 0.389654
1.000000 0.631312 0.429480
1.000000 0.643183 0.466743
1.000000 0.655512 0.501640
1.000000 0.668360 0.534966
1.000000 0.681605 0.566552
1.000000 0.695094 0.596460
0.000000 0.604150 0.000000
0.000000 0.603876 0.000000
0.000000 0.603082 0.000000
0.000000 0.601434 0.000000
0.000000 0.598718 0.000000
0.000000 0.599969 0.000000
0.000000 0.608759 0.000000
0.000000 0.616175 0.000000
0.378973 0.621973 0.095735
0.551934 0.627893 0.167697
0.666560 0.635798 0.231418
0.744472 0.643977 0.316197
0.806821 0.673976 0.334661
0.826810 0.652827 0.275334
0.844450 0.631189 0.215122
0.860685 0.610803 0.150149
0.875883 0.592523 0.015686
0.890654 0.577325 0.000000
0.906218 0.566735 0.000000
0.939971 0.586511 0.000000
0.966155 0.601404 0.150515
0.986297 0.613214 0.223758
1.000000 0.623529 0.282689
1.000000 0.633326 0.334966
1.000000 0.642695 0.381781
1.000000 0.651911 0.424018
1.000000 0.661006 0.462043
1.000000 0.670466 0.496620
1.000000 0.680446 0.529046
1.000000 0.691005 0.559686
1.000000 0.702144 0.588952
1.000000 0.713832 0.616907
0.000000 0.687770 0.116609
0.000000 0.687343 0.113039
0.000000 0.685389 0.088594
0.000000 0.682551 0.000000
0.000000 0.678096 0.000000
0.000000 0.672419 0.000000
0.000000 0.677150 0.000000
0.000000 0.681056 0.005097
0.338018 0.684535 0.138003
0.532647 0.689143 0.203525
0.655329 0.696529 0.268101
0.741787 0.706325 0.335973
0.797024 0.712276 0.426001
0.821469 0.700221 0.385046
0.841337 0.683192 0.333410
0.858549 0.664485 0.279667
0.874113 0.646082 0.225101
0.888609 0.628992 0.167544
0.902464 0.614252 0.096925
0.915862 0.602045 0.000000
0.936614 0.603693 0.000000
0.962585 0.618524 0.159945
0.982696 0.630335 0.235538
0.998077 0.640558 0.296513
1.000000 0.649989 0.350256
1.000000 0.659083 0.398474
1.000000 0.668116 0.441993
1.000000 0.677394 0.481392
1.000000 0.687221 0.517784
1.000000 0.697719 0.551934
1.000000 0.708614 0.583856
1.000000 0.720180 0.614130
0.000000 0.724819 0.167117
0.000000 0.724147 0.164126
0.000000 0.722347 0.149172
0.000000 0.719478 0.115511
0.000000 0.715419 0.000000
0.000000 0.709957 0.000000
0.000000 0.710048 0.000000
0.000000 0.712978 0.062715
0.208438 0.715328 0.151888
0.470192 0.718166 0.211948
0.608392 0.723018 0.272068
0.703944 0.729885 0.335637
0.773251 0.738094 0.400824
0.815518 0.740566 0.483833
0.836332 0.728206 0.444923
0.854154 0.711696 0.395117
0.870085 0.693935 0.343236
0.884886 0.676783 0.292943
0.898955 0.660975 0.244358
0.912261 0.646937 0.196902
0.925292 0.635187 0.148135
0.938384 0.626123 0.088502
0.961212 0.636316 0.176181
0.981079 0.648249 0.253635
0.995941 0.658412 0.316686
1.000000 0.667659 0.371923
1.000000 0.676570 0.421271
1.000000 0.685603 0.465919
1.000000 0.695064 0.506371
1.000000 0.705226 0.543938
1.000000 0.715999 0.578943
1.000000 0.727413 0.611841
0.000000 0.756252 0.215213
0.000000 0.755856 0.212345
0.000000 0.754482 0.202426
0.000000 0.752102 0.179812
0.000000 0.748653 0.137148
0.000000 0.744289 0.002197
0.000000 0.740444 0.000000
0.000000 0.742367 0.117189
0.000000 0.743587 0.174990
0.404273 0.744961 0.229068
0.560998 0.747768 0.284367
0.665736 0.752255 0.343023
0.740688 0.757992 0.403082
0.796689 0.764187 0.462715
0.829770 0.764004 0.536522
0.847837 0.751522 0.499306
0.864256 0.736141 0.452705
0.879362 0.719875 0.404730
0.893736 0.704005 0.357702
0.907378 0.689296 0.313390
0.920531 0.676295 0.272679
0.933562 0.665461 0.235691
0.946532 0.656703 0.201572
0.961395 0.654108 0.196506
0.980468 0.665736 0.274662
0.994568 0.675685 0.339361
1.000000 0.684901 0.396521
1.000000 0.694240 0.448127
1.000000 0.703944 0.494820
1.000000 0.714351 0.537743
1.000000 0.725551 0.577600
1.000000 0.737423 0.614435
0.000000 0.780789 0.258396
0.000000 0.780789 0.256809
0.000000 0.780148 0.249302
0.000000 0.778866 0.233890
0.000000 0.776944 0.206149
0.000000 0.774472 0.160922
0.000000 0.770993 0.131136
0.000000 0.771298 0.164889
0.000000 0.771939 0.211460
0.338476 0.771969 0.258824
0.517449 0.772671 0.308263
0.628717 0.774380 0.359747
0.708186 0.777005 0.412604
0.767727 0.780362 0.465064
0.813657 0.784115 0.515068
0.840024 0.781949 0.579370
0.856260 0.769863 0.544274
0.871580 0.755917 0.501946
0.885954 0.741115 0.458625
0.899962 0.726802 0.416388
0.913603 0.713832 0.376928
0.927001 0.702419 0.341497
0.940154 0.692744 0.310521
0.953094 0.684901 0.283696
0.965820 0.678828 0.261692
0.981140 0.683986 0.302342
0.994018 0.694118 0.369757
1.000000 0.703639 0.429206
1.000000 0.713252 0.482002
1.000000 0.723384 0.529381
1.000000 0.734035 0.572290
1.000000 0.745266 0.611414
0.000000 0.801236 0.300145
0.000000 0.801114 0.298466
0.000000 0.800717 0.292882
0.000000 0.799893 0.280705
0.000000 0.798642 0.260533
0.000000 0.797086 0.229374
0.000000 0.794766 0.196109
0.000000 0.792508 0.199130
0.000000 0.792355 0.238651
0.238590 0.791501 0.280552
0.464576 0.791043 0.325414
0.587335 0.791470 0.372412
0.673335 0.792844 0.420874
0.737484 0.794949 0.469093
0.787381 0.797604 0.516014
0.827115 0.800565 0.561028
0.848631 0.797818 0.618830
0.863462 0.786893 0.587640
0.877775 0.774319 0.549828
0.891508 0.760952 0.510857
0.905180 0.748409 0.474098
0.918730 0.736812 0.439490
0.932006 0.726650 0.408698
0.945068 0.718013 0.381903
0.957824 0.710903 0.359411
0.970245 0.705409 0.342199
0.982361 0.702174 0.334600
0.993805 0.712367 0.404303
1.000000 0.722286 0.465339
1.000000 0.732418 0.518975
1.000000 0.743008 0.566918
1.000000 0.754177 0.609888
0.000000 0.820066 0.345037
0.000000 0.820157 0.344640
0.000000 0.832486 0.374884
0.000000 0.832029 0.365942
0.000000 0.831205 0.350713
0.000000 0.830137 0.328283
0.000000 0.828824 0.296880
0.000000 0.825711 0.283116
0.000000 0.823728 0.309911
0.228397 0.821653 0.346471
0.452613 0.820066 0.386084
0.573053 0.819242 0.427680
0.657099 0.819059 0.469368
0.720729 0.819486 0.511040
0.770504 0.820340 0.551415
0.810666 0.821530 0.590326
0.843442 0.822934 0.627008
0.859617 0.819089 0.673182
0.871946 0.808774 0.645533
0.884886 0.797147 0.611383
0.897856 0.784939 0.576349
0.910918 0.773587 0.543847
0.923919 0.763058 0.513664
0.936675 0.753597 0.486458
0.949126 0.745113 0.461921
0.961151 0.737972 0.441566
0.972808 0.732204 0.425513
0.983978 0.727932 0.414862
0.993469 0.731258 0.444953
0.999054 0.741176 0.505211
1.000000 0.751553 0.558495
1.000000 0.762417 0.605646
0.000000 0.839017 0.398383
0.000000 0.839963 0.400488
0.000000 0.840879 0.400244
0.000000 0.841428 0.395422
0.000000 0.841581 0.385565
0.000000 0.841123 0.368566
0.000000 0.840208 0.343420
0.000000 0.838132 0.322759
0.000000 0.835477 0.327825
0.000000 0.833097 0.360357
0.392981 0.831113 0.396063
0.528740 0.829679 0.433845
0.620569 0.828855 0.472175
0.689021 0.828702 0.510979
0.742397 0.829068 0.549126
0.785733 0.829770 0.586297
0.821530 0.830808 0.622095
0.850340 0.832059 0.655909
0.864530 0.828641 0.696956
0.875792 0.819913 0.674525
0.887724 0.810025 0.646296
0.900084 0.799832 0.617487
0.912657 0.789975 0.589624
0.925200 0.780697 0.563622
0.937499 0.772122 0.539818
0.949493 0.764584 0.519127
0.961059 0.758206 0.502312
0.972168 0.753201 0.490150
0.982666 0.749905 0.483803
0.992401 0.748257 0.483589
0.996521 0.758145 0.541741
0.997650 0.769009 0.595056
0.000000 0.849973 0.432685
0.000000 0.850828 0.434943
0.000000 0.851682 0.435248
0.000000 0.852293 0.432349
0.000000 0.852537 0.424537
0.000000 0.852293 0.410986
0.000000 0.851682 0.391119
0.000000 0.850645 0.365911
0.000000 0.848020 0.355077
0.000000 0.845396 0.381018
0.336065 0.843015 0.413153
0.489082 0.841123 0.447456
0.587427 0.839780 0.482643
0.660182 0.839109 0.518639
0.716762 0.838926 0.554406
0.762417 0.839170 0.589349
0.800443 0.839689 0.623285
0.831998 0.840574 0.654871
0.857145 0.841398 0.685176
0.869505 0.838346 0.720455
0.879606 0.830747 0.702113
0.890379 0.822354 0.678981
0.901762 0.813748 0.655512
0.913573 0.805264 0.632349
0.925414 0.797055 0.610040
0.937133 0.789548 0.589899
0.948547 0.782925 0.572808
0.959533 0.777554 0.559838
0.969909 0.773678 0.551934
0.979553 0.771359 0.549493
0.988251 0.770626 0.552697
0.993225 0.775540 0.581567
0.000000 0.860349 0.468635
0.000000 0.861051 0.470741
0.000000 0.861723 0.471199
0.000000 0.862181 0.468818
0.000000 0.862425 0.462654
0.000000 0.862303 0.451545
0.000000 0.861875 0.435615
0.000000 0.861265 0.414191
0.000000 0.859678 0.398627
0.000000 0.857115 0.403449
0.277043 0.854459 0.432776
0.451698 0.852232 0.463813
0.556420 0.850523 0.496040
0.632898 0.849332 0.529137
0.692592 0.848722 0.562890
0.740444 0.848569 0.596033
0.780392 0.848905 0.628809
0.814206 0.849607 0.659785
0.842283 0.850797 0.688594
0.864317 0.851743 0.716365
0.875212 0.849424 0.747036
0.884184 0.843534 0.734127
0.893797 0.836912 0.716793
0.904021 0.830289 0.699794
0.914580 0.823758 0.683284
0.925261 0.817533 0.667781
0.935851 0.811856 0.654078
0.946166 0.807034 0.643305
0.955901 0.803464 0.636500
0.964965 0.801205 0.634058
0.973022 0.800290 0.635981
0.980011 0.800656 0.642054
0.000000 0.873655 0.521874
0.000000 0.873899 0.522576
0.000000 0.874052 0.521599
0.000000 0.874052 0.518151
0.000000 0.873930 0.511742
0.000000 0.873625 0.502037
0.000000 0.873259 0.488869
0.000000 0.872831 0.471839
0.000000 0.872221 0.452094
0.000000 0.870329 0.443091
0.247898 0.867643 0.464973
0.431464 0.865171 0.493294
0.537591 0.863127 0.522637
0.614862 0.861509 0.553002
0.674830 0.860410 0.583398
0.723415 0.859739 0.613855
0.764004 0.859403 0.643214
0.798367 0.859464 0.670893
0.827420 0.859892 0.696681
0.851865 0.860685 0.720394
0.870695 0.860990 0.743313
0.879911 0.858518 0.768490
0.887755 0.853147 0.757443
0.896147 0.847135 0.742367
0.905241 0.841398 0.728237
0.914733 0.835996 0.715084
0.924407 0.830961 0.703426
0.933959 0.826627 0.693935
0.943206 0.823178 0.687343
0.951873 0.820829 0.684108
0.959808 0.819547 0.684321
0.966766 0.819394 0.687953
0.025452 0.881590 0.557488
0.059663 0.881773 0.557946
0.073487 0.881895 0.557153
0.049226 0.881956 0.554498
0.000000 0.881865 0.549432
0.000000 0.881712 0.541650
0.000000 0.881498 0.531029
0.000000 0.881254 0.517235
0.000000 0.881010 0.500206
0.000000 0.880003 0.487587
0.206973 0.877989 0.489784
0.407752 0.875364 0.515496
0.516533 0.873075 0.542443
0.595361 0.871244 0.570489
0.656550 0.869841 0.598962
0.706172 0.868833 0.627314
0.747646 0.868254 0.654658
0.782925 0.867948 0.680354
0.813077 0.868009 0.704372
0.838590 0.868406 0.726528
0.860075 0.869108 0.746700
0.876280 0.869169 0.766567
0.884184 0.866880 0.788174
0.891112 0.862394 0.779538
0.898070 0.855344 0.762112
0.906310 0.850431 0.750423
0.914946 0.846098 0.740444
0.923613 0.842222 0.732082
0.932219 0.839048 0.725856
0.940490 0.836759 0.722347
0.948119 0.835477 0.721950
0.954986 0.835142 0.724331
0.325383 0.890379 0.602777
0.329900 0.890593 0.603967
0.330846 0.890715 0.603479
0.327001 0.890654 0.600580
0.319310 0.890471 0.595514
0.307652 0.890166 0.587976
0.291966 0.889830 0.578088
0.272648 0.889433 0.565667
0.249180 0.889097 0.550439
0.223331 0.888731 0.532891
0.250492 0.887205 0.523430
0.388220 0.884611 0.537530
0.497353 0.881926 0.561059
0.575799 0.879606 0.585443
0.637385 0.877653 0.610315
0.687343 0.876097 0.635157
0.729397 0.874968 0.659480
0.765560 0.874235 0.683131
0.796902 0.873930 0.705806
0.823941 0.873991 0.727260
0.846830 0.874418 0.746944
0.866087 0.875090 0.764981
0.880278 0.874907 0.782650
0.887144 0.872618 0.801114
0.893309 0.868467 0.793637
0.900053 0.863737 0.782254
0.907439 0.859525 0.772427
0.915221 0.855894 0.764401
0.923095 0.852842 0.758145
0.930755 0.850553 0.754208
0.938048 0.849119 0.752865
0.944640 0.848692 0.754299
0.401434 0.895628 0.632197
0.404547 0.895842 0.633234
0.405982 0.895933 0.633143
0.404608 0.895995 0.631281
0.401099 0.895933 0.627619
0.395575 0.895903 0.622309
0.388891 0.895811 0.615351
0.380621 0.895781 0.606439
0.370825 0.895750 0.595514
0.359899 0.895750 0.582422
0.359197 0.895293 0.570794
0.390692 0.893950 0.567132
0.493904 0.891264 0.588861
0.569482 0.888853 0.611139
0.628626 0.886778 0.633295
0.677241 0.885008 0.655238
0.718471 0.883574 0.676692
0.754177 0.882506 0.697597
0.785519 0.881834 0.717861
0.812711 0.881498 0.737057
0.836149 0.881498 0.755093
0.856077 0.881773 0.771756
0.872801 0.882261 0.786984
0.884886 0.881865 0.802060
0.890715 0.879789 0.817624
0.896178 0.876432 0.812131
0.902159 0.872587 0.803189
0.908690 0.869291 0.795773
0.915587 0.866789 0.790555
0.922454 0.864836 0.787076
0.929015 0.863584 0.785611
0.935119 0.863096 0.786282
0.478706 0.901488 0.668788
0.479988 0.901579 0.669306
0.479988 0.901640 0.668757
0.478767 0.901640 0.667140
0.476234 0.901610 0.664149
0.472358 0.901549 0.659785
0.467323 0.901518 0.654047
0.461311 0.901488 0.646784
0.454597 0.901488 0.638025
0.446937 0.901549 0.627588
0.437903 0.901640 0.614771
0.444099 0.900969 0.607202
0.493629 0.899199 0.613855
0.564630 0.896788 0.633692
0.621607 0.894560 0.653529
0.668330 0.892699 0.672786
0.708614 0.891081 0.691829
0.743862 0.889769 0.710536
0.774929 0.888823 0.728634
0.802182 0.888212 0.745998
0.825956 0.887877 0.762570
0.846433 0.887785 0.777951
0.863737 0.887877 0.792050
0.878325 0.888151 0.804868
0.888701 0.887541 0.817594
0.893675 0.885527 0.830625
0.898497 0.882719 0.826444
0.903838 0.879454 0.818997
0.909667 0.876799 0.813169
0.915801 0.875151 0.809995
0.921752 0.874113 0.808530
0.927398 0.873747 0.808927
0.534020 0.906340 0.699794
0.534783 0.906401 0.700130
0.535088 0.906462 0.699916
0.534722 0.906493 0.698848
0.533776 0.906554 0.696986
0.532738 0.906645 0.694514
0.532433 0.906828 0.691798
0.532189 0.907103 0.688441
0.532280 0.907439 0.684474
0.532189 0.907866 0.679561
0.531853 0.908293 0.673548
0.532952 0.908629 0.667323
0.542199 0.908354 0.664607
0.593133 0.906584 0.679713
0.641352 0.904723 0.697108
0.681910 0.902983 0.713222
0.717372 0.901366 0.728664
0.748989 0.899962 0.743587
0.777249 0.898833 0.758297
0.802426 0.897917 0.772580
0.824521 0.897307 0.786252
0.843687 0.896880 0.799008
0.860075 0.896635 0.810636
0.873991 0.896513 0.821256
0.885649 0.896574 0.830808
0.893858 0.895842 0.840452
0.897856 0.894011 0.850278
0.901823 0.891844 0.847440
0.906249 0.889433 0.842039
0.911040 0.887541 0.838071
0.916075 0.886778 0.836851
0.920836 0.886564 0.837064
0.607141 0.912657 0.744442
0.607141 0.912657 0.744381
0.606714 0.912657 0.743801
0.605859 0.912657 0.742672
0.604517 0.912627 0.740963
0.602808 0.912657 0.738552
0.601099 0.912688 0.735683
0.599115 0.912779 0.732113
0.597131 0.912902 0.727932
0.594873 0.913115 0.722988
0.592370 0.913329 0.717128
0.589563 0.913603 0.710292
0.590692 0.913542 0.704952
0.602960 0.912902 0.704341
