20 Preset/INSTA/【3】LUT video cho PR-AE-FCPX/INS LUT (19).cube
# Created by Adobe Lightroom plugin Export LUT (1.24.0)
# www.johnrellis.com/lightroom/exportlut.htm
# Preset: INS胶片-自然[素材江湖]19
# Color profile: C:\Program Files (x86)\Common Files\Adobe\Color\Profiles\Recommended\VideoHD.icc
LUT_3D_SIZE 8
DOMAIN_MIN 0.000000 0.000000 0.000000
DOMAIN_MAX 0.903226 0.903226 0.903226
0.000000 0.000000 0.000000
0.078279 0.010895 0.012787
0.282536 0.000000 0.048096
0.625391 0.000000 0.096468
0.858183 0.000000 0.169986
0.971252 0.272160 0.336492
0.985351 0.471595 0.483406
0.978241 0.594476 0.608881
0.000000 0.094575 0.053712
0.086885 0.093782 0.036408
0.274937 0.041901 0.039521
0.571313 0.000000 0.081910
0.826749 0.000000 0.150027
0.948730 0.218967 0.280430
0.979644 0.421088 0.422614
0.979889 0.564172 0.570642
0.000000 0.367407 0.218051
0.000000 0.356085 0.184054
0.291508 0.270573 0.087953
0.607507 0.238895 0.000000
0.832883 0.286778 0.133822
0.931487 0.390234 0.280827
0.968048 0.518700 0.462837
0.969268 0.619074 0.607019
0.404181 0.715389 0.577569
0.428382 0.711757 0.579400
0.437293 0.654170 0.418372
0.621180 0.556725 0.230808
0.810422 0.551720 0.173251
0.906126 0.543145 0.285557
0.947509 0.588495 0.459022
0.957671 0.650416 0.602930
0.626856 0.796445 0.729244
0.636713 0.796811 0.734585
0.615564 0.786374 0.687984
0.644434 0.744533 0.588434
0.728786 0.668482 0.383276
0.840330 0.653712 0.343877
0.916320 0.632471 0.397528
0.944457 0.677668 0.575982
0.727077 0.842618 0.809781
0.738186 0.846189 0.817441
0.741207 0.844907 0.814420
0.725002 0.831235 0.775875
0.732052 0.796994 0.700740
0.790372 0.751034 0.558923
0.867521 0.746792 0.562860
0.925383 0.735256 0.600519
0.792172 0.869627 0.856291
0.795163 0.870115 0.858000
0.801633 0.870481 0.861295
0.790982 0.866972 0.848295
0.780148 0.855772 0.821775
0.783139 0.833310 0.772396
0.825925 0.808957 0.692988
0.879515 0.809140 0.708034
0.834623 0.879728 0.881376
0.835264 0.879698 0.881682
0.838346 0.879698 0.883146
0.841550 0.879576 0.884306
0.826596 0.877531 0.871855
0.823575 0.873930 0.859770
0.829313 0.866941 0.836698
0.861753 0.862150 0.808896
0.000000 0.006226 0.039918
0.062318 0.013886 0.045411
0.236545 0.000000 0.040681
0.532036 0.000000 0.077394
0.806119 0.000000 0.140383
0.939788 0.148775 0.259068
0.977752 0.381140 0.393164
0.982879 0.531579 0.539513
0.001373 0.091127 0.053803
0.092103 0.093294 0.067933
0.255161 0.084596 0.050233
0.530144 0.000000 0.063203
0.801114 0.000000 0.134401
0.928161 0.184329 0.243778
0.970855 0.369238 0.368109
0.981933 0.512810 0.512474
0.000000 0.321050 0.212711
0.000000 0.316747 0.194095
0.288396 0.260227 0.112459
0.565393 0.229709 0.000000
0.790066 0.249546 0.101534
0.908293 0.339971 0.227604
0.958679 0.449500 0.375341
0.972778 0.563897 0.537346
0.267887 0.656489 0.497353
0.324712 0.657557 0.511223
0.372229 0.601343 0.366644
0.558038 0.494667 0.199557
0.757931 0.487587 0.075746
0.875792 0.483742 0.194186
0.935637 0.530541 0.360693
0.959167 0.601343 0.528618
0.608606 0.785672 0.712947
0.616968 0.785061 0.716793
0.592920 0.772671 0.666255
0.619013 0.722805 0.550591
0.703975 0.639673 0.344366
0.823911 0.629175 0.291569
0.906981 0.609094 0.345403
0.943328 0.653254 0.528771
0.712612 0.835172 0.798062
0.717647 0.835966 0.801175
0.723903 0.835477 0.800229
0.709102 0.821622 0.759091
0.720790 0.786130 0.680323
0.784085 0.741299 0.540337
0.863676 0.736690 0.536645
0.923674 0.722347 0.570825
0.781704 0.865995 0.849424
0.782254 0.865660 0.849546
0.789334 0.866087 0.853239
0.780179 0.862608 0.840269
0.772030 0.851347 0.813748
0.775875 0.826902 0.760525
0.819181 0.798154 0.669123
0.875547 0.796475 0.678798
0.829648 0.879179 0.878782
0.831266 0.879271 0.879576
0.834501 0.879301 0.881132
0.838865 0.879301 0.882933
0.830350 0.878172 0.874571
0.824826 0.874327 0.861204
0.828305 0.866239 0.835477
0.860838 0.860746 0.805814
0.000000 0.033478 0.144503
0.036957 0.069764 0.121706
0.242496 0.000000 0.169009
0.569635 0.000000 0.158633
0.823545 0.000000 0.153170
0.937621 0.267124 0.266728
0.973541 0.435676 0.412177
0.978302 0.564294 0.563378
0.000000 0.102876 0.168917
0.092744 0.116365 0.153567
0.271061 0.103120 0.173281
0.555535 0.000000 0.162234
0.808316 0.000000 0.155917
0.924437 0.276951 0.245884
0.967926 0.423835 0.387243
0.977813 0.550805 0.541955
0.000000 0.285283 0.198886
0.156039 0.288975 0.239536
0.329686 0.268193 0.194827
0.598291 0.273198 0.184909
0.803769 0.315312 0.176303
0.908843 0.388251 0.236545
0.956268 0.478920 0.387152
0.970214 0.577935 0.546105
0.329625 0.633783 0.497475
0.390387 0.642145 0.522698
0.435462 0.603937 0.436378
0.595026 0.515618 0.276768
0.774044 0.503258 0.213382
0.879911 0.507530 0.215671
0.936858 0.553399 0.383215
0.957794 0.618982 0.549310
0.606714 0.773617 0.704097
0.618830 0.774868 0.711147
0.621271 0.769467 0.690700
0.635431 0.723445 0.584771
0.718929 0.652369 0.402136
0.828214 0.636652 0.345251
0.907591 0.616022 0.354925
0.943206 0.659846 0.538689
0.710750 0.830289 0.794308
0.716548 0.831540 0.798093
0.730037 0.833097 0.804654
0.710903 0.818082 0.761685
0.719844 0.780789 0.682795
0.782193 0.737819 0.550927
0.862394 0.734737 0.538476
0.923919 0.724300 0.575128
0.783749 0.865782 0.850340
0.784604 0.865599 0.850675
0.790707 0.865751 0.853758
0.785306 0.862821 0.844572
0.774136 0.851194 0.817075
0.777462 0.827054 0.765805
0.821500 0.801785 0.684596
0.878111 0.803006 0.694362
0.829099 0.879088 0.878477
0.829496 0.879057 0.878630
0.832914 0.879088 0.880278
0.840452 0.879332 0.884031
0.831937 0.878294 0.876066
0.826780 0.874846 0.863767
0.829984 0.867308 0.839292
0.862181 0.862333 0.809323
0.000000 0.073396 0.305333
0.000000 0.093202 0.294652
0.190860 0.202609 0.222293
0.547356 0.000000 0.348669
0.823606 0.000000 0.354620
0.923064 0.307927 0.358465
0.967712 0.416602 0.382666
0.977905 0.544396 0.533898
0.000000 0.124208 0.342687
0.000000 0.137819 0.326513
0.230198 0.234836 0.261448
0.572992 0.000000 0.357855
0.825834 0.209354 0.369299
0.916960 0.341131 0.362188
0.963592 0.428321 0.377173
0.976074 0.548058 0.530694
0.000000 0.267063 0.362036
0.000000 0.255222 0.359686
0.329686 0.313024 0.339452
0.606561 0.332311 0.373632
0.803281 0.388098 0.381628
0.899290 0.453468 0.391211
0.951965 0.518364 0.432258
0.967773 0.595514 0.560906
0.106416 0.567010 0.407660
0.266331 0.570550 0.437842
0.480446 0.585016 0.515251
0.615961 0.513542 0.388220
0.768704 0.509606 0.368292
0.865202 0.536187 0.387579
0.927550 0.566278 0.425788
0.956939 0.620478 0.547143
0.596094 0.753536 0.685573
0.609613 0.755245 0.693721
0.661707 0.765499 0.728725
0.654108 0.720943 0.629328
0.734066 0.663447 0.483223
0.832151 0.644678 0.446693
0.904295 0.637751 0.452735
0.943420 0.667659 0.552789
0.716213 0.826566 0.795163
0.726772 0.830564 0.803037
0.743191 0.833494 0.813321
0.732113 0.823484 0.786313
0.733089 0.785977 0.715084
0.786557 0.743557 0.595483
0.861875 0.737484 0.582147
0.925322 0.727474 0.584833
0.781369 0.863645 0.848142
0.784207 0.864164 0.849790
0.793545 0.865599 0.855070
0.801480 0.866148 0.857511
0.785977 0.855528 0.831266
0.783963 0.830900 0.781827
0.823728 0.805051 0.704189
0.880156 0.806424 0.708431
0.830106 0.879301 0.879057
0.830869 0.879301 0.879423
0.834348 0.879332 0.881102
0.840696 0.879454 0.884184
0.837827 0.878782 0.880644
0.830106 0.875700 0.868284
0.831785 0.868589 0.844724
0.864012 0.864805 0.817227
0.000000 0.113863 0.521996
0.000000 0.129488 0.517540
0.239841 0.252750 0.461677
0.425452 0.306462 0.437354
0.799771 0.000000 0.570794
0.902220 0.355474 0.545861
0.932280 0.525261 0.568414
0.966094 0.572137 0.579736
0.000000 0.162142 0.541955
0.000000 0.175692 0.538170
0.294285 0.298253 0.485237
0.464424 0.337469 0.465888
0.799710 0.198703 0.571130
0.894987 0.401984 0.550958
0.928954 0.534752 0.569726
0.963836 0.577996 0.581231
0.000000 0.315282 0.567956
0.000000 0.326757 0.572717
0.395026 0.405402 0.538659
0.554070 0.412207 0.523491
0.777371 0.404425 0.556909
0.862669 0.505760 0.555016
0.916564 0.555749 0.561425
0.956115 0.589075 0.574182
0.000000 0.548486 0.567864
0.000000 0.541741 0.564813
0.368383 0.511894 0.556115
0.623346 0.538598 0.554803
0.752132 0.567651 0.562921
0.839536 0.586358 0.561761
0.899992 0.608179 0.571466
0.944427 0.629755 0.589746
0.411414 0.696376 0.566705
0.457740 0.699214 0.585992
0.590661 0.705104 0.651942
0.647883 0.696284 0.649195
0.725978 0.646296 0.550042
0.816159 0.632502 0.530663
0.883665 0.649226 0.558587
0.931762 0.669215 0.595270
0.663874 0.792294 0.746365
0.672877 0.793759 0.752193
0.698116 0.799527 0.769680
0.725490 0.805753 0.783993
0.716823 0.764004 0.706264
0.780179 0.730892 0.613031
0.857511 0.725216 0.606439
0.917540 0.722927 0.620478
0.761288 0.854185 0.833402
0.762783 0.854215 0.834165
0.771817 0.855680 0.839475
0.793668 0.860624 0.852811
0.787778 0.854978 0.838102
0.780911 0.827420 0.787594
0.819547 0.798001 0.707240
0.878965 0.795773 0.704250
0.814755 0.877470 0.870848
0.815946 0.877501 0.871427
0.821286 0.877714 0.874113
0.833433 0.878630 0.880339
0.842924 0.879057 0.884947
0.831632 0.875975 0.872038
0.829404 0.867216 0.846403
0.861082 0.860227 0.812131
0.000000 0.187167 0.713832
0.000000 0.201572 0.711910
0.232273 0.323766 0.690181
0.592248 0.578088 0.630701
0.690761 0.463111 0.661006
0.883421 0.378302 0.701076
0.919677 0.541344 0.680262
0.935119 0.643000 0.702052
0.000000 0.222354 0.704250
0.000000 0.232273 0.701442
0.266148 0.344976 0.681819
0.580499 0.567529 0.614740
0.685237 0.455329 0.650538
0.873472 0.391913 0.688685
0.913603 0.543664 0.673060
0.932067 0.641810 0.696956
0.000000 0.389563 0.729549
0.000000 0.392004 0.728939
0.395117 0.460578 0.710353
0.618402 0.613214 0.646052
0.720058 0.523827 0.681483
0.851316 0.518822 0.688441
0.893584 0.611780 0.689265
0.917876 0.678859 0.715694
0.000000 0.525872 0.715114
0.000000 0.524437 0.713008
0.453925 0.567102 0.712734
0.662562 0.665370 0.694301
0.749081 0.625696 0.712703
0.824552 0.655726 0.711666
0.867948 0.699550 0.727962
0.909331 0.710903 0.730861
0.102022 0.705348 0.693019
0.224216 0.702327 0.691676
0.425086 0.690211 0.687251
0.615961 0.666407 0.679347
0.727535 0.679194 0.685084
0.799893 0.689570 0.689418
0.858152 0.701991 0.698482
0.905791 0.714137 0.709804
0.540459 0.764889 0.666377
0.564569 0.767910 0.679591
0.627436 0.772396 0.714199
0.709865 0.781186 0.765805
0.726986 0.767025 0.746487
0.780270 0.732509 0.678614
0.852384 0.727474 0.676631
0.903166 0.742794 0.705776
0.717494 0.844053 0.805661
0.724636 0.844999 0.809842
0.745693 0.846067 0.821286
0.777981 0.850706 0.840177
0.809476 0.860136 0.860472
0.788052 0.833371 0.812558
0.822019 0.800717 0.737362
0.883818 0.796750 0.734493
0.791073 0.875761 0.858671
0.792660 0.875547 0.859342
0.802152 0.875395 0.863828
0.819181 0.876310 0.872496
0.835233 0.877897 0.880888
0.838315 0.877440 0.880034
0.829831 0.868009 0.854612
0.859678 0.857908 0.815274
0.000000 0.268620 0.809384
0.000000 0.282109 0.808042
0.213107 0.388159 0.796628
0.597223 0.580224 0.765743
0.694301 0.697902 0.722194
0.789029 0.580957 0.766079
0.907378 0.519463 0.768368
0.926513 0.624018 0.750912
0.000000 0.302281 0.807919
0.000000 0.315221 0.806729
0.256321 0.410590 0.795438
0.600946 0.587060 0.764706
0.695247 0.699092 0.723049
0.789548 0.586145 0.766079
0.903014 0.531243 0.765774
0.923339 0.629145 0.749996
0.000000 0.417670 0.808865
0.000000 0.426795 0.807187
0.342992 0.483162 0.797635
0.622766 0.621912 0.771481
0.707332 0.714504 0.736660
0.796078 0.622522 0.775082
0.886778 0.598596 0.767330
0.911131 0.668635 0.760647
0.000000 0.551049 0.796536
0.066987 0.556359 0.795621
0.419043 0.580529 0.797238
0.636225 0.657038 0.782101
0.724697 0.738003 0.755550
0.796048 0.673762 0.780667
0.864378 0.677546 0.773709
0.894469 0.717830 0.776028
0.000000 0.672755 0.783627
0.000000 0.669520 0.783047
0.339727 0.656916 0.781735
0.598566 0.677729 0.781491
0.734310 0.749813 0.769894
0.792386 0.713344 0.779965
0.844572 0.735958 0.781430
0.879301 0.762722 0.793149
0.376440 0.790951 0.778470
0.397955 0.789639 0.778347
0.472419 0.783658 0.777218
0.579400 0.771389 0.774807
0.693080 0.751003 0.769711
0.778164 0.761929 0.778317
0.833158 0.770626 0.783352
0.877165 0.779965 0.791531
0.568139 0.815763 0.714961
0.578058 0.815915 0.718593
0.622461 0.817929 0.741085
0.690455 0.823301 0.779507
0.764034 0.832914 0.824094
0.792844 0.833860 0.832212
0.820157 0.798276 0.773190
0.880766 0.795529 0.775143
0.734615 0.871550 0.829221
0.738308 0.871672 0.831083
0.753841 0.872282 0.838926
0.780453 0.873381 0.852415
0.816220 0.874174 0.870115
0.842893 0.877562 0.884459
0.835874 0.871946 0.870756
0.859709 0.857786 0.827939
0.000000 0.387671 0.875517
0.000000 0.404486 0.874205
0.330999 0.492775 0.865599
0.618402 0.637018 0.847135
0.740871 0.746304 0.822477
0.766842 0.769986 0.811490
0.842313 0.701900 0.838560
0.916960 0.659632 0.830381
0.000000 0.409796 0.874388
0.000000 0.425605 0.873045
0.344640 0.505089 0.864988
0.620600 0.641688 0.847074
0.741451 0.747463 0.823148
0.767544 0.771481 0.812009
0.842008 0.704555 0.838468
0.915618 0.662837 0.829831
0.000000 0.484779 0.872404
0.000000 0.496803 0.871061
0.382605 0.548302 0.864500
0.630396 0.661769 0.849149
0.745693 0.754665 0.828153
0.772427 0.780179 0.816464
0.842344 0.719966 0.840787
0.910430 0.682368 0.830533
0.158846 0.593133 0.862730
0.272770 0.600793 0.862455
0.426429 0.614679 0.863401
0.625544 0.680507 0.853483
0.748165 0.762600 0.836820
0.781399 0.795865 0.824491
0.840146 0.745815 0.843351
0.897704 0.723171 0.833524
0.000000 0.643977 0.855894
0.000000 0.645991 0.855985
0.331853 0.659907 0.855528
0.597345 0.705226 0.853971
0.733211 0.761654 0.846860
0.792691 0.814908 0.833463
0.836271 0.773526 0.846067
0.883574 0.766445 0.838926
0.326787 0.774075 0.848997
0.346715 0.772641 0.848875
0.419409 0.766903 0.848569
0.527977 0.756191 0.848325
0.669490 0.758053 0.848753
0.795438 0.817136 0.846860
0.832731 0.802670 0.850462
0.870756 0.806821 0.847074
0.509728 0.857023 0.848539
0.516991 0.856382 0.848600
0.547417 0.853117 0.848295
0.601190 0.846708 0.847776
0.671290 0.836515 0.846983
0.749935 0.821897 0.845518
0.824491 0.825010 0.849210
0.861082 0.838834 0.856596
0.650477 0.870817 0.812345
0.653346 0.870603 0.812558
0.665858 0.869780 0.813718
0.690303 0.868254 0.816342
0.726223 0.866026 0.822171
0.797299 0.868711 0.858427
0.849271 0.876341 0.886992
0.859098 0.859098 0.855161
