20 Preset/INSTA/【3】LUT video cho PR-AE-FCPX/INS LUT (22).cube
# Created by Adobe Lightroom plugin Export LUT (1.24.0)
# www.johnrellis.com/lightroom/exportlut.htm
# Preset: INS胶片-自然[素材江湖]22
# Color profile: C:\Program Files (x86)\Common Files\Adobe\Color\Profiles\Recommended\VideoHD.icc
LUT_3D_SIZE 8
DOMAIN_MIN 0.000000 0.000000 0.000000
DOMAIN_MAX 0.903226 0.903226 0.903226
0.000000 0.000000 0.000000
0.092927 0.004364 0.010864
0.266850 0.000000 0.026551
0.515587 0.000000 0.026917
0.719600 0.000000 0.026947
0.848966 0.000000 0.061219
0.953948 0.000000 0.139010
1.000000 0.000000 0.221958
0.046387 0.089754 0.079622
0.083131 0.102113 0.048920
0.251255 0.080507 0.022614
0.472419 0.000000 0.019898
0.679286 0.000000 0.016541
0.820645 0.000000 0.037720
0.926696 0.000000 0.117952
0.997742 0.000000 0.196323
0.179995 0.253208 0.230228
0.178073 0.243778 0.224460
0.253819 0.291417 0.119875
0.479713 0.260441 0.000000
0.658442 0.171572 0.000000
0.821286 0.034333 0.000000
0.928496 0.127474 0.124178
0.995911 0.234470 0.226932
0.391455 0.468849 0.428107
0.383917 0.459052 0.420020
0.333593 0.463142 0.388495
0.513207 0.529442 0.271824
0.705257 0.515221 0.000000
0.792203 0.463111 0.000000
0.890501 0.451514 0.078462
0.962554 0.461128 0.234409
0.578363 0.631617 0.603906
0.573754 0.626795 0.598749
0.560723 0.611749 0.583642
0.503807 0.632105 0.529046
0.641810 0.646906 0.419165
0.770016 0.627039 0.224491
0.834104 0.594232 0.101411
0.917876 0.595666 0.235050
0.670253 0.715175 0.705074
0.675349 0.719814 0.710842
0.669429 0.712337 0.702998
0.654353 0.701167 0.686641
0.624781 0.717739 0.636866
0.717098 0.727016 0.564508
0.830259 0.728359 0.438453
0.895872 0.721553 0.415930
0.738155 0.784421 0.785122
0.738735 0.784817 0.785672
0.734798 0.780117 0.780880
0.728695 0.772274 0.773037
0.705531 0.771145 0.753140
0.701686 0.784085 0.720180
0.772030 0.793088 0.676814
0.869047 0.804807 0.617426
0.800900 0.845090 0.849882
0.800595 0.844755 0.849577
0.800259 0.844327 0.849210
0.800717 0.844266 0.849454
0.784909 0.828946 0.834073
0.769436 0.843198 0.824216
0.785122 0.858701 0.812741
0.841489 0.867552 0.789792
0.000000 0.032136 0.058900
0.051606 0.031189 0.065827
0.234653 0.000000 0.047669
0.447333 0.000000 0.023743
0.664393 0.000000 0.017334
0.810483 0.000000 0.036042
0.914275 0.000000 0.108064
0.986511 0.000000 0.177798
0.029541 0.098909 0.091981
0.093202 0.103426 0.099092
0.245548 0.080446 0.070130
0.444190 0.000000 0.018128
0.651637 0.000000 0.005921
0.801755 0.000000 0.022797
0.899992 0.000000 0.098329
0.972717 0.000000 0.163851
0.191592 0.254490 0.235294
0.194400 0.249699 0.234165
0.265263 0.285130 0.157778
0.459876 0.248142 0.000000
0.628901 0.187137 0.000000
0.788083 0.056825 0.000000
0.890501 0.000000 0.071809
0.968841 0.113375 0.176089
0.376379 0.449226 0.411597
0.371832 0.442237 0.406256
0.337194 0.436622 0.382605
0.472847 0.487648 0.259709
0.654292 0.459968 0.000000
0.745602 0.411994 0.000000
0.852781 0.393500 0.000000
0.936370 0.402136 0.163577
0.570672 0.623529 0.595148
0.564141 0.617212 0.588159
0.547112 0.598260 0.568994
0.480537 0.609369 0.508446
0.618219 0.621973 0.392279
0.749294 0.602167 0.203342
0.814694 0.570123 0.000000
0.900755 0.568872 0.177462
0.660090 0.704555 0.692683
0.659113 0.703182 0.691310
0.653681 0.696101 0.684047
0.641901 0.684657 0.670130
0.610224 0.704463 0.621088
0.709255 0.717311 0.551324
0.821958 0.716640 0.419165
0.886015 0.706661 0.378576
0.728634 0.774441 0.774044
0.726284 0.771878 0.771298
0.721889 0.766537 0.765713
0.716457 0.759335 0.758511
0.696559 0.760403 0.742031
0.691035 0.773739 0.706905
0.761471 0.780179 0.656794
0.857816 0.788235 0.583368
0.792813 0.837797 0.842283
0.793942 0.838743 0.843290
0.793088 0.837766 0.842435
0.793332 0.837491 0.842496
0.792294 0.835752 0.841184
0.772732 0.844968 0.827329
0.782895 0.856657 0.810819
0.839200 0.865202 0.786679
0.000000 0.096498 0.168185
0.000000 0.092561 0.175937
0.186435 0.090913 0.206699
0.531975 0.000000 0.231113
0.700130 0.000000 0.127108
0.825040 0.000000 0.097658
0.918700 0.000000 0.112184
0.991638 0.000000 0.193332
0.000000 0.139559 0.199924
0.000000 0.139254 0.207279
0.226566 0.141085 0.237400
0.514031 0.000000 0.221500
0.685267 0.000000 0.129824
0.814908 0.000000 0.100465
0.904906 0.000000 0.100282
0.980346 0.000000 0.180453
0.116976 0.293614 0.275669
0.169497 0.295354 0.280308
0.307134 0.292058 0.281926
0.513237 0.228641 0.212436
0.682063 0.160800 0.157015
0.807889 0.137453 0.110262
0.891081 0.188724 0.059144
0.967895 0.217655 0.181277
0.429206 0.497810 0.458259
0.437385 0.497536 0.462074
0.439338 0.479835 0.454994
0.527092 0.514519 0.359228
0.664637 0.462989 0.209537
0.772885 0.423377 0.125063
0.862486 0.421424 0.072023
0.940856 0.435645 0.182559
0.594049 0.639551 0.616510
0.593500 0.636530 0.614496
0.581781 0.622278 0.600275
0.534173 0.618921 0.559106
0.641108 0.636469 0.459083
0.750851 0.604669 0.294438
0.816983 0.567285 0.150393
0.903746 0.578759 0.191165
0.670863 0.712337 0.703517
0.670375 0.711543 0.702785
0.664424 0.703944 0.694850
0.652461 0.688624 0.678920
0.617700 0.701595 0.634485
0.709957 0.714900 0.569726
0.816983 0.711818 0.446662
0.886870 0.706172 0.394476
0.737758 0.782498 0.783719
0.735775 0.780301 0.781369
0.730159 0.773861 0.774624
0.722866 0.764797 0.765347
0.705776 0.759762 0.749722
0.695613 0.774807 0.716670
0.766659 0.784848 0.673487
0.864286 0.795560 0.606897
0.796139 0.840208 0.845090
0.795102 0.839200 0.844083
0.793881 0.837949 0.842893
0.795590 0.839048 0.844358
0.794064 0.836942 0.842618
0.779049 0.846036 0.833005
0.786770 0.859190 0.817044
0.842832 0.868040 0.793423
0.000000 0.149966 0.313848
0.000000 0.151980 0.327672
0.027863 0.173404 0.359533
0.402289 0.158785 0.407324
0.750179 0.000000 0.473945
0.852171 0.000000 0.356603
0.922606 0.000000 0.233707
0.981628 0.000000 0.211032
0.000000 0.197818 0.345922
0.000000 0.198184 0.354131
0.130892 0.214878 0.383001
0.436744 0.210452 0.430396
0.751217 0.000000 0.474861
0.848753 0.000000 0.352728
0.919219 0.000000 0.230808
0.977600 0.000000 0.213169
0.000000 0.298772 0.376349
0.000000 0.299626 0.380835
0.241642 0.325872 0.415778
0.496132 0.344915 0.467170
0.733303 0.282811 0.459480
0.843137 0.000000 0.327703
0.917937 0.121126 0.275181
0.975463 0.240543 0.247532
0.335760 0.529778 0.496742
0.356054 0.527459 0.496407
0.431769 0.524163 0.501427
0.545342 0.511589 0.492500
0.690852 0.453651 0.410163
0.792874 0.412696 0.339605
0.873869 0.398383 0.286381
0.944915 0.422522 0.262150
0.626703 0.672724 0.653346
0.625605 0.669429 0.650904
0.625544 0.660090 0.645716
0.617273 0.639857 0.629908
0.670558 0.653346 0.553429
0.748440 0.602594 0.412543
0.831571 0.570153 0.324865
0.913451 0.575067 0.314000
0.694667 0.736721 0.731807
0.699306 0.740444 0.736782
0.696651 0.733486 0.731228
0.686854 0.719265 0.717189
0.653864 0.714717 0.681758
0.723262 0.724392 0.621454
0.812528 0.710170 0.510033
0.888853 0.700191 0.433356
0.749508 0.793790 0.796414
0.749935 0.793729 0.796628
0.748989 0.790982 0.794644
0.742885 0.783474 0.787198
0.732021 0.769924 0.773556
0.710048 0.781888 0.741634
0.773220 0.789700 0.697322
0.867613 0.797971 0.631189
0.807553 0.849241 0.855009
0.807370 0.848936 0.854765
0.805875 0.847532 0.853391
0.804196 0.845792 0.851804
0.801358 0.842771 0.849027
0.790372 0.846677 0.842374
0.791379 0.861418 0.825925
0.848875 0.872648 0.805203
0.000000 0.234531 0.473121
0.000000 0.238590 0.483619
0.000000 0.246769 0.509575
0.345861 0.324773 0.551995
0.612146 0.297368 0.589960
0.826993 0.367742 0.655421
0.913115 0.218296 0.568902
0.975311 0.000000 0.472023
0.000000 0.271763 0.488838
0.000000 0.276158 0.499092
0.000000 0.283513 0.523339
0.368658 0.352178 0.559228
0.623957 0.335576 0.599573
0.824063 0.391821 0.654871
0.908934 0.254582 0.567193
0.973114 0.092897 0.467781
0.000000 0.359899 0.504784
0.000000 0.367712 0.512291
0.179324 0.379126 0.536034
0.428138 0.433234 0.577386
0.641505 0.438544 0.615259
0.806394 0.443519 0.637842
0.890135 0.332830 0.548425
0.962127 0.181430 0.435767
0.000000 0.505241 0.549035
0.125277 0.501946 0.548394
0.271153 0.489204 0.548363
0.495583 0.534539 0.598230
0.667720 0.567437 0.646174
0.781949 0.529747 0.618189
0.871855 0.415991 0.509575
0.950744 0.353674 0.414527
0.522240 0.658961 0.640131
0.530449 0.658991 0.641199
0.558495 0.656916 0.642878
0.604608 0.653010 0.645716
0.657893 0.636103 0.627283
0.745907 0.590448 0.560204
0.832822 0.550195 0.488472
0.914458 0.533288 0.432563
0.693690 0.739559 0.732296
0.694087 0.738949 0.732235
0.692042 0.732631 0.727413
0.690272 0.722347 0.720577
0.678401 0.700526 0.700984
0.724178 0.716365 0.655207
0.796475 0.687037 0.552117
0.884245 0.672602 0.484627
0.754421 0.800992 0.802762
0.753262 0.799466 0.801328
0.751308 0.795590 0.798215
0.751766 0.791775 0.796536
0.743648 0.779507 0.785397
0.716579 0.775662 0.756374
0.772183 0.783902 0.710170
0.857359 0.780789 0.634852
0.802029 0.846098 0.850645
0.801907 0.845792 0.850462
0.802182 0.844999 0.850217
0.807340 0.847410 0.853971
0.804227 0.843961 0.850919
0.799649 0.839017 0.846403
0.786831 0.854582 0.827695
0.843503 0.865507 0.802396
0.000000 0.353582 0.619745
0.000000 0.357458 0.625238
0.000000 0.362951 0.637659
0.307897 0.403723 0.665705
0.574212 0.518212 0.696071
0.723537 0.481056 0.713771
0.854246 0.542748 0.753597
0.936522 0.483101 0.713802
0.000000 0.363958 0.610315
0.000000 0.365332 0.613733
0.000000 0.371984 0.628016
0.308232 0.407050 0.656825
0.566613 0.514061 0.686488
0.717556 0.481483 0.706203
0.848569 0.542382 0.747005
0.932097 0.479255 0.706355
0.000000 0.446906 0.628534
0.000000 0.448310 0.631708
0.175784 0.457099 0.646448
0.377844 0.471229 0.666438
0.590845 0.561852 0.693812
0.721614 0.546746 0.715023
0.838621 0.594049 0.750942
0.921263 0.522728 0.705196
0.000000 0.513390 0.627710
0.000000 0.516869 0.630365
0.309300 0.539330 0.647639
0.489021 0.574731 0.682277
0.635554 0.635859 0.716915
0.736904 0.640070 0.740414
0.833738 0.651942 0.758968
0.909545 0.583856 0.705501
0.395270 0.643366 0.669215
0.402899 0.641566 0.668513
0.435004 0.634668 0.666438
0.491218 0.619379 0.663081
0.634424 0.658442 0.704097
0.736843 0.683528 0.741482
0.817472 0.658961 0.724758
0.900786 0.582574 0.649958
0.624872 0.734096 0.729335
0.630426 0.736110 0.732113
0.640528 0.734829 0.732265
0.659876 0.732784 0.733059
0.686793 0.728634 0.733211
0.725063 0.717891 0.721157
0.801083 0.686824 0.673548
0.887968 0.662257 0.624964
0.763790 0.814939 0.816068
0.766323 0.816434 0.817990
0.771969 0.818265 0.821195
0.773465 0.816068 0.820829
0.771511 0.808713 0.816190
0.756405 0.786648 0.796506
0.783932 0.790677 0.750759
0.860807 0.774716 0.674891
0.809110 0.852964 0.857206
0.808530 0.852384 0.856657
0.808530 0.851682 0.856352
0.810636 0.851926 0.857572
0.812619 0.850919 0.858152
0.809293 0.845731 0.854246
0.792020 0.850401 0.839658
0.844633 0.863432 0.811887
0.000000 0.459785 0.708156
0.000000 0.463203 0.711421
0.000000 0.468605 0.718441
0.323674 0.485512 0.733150
0.532769 0.547601 0.748409
0.667842 0.616724 0.764797
0.768490 0.586145 0.776761
0.871336 0.619654 0.805661
0.000000 0.463386 0.702174
0.000000 0.467292 0.705806
0.000000 0.472602 0.713191
0.323186 0.486458 0.726864
0.527398 0.544915 0.742733
0.663172 0.613489 0.758968
0.763455 0.580499 0.770047
0.866941 0.613214 0.799313
0.000000 0.510277 0.705898
0.000000 0.511467 0.707729
0.216007 0.515343 0.714168
0.381964 0.528374 0.727779
0.546502 0.573693 0.744259
0.673854 0.640955 0.763027
0.766629 0.618128 0.776944
0.864897 0.647486 0.805722
0.131807 0.562737 0.706020
0.189273 0.563592 0.706447
0.328435 0.572992 0.713313
0.452735 0.587396 0.729427
0.576165 0.618311 0.749996
0.693263 0.682704 0.773892
0.773770 0.669642 0.789181
0.860685 0.690547 0.812039
0.197360 0.614771 0.701625
0.200748 0.610315 0.699184
0.252506 0.599268 0.695766
0.449165 0.621607 0.714565
0.593378 0.655238 0.743465
0.698787 0.705592 0.774777
0.776852 0.709804 0.795102
0.858671 0.725551 0.814847
0.538933 0.728603 0.752071
0.541283 0.727993 0.751980
0.549798 0.724392 0.750637
0.565820 0.715877 0.747402
0.588678 0.695949 0.739101
0.702205 0.731350 0.777737
0.790311 0.761196 0.812802
0.860868 0.741939 0.803037
0.694850 0.801205 0.803281
0.696895 0.801724 0.804044
0.702144 0.801602 0.804593
0.713405 0.801755 0.806271
0.730098 0.801022 0.807950
0.753048 0.799405 0.809842
0.780179 0.786313 0.796536
0.859281 0.759030 0.756527
0.802731 0.854551 0.857206
0.803738 0.854948 0.857755
0.808865 0.856931 0.860594
0.817075 0.859709 0.864836
0.825498 0.862242 0.869383
0.827787 0.861326 0.870237
0.821866 0.853086 0.863798
0.851713 0.865080 0.834806
0.265202 0.579187 0.788296
0.286992 0.580804 0.789639
0.344915 0.580987 0.791104
0.439704 0.589258 0.797177
0.546105 0.610559 0.804776
0.657221 0.659358 0.812314
0.733455 0.690883 0.822599
0.809262 0.669551 0.831876
0.260502 0.578729 0.784573
0.283055 0.580468 0.786038
0.344671 0.582147 0.788510
0.437781 0.589502 0.794369
0.543053 0.609583 0.802457
0.655421 0.658595 0.810361
0.731563 0.689998 0.820371
0.807095 0.667567 0.829282
0.299413 0.596674 0.782773
0.315587 0.597375 0.783688
0.368536 0.598474 0.785977
0.461128 0.609308 0.794339
0.552178 0.623499 0.802243
0.658442 0.667445 0.810147
0.734401 0.701472 0.821073
0.807156 0.680659 0.830076
0.334539 0.625269 0.780240
0.354009 0.627070 0.781460
0.403082 0.628870 0.784512
0.484413 0.636774 0.791928
0.571283 0.650782 0.801938
0.665583 0.685786 0.812894
0.742428 0.725063 0.825437
0.810178 0.707668 0.834836
0.272587 0.650355 0.776608
0.295598 0.651637 0.777920
0.361364 0.652796 0.779751
0.481422 0.664088 0.786526
0.577539 0.676997 0.798154
0.663966 0.701015 0.813016
0.750515 0.751247 0.829465
0.814817 0.739132 0.841093
0.458808 0.727413 0.794827
0.456001 0.724910 0.793515
0.448920 0.715785 0.789548
0.441260 0.697627 0.783963
0.537804 0.698451 0.790494
0.666529 0.728878 0.814298
0.760800 0.777249 0.839231
0.827085 0.783810 0.855161
0.641199 0.812528 0.833951
0.641474 0.811948 0.833646
0.642756 0.809476 0.832578
0.647486 0.805386 0.831449
0.655238 0.797177 0.829343
0.665736 0.778836 0.824735
0.760952 0.798734 0.844846
0.839811 0.825223 0.868284
0.756130 0.859068 0.862089
0.756527 0.858915 0.861997
0.759457 0.858946 0.862394
0.766720 0.859739 0.863951
0.778164 0.860594 0.866117
0.794980 0.861601 0.869139
0.818662 0.863279 0.873686
0.848081 0.860838 0.872190
