20 Preset/INSTA/【3】LUT video cho PR-AE-FCPX/INS LUT (5).cube
# Created by Adobe Lightroom plugin Export LUT (1.24.0)
# www.johnrellis.com/lightroom/exportlut.htm
# Preset: INS胶片Tezza02[素材江湖]05
# Color profile: C:\Program Files (x86)\Common Files\Adobe\Color\Profiles\Recommended\VideoHD.icc
LUT_3D_SIZE 32
DOMAIN_MIN 0.0 0.0 0.0
DOMAIN_MAX 1.0 1.0 1.0
0.014069 0.092073 0.103670
0.014069 0.092073 0.103670
0.025666 0.092378 0.104616
0.059022 0.093385 0.106661
0.096864 0.094881 0.109804
0.126864 0.096284 0.114412
0.163241 0.095399 0.118624
0.204257 0.091310 0.122683
0.250095 0.078737 0.126253
0.298924 0.042939 0.130098
0.351415 0.000000 0.133852
0.406378 0.000000 0.137881
0.462806 0.000000 0.141848
0.520043 0.000000 0.146365
0.576501 0.000000 0.150912
0.630610 0.000000 0.156008
0.682307 0.000000 0.161746
0.734279 0.000000 0.168093
0.790799 0.000000 0.176913
0.840818 0.000000 0.186099
0.884672 0.000000 0.195895
0.923308 0.000000 0.207126
0.956695 0.000000 0.218662
0.986816 0.000000 0.231296
1.000000 0.000000 0.245335
1.000000 0.055360 0.260838
1.000000 0.161379 0.278141
1.000000 0.217472 0.297673
1.000000 0.265202 0.319432
1.000000 0.309636 0.344213
1.000000 0.352697 0.371954
1.000000 0.395270 0.403082
0.013458 0.092073 0.104372
0.013764 0.092073 0.104036
0.026642 0.092744 0.104921
0.060304 0.093751 0.106630
0.097200 0.095216 0.110079
0.126619 0.096712 0.114687
0.161654 0.096529 0.118837
0.201938 0.092958 0.122621
0.247257 0.082368 0.126223
0.295567 0.050477 0.130068
0.347265 0.001129 0.133577
0.401678 0.000000 0.137453
0.457984 0.000000 0.141695
0.514702 0.000000 0.145876
0.571160 0.000000 0.150698
0.625727 0.000000 0.155612
0.677424 0.000000 0.161013
0.729763 0.000000 0.167697
0.784848 0.000000 0.175906
0.834043 0.000000 0.184665
0.877562 0.000000 0.194278
0.916136 0.000000 0.204959
0.949584 0.000000 0.216007
0.980072 0.000000 0.228397
1.000000 0.000000 0.242008
1.000000 0.000000 0.257053
1.000000 0.147372 0.273899
1.000000 0.206943 0.293217
1.000000 0.256077 0.314855
1.000000 0.301701 0.339452
1.000000 0.345281 0.366857
1.000000 0.388281 0.397772
0.008728 0.098421 0.107393
0.011322 0.098360 0.106722
0.022370 0.097139 0.107118
0.056916 0.098817 0.108400
0.095552 0.100954 0.111696
0.125338 0.102724 0.116152
0.160281 0.102327 0.119692
0.200229 0.099306 0.123171
0.244724 0.092897 0.126680
0.292485 0.074281 0.130282
0.343847 0.026734 0.134035
0.397925 0.000000 0.137636
0.453620 0.000000 0.141665
0.510033 0.000000 0.145815
0.566217 0.000000 0.150393
0.620752 0.000000 0.155520
0.672724 0.000000 0.160739
0.726131 0.000000 0.167330
0.779904 0.000000 0.175204
0.828946 0.000000 0.183993
0.872526 0.000000 0.193393
0.911254 0.000000 0.203799
0.945037 0.000000 0.214603
0.975799 0.000000 0.226841
1.000000 0.000000 0.240085
1.000000 0.015900 0.255100
1.000000 0.151034 0.272007
1.000000 0.207919 0.290837
1.000000 0.256168 0.312566
1.000000 0.301244 0.336889
1.000000 0.344121 0.364385
1.000000 0.386877 0.394903
0.005737 0.111299 0.114107
0.006622 0.111299 0.113191
0.023255 0.110445 0.113222
0.045563 0.107698 0.115267
0.092164 0.111208 0.116640
0.124117 0.112703 0.118532
0.159335 0.112703 0.121675
0.198154 0.111025 0.124727
0.242374 0.106264 0.128145
0.289494 0.097536 0.131106
0.340246 0.077180 0.134524
0.393530 0.019257 0.138247
0.448859 0.000000 0.141970
0.504570 0.000000 0.146029
0.560113 0.000000 0.150393
0.614160 0.000000 0.155245
0.665980 0.000000 0.160494
0.719997 0.000000 0.166964
0.771511 0.000000 0.174472
0.819028 0.000000 0.182437
0.862303 0.000000 0.191470
0.901061 0.000000 0.201358
0.935851 0.000000 0.212009
0.967834 0.000000 0.224186
0.997070 0.000000 0.237675
1.000000 0.091188 0.252934
1.000000 0.165805 0.269993
1.000000 0.218387 0.289403
1.000000 0.264347 0.311498
1.000000 0.307500 0.336065
1.000000 0.348913 0.363317
1.000000 0.389807 0.393500
0.000000 0.131563 0.122438
0.000000 0.131472 0.121859
0.011078 0.130526 0.121645
0.049928 0.127443 0.122469
0.085786 0.122805 0.125368
0.118654 0.127260 0.126162
0.155825 0.126558 0.124361
0.194369 0.126223 0.126711
0.237369 0.123995 0.129427
0.283665 0.118715 0.132265
0.333196 0.109529 0.135317
0.385779 0.094362 0.138674
0.440345 0.047181 0.142489
0.496071 0.000000 0.146395
0.551690 0.000000 0.150362
0.605615 0.000000 0.155093
0.659724 0.000000 0.160433
0.714076 0.000000 0.166690
0.764645 0.000000 0.174044
0.812039 0.000000 0.181704
0.855222 0.000000 0.190646
0.894285 0.000000 0.200351
0.929503 0.000000 0.210788
0.962432 0.000000 0.222965
0.992462 0.021790 0.236545
1.000000 0.139101 0.251835
1.000000 0.191379 0.269047
1.000000 0.236332 0.288701
1.000000 0.277653 0.310460
1.000000 0.317723 0.335058
1.000000 0.356878 0.362066
1.000000 0.395941 0.391974
0.000000 0.159243 0.130251
0.000000 0.159152 0.130251
0.000000 0.157931 0.130098
0.026429 0.155642 0.129549
0.093996 0.149447 0.131746
0.114504 0.142031 0.136049
0.151522 0.148318 0.136782
0.192264 0.146548 0.132052
0.233402 0.144076 0.131868
0.279240 0.142061 0.134127
0.328161 0.137301 0.136690
0.380041 0.129427 0.139773
0.433997 0.117403 0.143313
0.489357 0.099184 0.146975
0.544610 0.052949 0.150881
0.599298 0.000000 0.155398
0.656458 0.000000 0.160952
0.710018 0.000000 0.167208
0.760006 0.000000 0.173861
0.807248 0.000000 0.181674
0.850553 0.000000 0.190433
0.889982 0.000000 0.200107
0.960967 0.120882 0.224277
0.990692 0.163272 0.237888
1.000000 0.200015 0.253330
1.000000 0.235630 0.269902
1.000000 0.269383 0.288884
1.000000 0.303014 0.309606
1.000000 0.336645 0.332555
1.000000 0.370245 0.358099
1.000000 0.404028 0.385962
1.000000 0.438117 0.415961
0.000000 0.200229 0.140200
0.000000 0.200168 0.139956
0.000000 0.199008 0.139864
0.000000 0.196811 0.139162
0.088624 0.191073 0.140566
0.131838 0.181491 0.143923
0.154269 0.171176 0.149416
0.198184 0.179507 0.150698
0.241855 0.177462 0.143099
0.282506 0.169100 0.137453
0.331823 0.167239 0.139284
0.384314 0.164034 0.142000
0.438453 0.158358 0.145205
0.493446 0.150057 0.148562
0.548974 0.139315 0.152499
0.609339 0.127016 0.157198
0.666102 0.114412 0.162722
0.718990 0.103395 0.169192
0.769039 0.098604 0.176394
0.817014 0.103334 0.184665
0.861540 0.119478 0.194156
0.902922 0.143130 0.205386
0.940734 0.171389 0.217990
0.975128 0.201572 0.232486
1.000000 0.231846 0.248722
1.000000 0.262364 0.266178
1.000000 0.291600 0.285161
1.000000 0.321172 0.305791
1.000000 0.351354 0.328862
1.000000 0.381872 0.353918
1.000000 0.413153 0.381750
1.000000 0.445289 0.411688
0.000000 0.243351 0.149508
0.000000 0.243107 0.149538
0.000000 0.241978 0.149081
0.000000 0.240146 0.148653
0.024781 0.236027 0.148379
0.132998 0.227176 0.152468
0.173983 0.216159 0.157137
0.197147 0.203738 0.163058
0.244968 0.213626 0.166018
0.290013 0.211551 0.155337
0.332006 0.202701 0.147311
0.374395 0.194034 0.143648
0.427558 0.192599 0.146212
0.485206 0.190646 0.149477
0.543694 0.186862 0.153353
0.600214 0.182406 0.157839
0.654200 0.178042 0.162692
0.705837 0.174899 0.168643
0.755276 0.174960 0.175479
0.802853 0.179538 0.183108
0.847837 0.189181 0.192264
0.889708 0.203586 0.203464
0.928405 0.222354 0.215640
0.963775 0.244236 0.229862
0.995178 0.268711 0.245975
1.000000 0.293370 0.263310
1.000000 0.318578 0.282414
1.000000 0.344457 0.303319
1.000000 0.371313 0.326543
1.000000 0.399145 0.352026
1.000000 0.427863 0.379767
1.000000 0.457862 0.409827
0.000000 0.291905 0.160586
0.000000 0.291783 0.160372
0.000000 0.290776 0.160372
0.000000 0.288945 0.159854
0.000000 0.286107 0.159060
0.122774 0.278843 0.161837
0.183322 0.268864 0.167025
0.224186 0.256748 0.173404
0.248631 0.243503 0.180911
0.298497 0.253971 0.184634
0.346349 0.253147 0.170962
0.390692 0.245212 0.160037
0.429816 0.231510 0.151308
0.479866 0.227207 0.150912
0.535607 0.227024 0.154086
0.589990 0.226230 0.158175
0.642939 0.225284 0.162814
0.693599 0.225772 0.168490
0.742733 0.227817 0.174838
0.790524 0.232883 0.182559
0.835721 0.241245 0.191165
0.877897 0.253361 0.201907
0.917082 0.268406 0.214237
0.953246 0.286320 0.228519
0.985473 0.306493 0.244572
1.000000 0.327398 0.261967
1.000000 0.349279 0.281193
1.000000 0.371923 0.302586
1.000000 0.395819 0.325689
1.000000 0.420661 0.351354
1.000000 0.447059 0.379370
1.000000 0.474464 0.409644
0.000000 0.345525 0.173831
0.000000 0.345037 0.173617
0.000000 0.344335 0.173556
0.000000 0.342596 0.172976
0.000000 0.339910 0.171847
0.092622 0.334905 0.172702
0.185153 0.326787 0.178439
0.241489 0.317510 0.185611
0.282658 0.305669 0.194034
0.310826 0.293065 0.203983
0.363592 0.304936 0.209140
0.410101 0.303014 0.191257
0.452094 0.293187 0.176242
0.488594 0.277775 0.163912
0.522881 0.260838 0.155184
0.577295 0.263005 0.158846
0.630243 0.265171 0.163058
0.681636 0.268040 0.168521
0.731075 0.272190 0.174685
0.779049 0.278752 0.182254
0.824155 0.286778 0.190646
0.865843 0.297063 0.200900
0.904540 0.309331 0.212711
0.940368 0.324163 0.226474
0.972869 0.340459 0.241733
1.000000 0.358129 0.259007
1.000000 0.377264 0.278325
1.000000 0.397559 0.299687
1.000000 0.419348 0.323705
1.000000 0.442267 0.349706
1.000000 0.466743 0.378424
1.000000 0.492531 0.409583
0.000000 0.405921 0.189883
0.000000 0.405646 0.189975
0.000000 0.405066 0.190005
0.000000 0.403906 0.189212
0.000000 0.402197 0.188571
0.000000 0.399573 0.187716
0.181949 0.392615 0.192538
0.253758 0.383612 0.199832
0.307164 0.372869 0.208316
0.348089 0.360479 0.218265
0.377691 0.347417 0.230259
0.429328 0.359106 0.236973
0.473548 0.355932 0.215000
0.512932 0.344640 0.195987
0.546899 0.328283 0.180026
0.576654 0.308019 0.166934
0.617334 0.300267 0.163882
0.668330 0.304906 0.168673
0.717617 0.310704 0.174838
0.765377 0.317693 0.181827
0.810727 0.326207 0.190158
0.852811 0.336065 0.200046
0.892088 0.347845 0.211826
0.928740 0.361089 0.225376
0.962219 0.375921 0.241032
0.992004 0.391882 0.258762
1.000000 0.409064 0.278172
1.000000 0.427527 0.299931
1.000000 0.446967 0.324437
1.000000 0.467842 0.350988
1.000000 0.490333 0.380102
1.000000 0.514000 0.411597
0.000000 0.468818 0.209445
0.000000 0.468818 0.209415
0.000000 0.468269 0.208957
0.000000 0.467262 0.208621
0.000000 0.465858 0.207980
0.000000 0.463539 0.206943
0.170138 0.459297 0.208621
0.259831 0.451423 0.216007
0.324620 0.442145 0.224704
0.376135 0.431281 0.234714
0.416449 0.418463 0.246159
0.446357 0.405890 0.259617
0.532280 0.448035 0.287022
0.572503 0.441779 0.257939
0.607141 0.427161 0.232090
0.636957 0.407263 0.209659
0.662745 0.384039 0.190372
0.685603 0.358984 0.174563
0.734188 0.366522 0.180697
0.781125 0.375433 0.188235
0.824949 0.384955 0.197726
0.865232 0.395056 0.208621
0.902770 0.405890 0.221439
0.937316 0.418158 0.236179
0.968566 0.431312 0.253117
0.996460 0.444800 0.271611
1.000000 0.458991 0.291814
1.000000 0.474189 0.314153
1.000000 0.490394 0.338659
1.000000 0.507897 0.365545
1.000000 0.526879 0.394598
1.000000 0.547753 0.426154
0.000000 0.549187 0.240299
0.000000 0.549004 0.240024
0.000000 0.547539 0.239384
0.000000 0.545800 0.238560
0.000000 0.543053 0.237095
0.000000 0.539544 0.235935
0.171939 0.535851 0.233982
0.273625 0.528405 0.240238
0.346654 0.520409 0.248814
0.407385 0.511589 0.259403
0.458289 0.502556 0.271824
0.500267 0.492897 0.286473
0.533104 0.483345 0.303288
0.582422 0.496864 0.319524
0.621424 0.492439 0.289494
0.653986 0.478798 0.260838
0.681971 0.459785 0.235416
0.706538 0.437140 0.212955
0.728542 0.412726 0.193820
0.760739 0.403326 0.187747
0.805051 0.413214 0.196506
0.846372 0.423621 0.207218
0.885069 0.434668 0.219944
0.920989 0.446540 0.234318
0.953796 0.459113 0.251347
0.983062 0.472236 0.270085
1.000000 0.486061 0.290745
1.000000 0.500450 0.313695
1.000000 0.515801 0.338872
1.000000 0.532341 0.366613
1.000000 0.550134 0.396368
1.000000 0.569482 0.428595
0.000000 0.602533 0.265660
0.000000 0.602045 0.265446
0.000000 0.600793 0.264958
0.000000 0.598718 0.263920
0.000000 0.595972 0.262364
0.000000 0.592706 0.260746
0.183108 0.589258 0.259007
0.271550 0.584436 0.260777
0.351598 0.577478 0.269017
0.416724 0.570245 0.278843
0.472450 0.562890 0.290593
0.520256 0.555108 0.304784
0.559350 0.546563 0.320592
0.590021 0.537652 0.338018
0.634882 0.550591 0.359289
0.669459 0.544976 0.326055
0.698726 0.530663 0.294285
0.724514 0.512016 0.265751
0.747860 0.490333 0.240299
0.769009 0.467048 0.218235
0.788968 0.442756 0.198672
0.829404 0.451179 0.207034
0.869139 0.462776 0.219577
0.906340 0.474952 0.234592
0.940337 0.487556 0.251377
0.970855 0.500694 0.270603
0.997955 0.513939 0.291905
1.000000 0.527825 0.315251
1.000000 0.542290 0.341100
1.000000 0.557824 0.369299
1.000000 0.574487 0.399939
1.000000 0.592615 0.433082
0.000000 0.653773 0.294713
0.000000 0.653407 0.294438
0.000000 0.652338 0.293767
0.000000 0.650477 0.292699
0.000000 0.647761 0.291203
0.097017 0.644587 0.289220
0.205600 0.641474 0.287480
0.277806 0.638361 0.285710
0.357427 0.632685 0.292515
0.425696 0.626673 0.302129
0.484352 0.620630 0.313664
0.535515 0.614221 0.326970
0.578912 0.607324 0.341802
0.614374 0.598901 0.357671
0.642329 0.590021 0.374853
0.682826 0.602136 0.400763
0.713466 0.595209 0.365393
0.739651 0.580804 0.331823
0.763333 0.562463 0.300725
0.785245 0.541680 0.272892
0.805753 0.519585 0.248142
0.825925 0.497383 0.226627
0.854093 0.489540 0.220859
0.892119 0.502190 0.235447
0.927123 0.514977 0.252842
0.958770 0.528069 0.272099
0.986938 0.541436 0.293919
1.000000 0.555230 0.318486
1.000000 0.569665 0.345495
1.000000 0.584863 0.375189
1.000000 0.601190 0.407263
1.000000 0.618769 0.442023
0.000000 0.698878 0.326116
0.000000 0.698909 0.326055
0.000000 0.698421 0.325841
0.000000 0.697383 0.325017
0.000000 0.695735 0.323888
0.170138 0.693812 0.322789
0.243748 0.691951 0.321599
0.305791 0.689967 0.320714
0.370489 0.687007 0.323400
0.438331 0.682033 0.332250
0.497292 0.676417 0.342626
0.548760 0.670253 0.354528
0.593530 0.663325 0.367346
0.631464 0.655268 0.381079
0.662318 0.646113 0.395605
0.686763 0.636652 0.411597
0.722591 0.647272 0.441932
0.749935 0.639857 0.405921
0.773983 0.626062 0.371283
0.796445 0.608789 0.338872
0.817929 0.589990 0.309941
0.838834 0.570306 0.283940
0.859434 0.550378 0.260929
0.880095 0.530541 0.240330
0.915160 0.542077 0.255772
0.947906 0.555749 0.275792
0.977081 0.569421 0.298680
1.000000 0.583215 0.323796
1.000000 0.597162 0.351720
1.000000 0.611627 0.381994
1.000000 0.626764 0.414893
1.000000 0.642878 0.449836
0.000000 0.739132 0.359564
0.000000 0.738979 0.359350
0.000000 0.738582 0.359319
0.101289 0.737942 0.358770
0.171633 0.736751 0.358007
0.229160 0.735378 0.357214
0.282231 0.733822 0.356512
0.334295 0.732174 0.355627
0.383673 0.730404 0.354986
0.446448 0.726406 0.362066
0.504204 0.721736 0.371588
0.556023 0.716487 0.382391
0.601556 0.710719 0.394263
0.641474 0.704036 0.406958
0.675502 0.696345 0.420356
0.703395 0.687739 0.434394
0.725887 0.679164 0.449958
0.757778 0.689448 0.485176
0.782834 0.682155 0.449134
0.805112 0.669123 0.413977
0.826902 0.654017 0.381842
0.848081 0.637018 0.352026
0.868864 0.619532 0.325414
0.889555 0.601740 0.301396
0.910399 0.584070 0.280247
0.937102 0.582086 0.280522
0.967193 0.596216 0.304204
0.993591 0.610163 0.330327
1.000000 0.624079 0.359167
1.000000 0.638148 0.390723
1.000000 0.652674 0.424628
1.000000 0.668025 0.460945
0.179080 0.776699 0.397498
0.182284 0.776883 0.397467
0.240909 0.791653 0.415290
0.259464 0.791104 0.414832
0.285496 0.790127 0.413977
0.317235 0.788876 0.413397
0.353094 0.787320 0.412238
0.391943 0.785580 0.411475
0.431922 0.783932 0.410559
0.478798 0.781369 0.413001
0.531975 0.777218 0.421546
0.580957 0.772457 0.431128
0.624598 0.767086 0.441260
0.663813 0.760830 0.452247
0.697780 0.753872 0.463691
0.726680 0.746120 0.475715
0.750546 0.737423 0.488014
0.769955 0.728908 0.501732
0.796445 0.736904 0.538567
0.818296 0.729397 0.503899
0.838682 0.716884 0.468025
0.858976 0.702846 0.435279
0.878996 0.687404 0.405005
0.898863 0.671260 0.377386
0.918578 0.654627 0.352270
0.938445 0.638331 0.330114
0.959075 0.624109 0.313115
0.985321 0.637354 0.339422
1.000000 0.650538 0.368750
1.000000 0.663966 0.400885
1.000000 0.677821 0.435767
1.000000 0.692348 0.472908
0.282139 0.813046 0.441840
0.287114 0.814237 0.443305
0.297581 0.815274 0.445197
0.313603 0.815915 0.446448
0.334936 0.816007 0.447242
0.359777 0.815305 0.447028
0.388708 0.814145 0.446326
0.420325 0.812680 0.445411
0.454536 0.811093 0.444739
0.489906 0.809415 0.443946
0.537224 0.806088 0.450355
0.583825 0.802121 0.459205
0.626520 0.797482 0.468421
0.665217 0.792386 0.478431
0.699825 0.786770 0.489143
0.730282 0.780514 0.500328
0.756405 0.773831 0.512169
0.778347 0.766659 0.524773
0.796536 0.759792 0.538689
0.820279 0.767300 0.575280
0.840421 0.761532 0.547692
0.860197 0.751339 0.513817
0.879759 0.739315 0.482338
0.899168 0.725826 0.452888
0.918395 0.711543 0.425940
0.937713 0.697169 0.401678
0.957275 0.683162 0.380438
0.977203 0.669856 0.362554
0.999054 0.673915 0.376806
1.000000 0.687129 0.410010
1.000000 0.700649 0.445808
1.000000 0.714229 0.483619
0.346380 0.837980 0.478462
0.350317 0.838987 0.480262
0.358434 0.839933 0.482002
0.370245 0.840543 0.483406
0.386725 0.840696 0.484596
0.406256 0.840208 0.484688
0.428656 0.839261 0.484077
0.454536 0.837980 0.483345
0.483162 0.836576 0.482795
0.513268 0.835111 0.482124
0.548608 0.833005 0.483680
0.591974 0.829526 0.491646
0.632471 0.825650 0.500084
0.670069 0.821378 0.509483
0.704067 0.816770 0.519463
0.734585 0.811734 0.529931
0.761624 0.806332 0.541131
0.784939 0.800565 0.552575
0.804715 0.794644 0.564935
0.821225 0.788998 0.578515
0.841825 0.795346 0.613336
0.859678 0.790890 0.592950
0.878325 0.782437 0.561730
0.897032 0.772091 0.531365
0.915618 0.760525 0.503227
0.934234 0.748348 0.477577
0.952941 0.736110 0.454810
0.972015 0.724269 0.435676
0.991333 0.713588 0.420478
1.000000 0.709804 0.420905
1.000000 0.722499 0.457282
1.000000 0.735256 0.495338
0.406287 0.860105 0.517540
0.409613 0.860868 0.519249
0.415717 0.861570 0.520836
0.425208 0.861967 0.522332
0.437629 0.862028 0.523308
0.452644 0.861601 0.523247
0.470466 0.860868 0.523095
0.491218 0.859800 0.522545
0.514611 0.858640 0.522026
0.540246 0.857328 0.521599
0.567468 0.855894 0.521263
0.603418 0.853300 0.526329
0.641138 0.849973 0.534142
0.676295 0.846403 0.542809
0.709316 0.842557 0.552178
0.739132 0.838529 0.562158
0.766354 0.834379 0.572656
0.790555 0.830228 0.584070
0.811795 0.826017 0.596216
0.830014 0.821836 0.609094
0.845335 0.817929 0.623102
0.863371 0.823789 0.657465
0.878996 0.820584 0.643824
0.896391 0.814115 0.616754
0.913970 0.806027 0.590448
0.931670 0.796963 0.565759
0.949554 0.787259 0.542840
0.967651 0.777707 0.523308
0.985901 0.768856 0.507866
1.000000 0.760433 0.495766
1.000000 0.753079 0.488106
1.000000 0.762997 0.522789
0.478401 0.883177 0.568902
0.479927 0.883421 0.569574
0.483192 0.883513 0.570062
0.488380 0.883391 0.570214
0.496559 0.882994 0.570031
0.506950 0.882414 0.569665
0.520226 0.881621 0.569024
0.536278 0.880674 0.568566
0.554894 0.879667 0.568017
0.575738 0.878630 0.567864
0.598169 0.877440 0.567529
0.623346 0.875944 0.568414
0.656977 0.873136 0.575555
0.689143 0.870085 0.583154
0.719356 0.866819 0.591272
0.747372 0.863432 0.600092
0.773068 0.859861 0.609125
0.796445 0.856260 0.618952
0.817319 0.852598 0.629389
0.835721 0.848905 0.640131
0.851560 0.845151 0.651667
0.864775 0.841459 0.663630
0.879606 0.845884 0.695857
0.892576 0.842802 0.686488
0.908293 0.837217 0.662043
0.924559 0.830655 0.639124
0.941192 0.823362 0.617884
0.958038 0.815763 0.598932
0.975006 0.808164 0.582666
0.992065 0.801053 0.569970
1.000000 0.794644 0.561151
1.000000 0.789181 0.556634
0.529015 0.898528 0.608789
0.530205 0.898711 0.609339
0.532799 0.898741 0.609644
0.537102 0.898680 0.610071
0.543328 0.898405 0.609979
0.551507 0.897917 0.609674
0.561913 0.897276 0.609186
0.574792 0.896513 0.608728
0.589624 0.895720 0.608453
0.606836 0.894804 0.608423
0.625452 0.893828 0.608392
0.645228 0.892760 0.608270
0.670832 0.890867 0.611719
0.699977 0.888304 0.618708
0.727596 0.885557 0.626123
0.753750 0.882780 0.634058
0.778164 0.879850 0.642542
0.800565 0.876921 0.651606
0.820981 0.873930 0.660975
0.839322 0.870939 0.670832
0.855619 0.867918 0.681300
0.869535 0.864897 0.691798
0.881254 0.861814 0.702754
0.893736 0.865568 0.733486
0.903227 0.860990 0.724056
0.917479 0.856321 0.702754
0.932494 0.851011 0.682979
0.947967 0.845212 0.665095
0.963745 0.839231 0.649500
0.979675 0.833585 0.637110
0.995605 0.828458 0.628321
1.000000 0.823972 0.623285
0.583825 0.913420 0.653834
0.585382 0.913634 0.654658
0.587274 0.913664 0.655116
0.590082 0.913451 0.654902
0.593896 0.913054 0.654231
0.599268 0.912474 0.653254
0.606287 0.911681 0.652155
0.615259 0.910826 0.650935
0.626276 0.909880 0.649775
0.639033 0.908873 0.648890
0.653162 0.907805 0.647913
0.669062 0.906706 0.647242
0.685969 0.905516 0.646632
0.710658 0.903166 0.651667
0.735225 0.900572 0.657496
0.758785 0.897887 0.663905
0.781216 0.895201 0.670802
0.802304 0.892515 0.678462
0.821988 0.889952 0.686915
0.840116 0.887480 0.696010
0.856382 0.885039 0.705440
0.870817 0.882536 0.715114
0.883116 0.879820 0.724300
0.893309 0.876890 0.733486
0.903777 0.879850 0.761929
0.912749 0.877440 0.759243
0.925414 0.873442 0.740810
0.939147 0.869230 0.724453
0.953429 0.864775 0.709926
0.968048 0.860349 0.697993
0.982757 0.856291 0.689174
0.997284 0.852934 0.684169
0.623743 0.923766 0.688563
0.625025 0.923949 0.689235
0.626734 0.924010 0.689815
0.629175 0.923919 0.689906
0.632715 0.923674 0.689693
0.637415 0.923308 0.689418
0.643549 0.922881 0.689143
0.651392 0.922362 0.688777
0.660578 0.921782 0.688502
0.671443 0.921141 0.688380
0.683345 0.920409 0.688167
0.696529 0.919585 0.688014
0.710384 0.918669 0.687770
0.727138 0.917327 0.688869
0.748623 0.915129 0.693874
0.769436 0.912840 0.699306
0.789456 0.910430 0.705104
0.808530 0.908080 0.711330
0.826688 0.905760 0.718379
0.843534 0.903532 0.725826
0.859190 0.901335 0.733791
0.873198 0.899168 0.741909
0.885588 0.896880 0.749966
0.896361 0.894530 0.757900
0.905364 0.892180 0.766934
0.914397 0.894652 0.792325
0.921874 0.892882 0.792538
0.933196 0.889830 0.777768
0.945708 0.887053 0.765682
0.958709 0.884123 0.755489
0.971893 0.881407 0.747738
0.985046 0.879088 0.743038
0.666438 0.933928 0.726070
0.667140 0.934020 0.726497
0.668086 0.934020 0.726619
0.669856 0.933898 0.726589
0.672358 0.933684 0.726375
0.675868 0.933379 0.725948
0.680476 0.932982 0.725612
0.686305 0.932525 0.725154
0.693446 0.932036 0.724788
0.701747 0.931456 0.724544
0.711208 0.930816 0.724147
0.721706 0.930114 0.723934
0.732906 0.929381 0.723568
0.744686 0.928496 0.723079
0.761196 0.926879 0.725612
0.779385 0.924865 0.730007
0.797208 0.922820 0.734859
0.814511 0.920745 0.740108
0.831083 0.918730 0.745968
0.846799 0.916777 0.752316
0.861540 0.914855 0.758968
0.875059 0.912932 0.765774
0.887205 0.910948 0.772549
0.898039 0.908873 0.779171
0.907469 0.906706 0.785672
0.915343 0.904906 0.796231
0.923278 0.906828 0.817044
0.929534 0.905364 0.818845
0.939605 0.903014 0.807004
0.951019 0.901427 0.798489
0.962768 0.899870 0.792020
0.974609 0.898619 0.787991
0.701991 0.942321 0.758145
0.702449 0.942351 0.758358
0.703365 0.942351 0.758541
0.704921 0.942321 0.758694
0.707149 0.942199 0.758755
0.710445 0.942077 0.758907
0.715023 0.941985 0.759487
0.720821 0.941863 0.760311
0.727687 0.941741 0.761288
0.735470 0.941619 0.762417
0.744167 0.941436 0.763546
0.753445 0.941192 0.764645
0.763210 0.940826 0.765469
0.773159 0.940398 0.765957
0.783474 0.939788 0.766110
0.798856 0.938262 0.769894
0.813962 0.936584 0.773892
0.828702 0.934874 0.778103
0.843046 0.933196 0.782712
0.856901 0.931548 0.787686
0.869932 0.929900 0.792874
0.882139 0.928252 0.798154
0.893339 0.926543 0.803281
0.903532 0.924773 0.808377
0.912596 0.922911 0.813321
0.920623 0.920928 0.818112
0.927398 0.919707 0.829526
0.934142 0.921019 0.845396
0.939300 0.919829 0.847990
0.947875 0.918151 0.838956
0.957946 0.917632 0.833768
0.968170 0.917266 0.830503
0.744991 0.951751 0.795804
0.745083 0.951751 0.795804
0.745480 0.951690 0.795682
0.746304 0.951598 0.795590
0.747707 0.951446 0.795346
0.749752 0.951293 0.795163
0.752468 0.951080 0.795010
0.756069 0.950866 0.794949
0.760464 0.950591 0.794949
0.765743 0.950317 0.795041
0.771664 0.949981 0.795132
0.778225 0.949615 0.795224
0.785428 0.949218 0.795224
0.793057 0.948730 0.795102
