20 Preset/Portrait Preset/【2】XMP for PS - LR CC/Film Portrait - Tone 5.xmp
<x:xmpmeta xmlns:x="adobe:ns:meta/" x:xmptk="Adobe XMP Core 5.6-c140 79.160451, 2017/05/06-01:08:21        ">
 <rdf:RDF xmlns:rdf="http://www.w3.org/1999/02/22-rdf-syntax-ns#">
  <rdf:Description rdf:about=""
    xmlns:crs="http://ns.adobe.com/camera-raw-settings/1.0/"
   crs:PresetType="Normal"
   crs:Cluster=""
   crs:UUID="2E8DF5F20DCF6342B878352DDDBEAE2F"
   crs:SupportsAmount="False"
   crs:SupportsColor="True"
   crs:SupportsMonochrome="True"
   crs:SupportsHighDynamicRange="True"
   crs:SupportsNormalDynamicRange="True"
   crs:SupportsSceneReferred="True"
   crs:SupportsOutputReferred="True"
   crs:CameraModelRestriction=""
   crs:Copyright=""
   crs:ContactInfo=""
   crs:Version="12.0"
   crs:ProcessVersion="10.0"
   crs:WhiteBalance="Custom"
   crs:Temperature="4450"
   crs:Tint="+9"
   crs:Saturation="0"
   crs:Sharpness="80"
   crs:LuminanceSmoothing="0"
   crs:ColorNoiseReduction="25"
   crs:VignetteAmount="0"
   crs:ShadowTint="-5"
   crs:RedHue="+15"
   crs:RedSaturation="-3"
   crs:GreenHue="+49"
   crs:GreenSaturation="+47"
   crs:BlueHue="0"
   crs:BlueSaturation="-41"
   crs:Vibrance="+75"
   crs:HueAdjustmentRed="+18"
   crs:HueAdjustmentOrange="+12"
   crs:HueAdjustmentYellow="0"
   crs:HueAdjustmentGreen="-30"
   crs:HueAdjustmentAqua="-80"
   crs:HueAdjustmentBlue="0"
   crs:HueAdjustmentPurple="-70"
   crs:HueAdjustmentMagenta="+77"
   crs:SaturationAdjustmentRed="0"
   crs:SaturationAdjustmentOrange="-17"
   crs:SaturationAdjustmentYellow="-53"
   crs:SaturationAdjustmentGreen="-100"
   crs:SaturationAdjustmentAqua="-100"
   crs:SaturationAdjustmentBlue="-100"
   crs:SaturationAdjustmentPurple="-100"
   crs:SaturationAdjustmentMagenta="-100"
   crs:LuminanceAdjustmentRed="0"
   crs:LuminanceAdjustmentOrange="0"
   crs:LuminanceAdjustmentYellow="0"
   crs:LuminanceAdjustmentGreen="0"
   crs:LuminanceAdjustmentAqua="0"
   crs:LuminanceAdjustmentBlue="-13"
   crs:LuminanceAdjustmentPurple="0"
   crs:LuminanceAdjustmentMagenta="0"
   crs:SplitToningShadowHue="27"
   crs:SplitToningShadowSaturation="10"
   crs:SplitToningHighlightHue="0"
   crs:SplitToningHighlightSaturation="0"
   crs:SplitToningBalance="0"
   crs:ParametricShadows="0"
   crs:ParametricDarks="0"
   crs:ParametricLights="0"
   crs:ParametricHighlights="0"
   crs:ParametricShadowSplit="25"
   crs:ParametricMidtoneSplit="50"
   crs:ParametricHighlightSplit="75"
   crs:SharpenRadius="+1.0"
   crs:SharpenDetail="25"
   crs:SharpenEdgeMasking="0"
   crs:PostCropVignetteAmount="-32"
   crs:PostCropVignetteMidpoint="20"
   crs:PostCropVignetteFeather="100"
   crs:PostCropVignetteRoundness="+49"
   crs:PostCropVignetteStyle="1"
   crs:PostCropVignetteHighlightContrast="100"
   crs:GrainAmount="0"
   crs:ColorNoiseReductionDetail="50"
   crs:ColorNoiseReductionSmoothness="50"
   crs:LensManualDistortionAmount="0"
   crs:AutoLateralCA="0"
   crs:Exposure2012="+0.33"
   crs:Contrast2012="-100"
   crs:Highlights2012="-73"
   crs:Shadows2012="+41"
   crs:Whites2012="+6"
   crs:Blacks2012="-39"
   crs:Clarity2012="0"
   crs:DefringePurpleAmount="0"
   crs:DefringePurpleHueLo="30"
   crs:DefringePurpleHueHi="70"
   crs:DefringeGreenAmount="0"
   crs:DefringeGreenHueLo="40"
   crs:DefringeGreenHueHi="60"
   crs:Dehaze="0"
   crs:ConvertToGrayscale="False"
   crs:OverrideLookVignette="True"
   crs:ToneCurveName2012="Custom"
   crs:CameraProfile="Default Color"
   crs:HasSettings="True"
   crs:CropConstrainToWarp="0">
   <crs:Name>
    <rdf:Alt>
     <rdf:li xml:lang="x-default">Film Portrait - Tone 5</rdf:li>
    </rdf:Alt>
   </crs:Name>
   <crs:ShortName>
    <rdf:Alt>
     <rdf:li xml:lang="x-default"/>
    </rdf:Alt>
   </crs:ShortName>
   <crs:SortName>
    <rdf:Alt>
     <rdf:li xml:lang="x-default"/>
    </rdf:Alt>
   </crs:SortName>
   <crs:Group>
    <rdf:Alt>
     <rdf:li xml:lang="x-default">LuxPreset - Film Portrait</rdf:li>
    </rdf:Alt>
   </crs:Group>
   <crs:Description>
    <rdf:Alt>
     <rdf:li xml:lang="x-default"/>
    </rdf:Alt>
   </crs:Description>
   <crs:ToneCurvePV2012>
    <rdf:Seq>
     <rdf:li>0, 20</rdf:li>
     <rdf:li>32, 23</rdf:li>
     <rdf:li>98, 82</rdf:li>
     <rdf:li>178, 179</rdf:li>
     <rdf:li>255, 244</rdf:li>
    </rdf:Seq>
   </crs:ToneCurvePV2012>
   <crs:ToneCurvePV2012Red>
    <rdf:Seq>
     <rdf:li>6, 0</rdf:li>
     <rdf:li>38, 26</rdf:li>
     <rdf:li>58, 52</rdf:li>
     <rdf:li>124, 137</rdf:li>
     <rdf:li>255, 255</rdf:li>
    </rdf:Seq>
   </crs:ToneCurvePV2012Red>
   <crs:ToneCurvePV2012Green>
    <rdf:Seq>
     <rdf:li>5, 0</rdf:li>
     <rdf:li>30, 23</rdf:li>
     <rdf:li>62, 62</rdf:li>
     <rdf:li>142, 154</rdf:li>
     <rdf:li>255, 255</rdf:li>
    </rdf:Seq>
   </crs:ToneCurvePV2012Green>
   <crs:ToneCurvePV2012Blue>
    <rdf:Seq>
     <rdf:li>0, 2</rdf:li>
     <rdf:li>33, 32</rdf:li>
     <rdf:li>162, 170</rdf:li>
     <rdf:li>255, 255</rdf:li>
    </rdf:Seq>
   </crs:ToneCurvePV2012Blue>
   <crs:Look
    crs:Name=""/>
  </rdf:Description>
 </rdf:RDF>
</x:xmpmeta>
