20 Preset/Travel Style 2/【3】LUT video cho PR-AE-FCPX/Travel 2 LUT (24).cube
# Created by Adobe Lightroom plugin Export LUT (1.24.0)
# www.johnrellis.com/lightroom/exportlut.htm
# Preset: 24素材江湖 - DRONE
# Color profile: E:\lut插件\exportlut.1.24\exportlut.lrplugin\color profiles\Rec709gamma2.4.icc
LUT_3D_SIZE 32
DOMAIN_MIN 0.0 0.0 0.0
DOMAIN_MAX 1.0 1.0 1.0
0.167178 0.167178 0.167178
0.167178 0.167178 0.167178
0.167178 0.167178 0.167178
0.167178 0.167178 0.167178
0.170565 0.167819 0.168093
0.177554 0.168856 0.169741
0.190158 0.169497 0.171481
0.209506 0.169986 0.173861
0.228305 0.173373 0.177920
0.247684 0.179751 0.184085
0.267826 0.188846 0.192447
0.290745 0.199100 0.202029
0.317357 0.210788 0.212985
0.348516 0.223972 0.225223
0.384558 0.238590 0.238804
0.425696 0.255222 0.253819
0.474098 0.274846 0.271519
0.535058 0.299168 0.293462
0.601434 0.325414 0.317784
0.669001 0.354589 0.345312
0.736141 0.386938 0.375952
0.796170 0.422248 0.410132
0.845884 0.460121 0.447761
0.888090 0.500725 0.488563
0.923369 0.543450 0.531914
0.951965 0.588342 0.577813
0.974731 0.634272 0.624903
0.993500 0.678004 0.669764
1.000000 0.719234 0.712062
1.000000 0.758236 0.752010
1.000000 0.794766 0.789517
1.000000 0.828702 0.824308
0.167178 0.167178 0.167178
0.167178 0.167178 0.167178
0.167178 0.167178 0.167178
0.167178 0.167178 0.167178
0.170871 0.167788 0.168093
0.177554 0.168856 0.169741
0.190158 0.169497 0.171481
0.208621 0.170443 0.174014
0.227054 0.174105 0.178042
0.246067 0.180331 0.184054
0.266209 0.189151 0.192325
0.289067 0.199283 0.201938
0.315373 0.210819 0.212650
0.346075 0.224125 0.224949
0.381872 0.238529 0.238376
0.422492 0.255192 0.253361
0.470649 0.274449 0.270909
0.529747 0.298283 0.292271
0.595087 0.323980 0.316167
0.661646 0.352483 0.342962
0.727932 0.383917 0.372686
0.788479 0.418158 0.405859
0.838712 0.455299 0.442634
0.881712 0.495277 0.482704
0.918059 0.537255 0.525353
0.947631 0.581842 0.570886
0.971313 0.628046 0.618341
0.990814 0.672267 0.663783
1.000000 0.714046 0.706661
1.000000 0.753597 0.747219
1.000000 0.790707 0.785275
1.000000 0.825162 0.820676
0.167178 0.167178 0.167178
0.167178 0.167178 0.167178
0.167178 0.167178 0.167178
0.167330 0.167330 0.167330
0.171939 0.167819 0.168246
0.178470 0.169100 0.169863
0.189609 0.170748 0.172030
0.206027 0.173190 0.174868
0.224063 0.177340 0.178988
0.243015 0.183810 0.185397
0.263096 0.192477 0.193729
0.285863 0.202457 0.203250
0.312016 0.213840 0.213901
0.342657 0.226780 0.225986
0.378058 0.241245 0.239445
0.418585 0.257877 0.254429
0.466590 0.277592 0.272099
0.525078 0.300664 0.293126
0.589441 0.325994 0.316564
0.655360 0.354162 0.343023
0.721584 0.385473 0.372717
0.782650 0.419501 0.405615
0.833616 0.455909 0.441871
0.877287 0.495430 0.481697
0.914031 0.537102 0.524102
0.944213 0.580926 0.569024
0.968444 0.626886 0.616419
0.988403 0.671046 0.661891
1.000000 0.712886 0.704952
1.000000 0.752499 0.745693
1.000000 0.789578 0.783841
1.000000 0.824063 0.819272
0.166445 0.168307 0.167208
0.166323 0.168490 0.167178
0.166201 0.168673 0.167178
0.168765 0.168948 0.166903
0.170443 0.170047 0.169894
0.175784 0.171969 0.171633
0.185519 0.174624 0.173800
0.201022 0.178134 0.177157
0.218570 0.183200 0.181888
0.237247 0.190249 0.188815
0.257786 0.198550 0.196963
0.280583 0.208499 0.206241
0.306645 0.219791 0.217014
0.337072 0.232547 0.228885
0.372351 0.247044 0.242191
0.412207 0.263554 0.257145
0.460517 0.283360 0.274937
0.517266 0.305791 0.295415
0.579828 0.330602 0.318273
0.644343 0.358068 0.343969
0.709316 0.388342 0.372717
0.771084 0.421424 0.404822
0.823453 0.457496 0.440742
0.868772 0.496529 0.480415
0.907256 0.538293 0.523156
0.939055 0.582574 0.568994
0.964416 0.629023 0.617090
0.985351 0.673274 0.662928
1.000000 0.715023 0.706142
1.000000 0.754360 0.746761
1.000000 0.790860 0.784512
1.000000 0.824704 0.819394
0.161288 0.176364 0.166323
0.161196 0.176547 0.166140
0.162753 0.177066 0.165835
0.167666 0.177371 0.165713
0.175174 0.176730 0.165652
0.180575 0.175662 0.170504
0.179263 0.178500 0.178073
0.192966 0.183932 0.181918
0.209934 0.190433 0.187350
0.228489 0.198123 0.194186
0.249271 0.206485 0.201968
0.272251 0.216312 0.211185
0.298100 0.227726 0.221805
0.328496 0.240635 0.233738
0.363226 0.255375 0.247013
0.403662 0.272313 0.262119
0.453376 0.292607 0.280522
0.509636 0.314916 0.300877
0.571527 0.339757 0.323491
0.635615 0.367254 0.349065
0.700404 0.397528 0.377752
0.762478 0.430396 0.409674
0.815610 0.465980 0.445472
0.861875 0.504631 0.485145
0.901213 0.545922 0.527947
0.933654 0.589837 0.573754
0.959716 0.635187 0.621210
0.981170 0.678401 0.666377
0.998627 0.719234 0.708949
1.000000 0.757626 0.748898
1.000000 0.793393 0.786099
1.000000 0.826566 0.820523
0.151003 0.197726 0.162692
0.151675 0.198093 0.162600
0.154788 0.199527 0.162295
0.163180 0.200107 0.162020
0.176455 0.197360 0.162234
0.189792 0.193973 0.162539
0.203922 0.192355 0.167758
0.201602 0.189334 0.180484
0.199527 0.197055 0.196262
0.218051 0.205905 0.202640
0.238773 0.215274 0.210239
0.261845 0.225742 0.219303
0.288151 0.237644 0.229648
0.318395 0.251072 0.241550
0.354070 0.266484 0.255070
0.397131 0.284672 0.271214
0.446906 0.305455 0.289677
0.502983 0.328496 0.310185
0.565148 0.354070 0.333318
0.629084 0.382055 0.358984
0.693874 0.412696 0.387976
0.756100 0.445838 0.420203
0.843687 0.512200 0.487373
0.884611 0.551568 0.528710
0.918303 0.592767 0.572381
0.945617 0.635309 0.617639
0.968353 0.675929 0.660670
0.987182 0.714290 0.701228
1.000000 0.750668 0.739528
1.000000 0.784817 0.775418
1.000000 0.816709 0.808865
1.000000 0.846067 0.839597
0.133364 0.235447 0.155062
0.134463 0.235843 0.154940
0.139651 0.238193 0.154269
0.155367 0.236728 0.154360
0.174777 0.232181 0.155032
0.194217 0.225864 0.156039
0.211093 0.219150 0.157046
0.234012 0.218845 0.162173
0.234714 0.210086 0.178958
0.228550 0.213107 0.203708
0.228305 0.224949 0.223789
0.252171 0.237308 0.232731
0.280095 0.250797 0.243320
0.312413 0.265751 0.255558
0.352026 0.283848 0.270695
0.397559 0.304204 0.288090
0.449073 0.326757 0.307439
0.506950 0.351598 0.328954
0.570397 0.379034 0.353124
0.636133 0.409277 0.380713
0.703761 0.442786 0.412329
0.766781 0.479316 0.448402
0.820829 0.517845 0.488197
0.866728 0.558556 0.531182
0.904295 0.600916 0.576593
0.934142 0.643305 0.622248
0.958770 0.682887 0.664759
0.978882 0.720027 0.704494
0.995331 0.755215 0.742000
1.000000 0.788144 0.777005
1.000000 0.819120 0.809781
1.000000 0.847837 0.840146
0.105989 0.282780 0.141390
0.108278 0.283238 0.141207
0.120119 0.284062 0.140719
0.143771 0.280034 0.141756
0.170138 0.274113 0.143435
0.195346 0.265995 0.145388
0.217105 0.255802 0.147829
0.234745 0.245792 0.150240
0.263828 0.247654 0.154910
0.268315 0.236271 0.176455
0.266117 0.234867 0.206027
0.258030 0.244450 0.237278
0.268162 0.261021 0.258335
0.301732 0.278721 0.271702
0.340459 0.298039 0.286687
0.384344 0.318975 0.303502
0.434516 0.342016 0.322362
0.490761 0.367437 0.343603
0.553491 0.395789 0.367651
0.618616 0.426520 0.395056
0.685542 0.460212 0.426337
0.749294 0.496651 0.461830
0.804471 0.534508 0.500664
0.851621 0.574182 0.542779
0.890440 0.615442 0.587549
0.921965 0.655879 0.631586
0.948058 0.693690 0.672663
0.969757 0.729091 0.711025
0.987457 0.762814 0.747402
1.000000 0.794522 0.781552
1.000000 0.824308 0.813443
1.000000 0.852049 0.843076
0.000000 0.345708 0.115450
0.000000 0.346532 0.114870
0.037079 0.344152 0.115999
0.114748 0.338994 0.118410
0.157565 0.331212 0.121859
0.193271 0.320684 0.126253
0.223026 0.307439 0.131380
0.245853 0.291966 0.136904
0.263584 0.277623 0.141390
0.296666 0.279973 0.146242
0.307530 0.269535 0.175082
0.310216 0.265599 0.210086
0.307317 0.272099 0.246738
0.296574 0.290318 0.287663
0.326757 0.312047 0.306798
0.369818 0.334417 0.323400
0.419104 0.358862 0.342199
0.474830 0.385626 0.363348
0.536919 0.415137 0.387427
0.601709 0.447089 0.414893
0.667811 0.481758 0.446418
0.731960 0.518059 0.480903
0.788205 0.555322 0.518853
0.836088 0.594202 0.560052
0.875883 0.634150 0.603632
0.909087 0.672145 0.645228
0.936736 0.707759 0.684291
0.959808 0.741360 0.721035
0.978851 0.773281 0.755886
0.994354 0.803372 0.788602
1.000000 0.831693 0.819303
1.000000 0.858183 0.847898
0.000000 0.431037 0.000000
0.000000 0.430030 0.000000
0.000000 0.426642 0.000000
0.000000 0.420356 0.000000
0.124514 0.409796 0.024292
0.185031 0.396277 0.056092
0.228519 0.378943 0.088655
0.260807 0.359747 0.103120
0.283757 0.338231 0.115969
0.300725 0.318334 0.125246
0.337835 0.321050 0.131441
0.355291 0.311772 0.169955
0.361639 0.304753 0.211337
0.362829 0.307103 0.253544
0.357183 0.321660 0.300450
0.352026 0.348486 0.347082
0.401129 0.375555 0.366583
0.457221 0.404761 0.388342
0.519371 0.436561 0.413062
0.583948 0.470283 0.440986
0.649653 0.505547 0.471748
0.713497 0.541222 0.504479
0.769375 0.577386 0.540337
0.817533 0.614496 0.579309
0.858152 0.651820 0.619745
0.893065 0.687190 0.658412
0.922667 0.720821 0.695338
0.947601 0.752834 0.730526
0.968444 0.783352 0.764096
0.985565 0.812253 0.795804
0.999329 0.839414 0.825559
1.000000 0.864866 0.853361
0.000000 0.541344 0.000000
0.000000 0.540459 0.000000
0.000000 0.537346 0.000000
0.000000 0.530175 0.000000
0.000000 0.518853 0.000000
0.157717 0.503258 0.000000
0.230930 0.482643 0.000000
0.279332 0.457435 0.000000
0.312291 0.428992 0.000000
0.332891 0.396826 0.037720
0.346624 0.368505 0.091951
0.385931 0.370001 0.102937
0.411719 0.362982 0.157717
0.422187 0.353368 0.208621
0.428138 0.352331 0.258457
0.427832 0.363012 0.312291
0.417060 0.388342 0.373816
0.436042 0.423316 0.418372
0.497688 0.457313 0.443244
0.562097 0.492592 0.470863
0.628077 0.528527 0.500237
0.692531 0.564691 0.531731
0.749416 0.601129 0.566522
0.798581 0.637751 0.604120
0.841215 0.673060 0.641444
0.877836 0.706386 0.677272
0.909148 0.737881 0.711635
0.935790 0.767910 0.744594
0.958160 0.796506 0.776089
0.976684 0.823697 0.806119
0.991699 0.849302 0.834348
1.000000 0.873289 0.860777
0.000000 0.672999 0.000000
0.000000 0.672358 0.000000
0.000000 0.668544 0.000000
0.000000 0.661646 0.000000
0.000000 0.649958 0.000000
0.000000 0.633417 0.000000
0.217075 0.611566 0.000000
0.293645 0.584070 0.000000
0.344732 0.550835 0.000000
0.377661 0.512810 0.000000
0.394842 0.469734 0.000000
0.403967 0.430945 0.000000
0.468421 0.452552 0.000000
0.507469 0.449622 0.118868
0.523705 0.436774 0.199252
0.535027 0.431861 0.266667
0.539300 0.438117 0.336095
0.533165 0.460151 0.412146
0.511772 0.500237 0.495277
0.564599 0.539635 0.530327
0.632105 0.577234 0.558679
0.693935 0.613672 0.588983
0.748196 0.648768 0.621363
0.795865 0.681849 0.653498
0.837430 0.712886 0.684993
0.873411 0.742031 0.715450
0.904051 0.769497 0.744869
0.930236 0.795499 0.773098
0.952361 0.820279 0.800320
0.970947 0.843931 0.826444
0.986206 0.866392 0.851286
0.998383 0.887694 0.874937
0.000000 0.802518 0.000000
0.000000 0.801724 0.000000
0.000000 0.798581 0.000000
0.000000 0.791989 0.000000
0.000000 0.782040 0.000000
0.000000 0.767971 0.000000
0.165408 0.749447 0.000000
0.293919 0.726009 0.000000
0.371618 0.696925 0.000000
0.426001 0.661494 0.000000
0.461433 0.618494 0.000000
0.478584 0.567620 0.000000
0.486610 0.520439 0.000000
0.529381 0.515770 0.000000
0.580163 0.518669 0.000000
0.600793 0.504417 0.175418
0.615991 0.496437 0.261021
0.624018 0.498268 0.341772
0.622156 0.514763 0.426947
0.607233 0.548302 0.515831
0.599420 0.593347 0.590906
0.664027 0.631006 0.618982
0.721401 0.665949 0.647761
0.772061 0.698451 0.676692
0.816403 0.728695 0.705226
0.854948 0.756924 0.733272
0.888029 0.783444 0.760525
0.916381 0.808377 0.786954
0.940520 0.832059 0.812467
0.960845 0.854612 0.837095
0.977661 0.875914 0.860594
0.991211 0.896025 0.882933
0.000000 0.877775 0.000000
0.000000 0.877134 0.000000
0.000000 0.874144 0.000000
0.000000 0.869230 0.000000
0.000000 0.861723 0.000000
0.000000 0.850828 0.000000
0.000000 0.836973 0.000000
0.255863 0.819486 0.000000
0.360632 0.797604 0.000000
0.434974 0.771267 0.000000
0.490700 0.739315 0.000000
0.530053 0.699489 0.000000
0.550439 0.649470 0.000000
0.557794 0.597620 0.000000
0.597803 0.587243 0.000000
0.658320 0.594079 0.000000
0.681270 0.577264 0.130251
0.698329 0.565606 0.250126
0.708461 0.563134 0.345892
0.708431 0.574090 0.441657
0.697200 0.601068 0.536400
0.674556 0.642634 0.627527
0.695918 0.682338 0.677089
0.749538 0.714961 0.702846
0.796475 0.744869 0.728511
0.837400 0.772427 0.753811
0.872679 0.798032 0.778653
0.902983 0.821866 0.802762
0.928893 0.844419 0.826322
0.950866 0.865782 0.849149
0.969177 0.885863 0.871031
0.984070 0.904906 0.891966
0.000000 0.933227 0.000000
0.000000 0.932769 0.000000
0.000000 0.930724 0.000000
0.000000 0.927062 0.000000
0.000000 0.921202 0.000000
0.000000 0.913146 0.000000
0.000000 0.902892 0.000000
0.185306 0.890105 0.000000
0.329168 0.874235 0.000000
0.420417 0.855100 0.000000
0.491524 0.831662 0.000000
0.547875 0.802945 0.000000
0.589624 0.766506 0.000000
0.614313 0.721004 0.000000
0.626917 0.672419 0.000000
0.664424 0.657465 0.000000
0.728817 0.663752 0.000000
0.754971 0.646601 0.000000
0.771939 0.631220 0.237827
0.781491 0.624323 0.351446
0.781735 0.630854 0.457984
0.772396 0.653376 0.559625
0.754116 0.689021 0.652430
0.733150 0.728756 0.726955
0.777218 0.759304 0.752621
0.820310 0.786618 0.775235
0.857725 0.811765 0.797696
0.890135 0.835111 0.819821
0.917967 0.856931 0.841550
0.941619 0.877531 0.862760
0.961456 0.896849 0.883268
0.977691 0.914946 0.902892
0.000000 0.972320 0.000000
0.000000 0.972168 0.000000
0.000000 0.970855 0.000000
0.000000 0.968475 0.000000
0.000000 0.964630 0.000000
0.000000 0.959228 0.000000
0.000000 0.952270 0.000000
0.000000 0.943450 0.000000
0.282017 0.932311 0.000000
0.391394 0.918517 0.000000
0.474006 0.901427 0.000000
0.541833 0.880156 0.000000
0.596948 0.853941 0.000000
0.639338 0.820706 0.000000
0.666926 0.778744 0.000000
0.683742 0.734066 0.000000
0.719265 0.716579 0.000000
0.784878 0.721401 0.000000
0.815396 0.705989 0.000000
0.831998 0.688075 0.227512
0.841978 0.679286 0.359991
0.842985 0.683803 0.477790
0.834501 0.703517 0.586633
0.819486 0.733883 0.678584
0.803098 0.767941 0.750729
0.805142 0.800076 0.798032
0.844450 0.825132 0.818143
0.878599 0.847990 0.838010
0.907927 0.869078 0.857572
0.932891 0.888640 0.876707
0.953918 0.906828 0.895232
0.971252 0.923766 0.913085
0.000000 1.000000 0.000000
0.000000 1.000000 0.000000
0.000000 0.999115 0.000000
0.000000 0.997467 0.000000
0.000000 0.994751 0.000000
0.000000 0.990875 0.000000
0.000000 0.985809 0.000000
0.000000 0.979278 0.000000
0.220768 0.971191 0.000000
0.351049 0.961181 0.000000
0.443610 0.948669 0.000000
0.518547 0.933501 0.000000
0.582605 0.914763 0.000000
0.636500 0.891356 0.000000
0.679591 0.862211 0.000000
0.710292 0.825315 0.000000
0.731746 0.786099 0.000000
0.766018 0.768063 0.000000
0.832364 0.771786 0.000000
0.867430 0.758968 0.000000
0.884306 0.740078 0.222599
0.894102 0.730220 0.375219
0.894896 0.733211 0.502312
0.886198 0.750423 0.615869
0.873381 0.776059 0.705379
0.859739 0.805234 0.774929
0.847257 0.834897 0.829496
0.867887 0.859342 0.856016
0.898741 0.880095 0.873625
0.925048 0.899077 0.890898
0.947295 0.916533 0.907713
0.965698 0.932616 0.923919
0.000000 1.000000 0.000000
0.000000 1.000000 0.000000
0.000000 1.000000 0.000000
0.000000 1.000000 0.000000
0.000000 1.000000 0.000000
0.000000 1.000000 0.000000
0.000000 1.000000 0.000000
0.000000 1.000000 0.000000
0.164248 1.000000 0.000000
0.317571 0.997223 0.000000
0.414557 0.988495 0.000000
0.493751 0.977813 0.000000
0.562341 0.964660 0.000000
0.622889 0.948333 0.000000
0.675380 0.928161 0.000000
0.719478 0.903075 0.000000
0.753231 0.871275 0.000000
0.779599 0.837766 0.000000
0.812924 0.819791 0.000000
0.878874 0.821561 0.000000
0.918456 0.811704 0.000000
0.934264 0.791714 0.234226
0.942107 0.780728 0.403937
0.940520 0.782406 0.539300
0.930846 0.796445 0.651575
0.918791 0.817411 0.736202
0.906554 0.841581 0.801328
0.895781 0.866392 0.851896
0.890898 0.890043 0.889677
0.918212 0.908476 0.904906
0.941466 0.925383 0.919951
0.960571 0.940368 0.934203
0.000000 1.000000 0.000000
0.000000 1.000000 0.000000
0.000000 1.000000 0.000000
0.000000 1.000000 0.000000
0.000000 1.000000 0.000000
0.000000 1.000000 0.000000
0.000000 1.000000 0.000000
0.000000 1.000000 0.000000
0.086976 1.000000 0.000000
0.280339 1.000000 0.000000
0.380652 1.000000 0.000000
0.460792 1.000000 0.000000
0.531029 0.991577 0.000000
0.593652 0.980041 0.000000
0.650629 0.965789 0.000000
0.701472 0.948333 0.000000
0.745296 0.926879 0.000000
0.781064 0.900114 0.000000
0.811215 0.872099 0.000000
0.844572 0.856138 0.000000
0.910399 0.857542 0.000000
0.955047 0.851926 0.000000
0.970092 0.831601 0.249454
0.976501 0.820249 0.431098
0.973053 0.821408 0.572229
0.963684 0.833158 0.681147
0.952605 0.851102 0.762448
0.941802 0.872038 0.824582
0.932891 0.893706 0.872221
0.926665 0.914580 0.909178
0.935882 0.932403 0.931060
0.955261 0.946197 0.942992
0.000000 1.000000 0.000000
0.000000 1.000000 0.000000
0.000000 1.000000 0.000000
0.000000 1.000000 0.000000
0.000000 1.000000 0.000000
0.000000 1.000000 0.000000
0.000000 1.000000 0.000000
0.000000 1.000000 0.000000
0.045045 1.000000 0.000000
0.259709 1.000000 0.000000
0.355352 1.000000 0.000000
0.433143 1.000000 0.000000
0.501610 1.000000 0.000000
0.564141 1.000000 0.000000
0.622126 0.993225 0.000000
0.675715 0.981079 0.000000
0.724941 0.966247 0.000000
0.768734 0.948180 0.000000
0.806241 0.925933 0.000000
0.839506 0.902953 0.000000
0.874632 0.889860 0.000000
0.937682 0.889647 0.000000
0.986511 0.887724 0.000000
1.000000 0.867094 0.275547
1.000000 0.855619 0.463935
0.999268 0.856260 0.607935
0.989899 0.866270 0.712459
0.979461 0.881865 0.790219
0.969909 0.900206 0.848753
0.962219 0.918944 0.893034
0.956237 0.935851 0.925750
0.952605 0.951019 0.950378
0.000000 1.000000 0.063294
0.000000 1.000000 0.086885
0.000000 1.000000 0.090333
0.000000 1.000000 0.082856
0.000000 1.000000 0.030549
0.000000 1.000000 0.000000
0.000000 1.000000 0.000000
0.000000 1.000000 0.000000
0.142580 1.000000 0.000000
0.262760 1.000000 0.000000
0.344823 1.000000 0.000000
0.414771 1.000000 0.000000
0.478248 1.000000 0.000000
0.537652 1.000000 0.000000
0.593683 1.000000 0.000000
0.647395 1.000000 0.000000
0.698177 0.993835 0.000000
0.745876 0.981720 0.000000
0.789761 0.967163 0.000000
0.829129 0.949523 0.000000
0.865629 0.931640 0.000000
0.903593 0.921965 0.000000
0.963653 0.920562 0.000000
1.000000 0.921019 0.000000
1.000000 0.901640 0.323674
1.000000 0.890745 0.516197
1.000000 0.891447 0.655940
1.000000 0.900328 0.754452
1.000000 0.913634 0.825742
0.992370 0.928222 0.877409
0.984924 0.942870 0.915709
0.979492 0.956420 0.944030
0.000000 1.000000 0.291569
0.000000 1.000000 0.292393
0.000000 1.000000 0.291386
0.000000 1.000000 0.287175
0.000000 1.000000 0.279576
0.000000 1.000000 0.268315
0.000000 1.000000 0.252415
0.160952 1.000000 0.230686
0.238590 1.000000 0.202029
0.302586 1.000000 0.161746
0.360266 1.000000 0.088930
0.415167 1.000000 0.000000
0.467964 1.000000 0.000000
0.520165 1.000000 0.000000
0.571435 1.000000 0.000000
0.621729 1.000000 0.000000
0.670954 1.000000 0.000000
0.718868 1.000000 0.000000
0.764736 0.994995 0.000000
0.808255 0.983246 0.000000
0.848447 0.969177 0.000000
0.886870 0.954986 0.000000
0.925994 0.947509 0.000000
0.982818 0.944762 0.000000
1.000000 0.944274 0.000000
1.000000 0.928405 0.369116
1.000000 0.918059 0.563684
1.000000 0.917845 0.695094
1.000000 0.924681 0.786038
1.000000 0.935424 0.851102
1.000000 0.947631 0.898222
0.998383 0.958679 0.931151
0.169650 1.000000 0.388128
0.174044 1.000000 0.388769
0.181857 1.000000 0.387579
0.196201 1.000000 0.384741
0.213230 1.000000 0.379248
0.234226 1.000000 0.370977
0.258915 1.000000 0.359197
0.287694 1.000000 0.344793
0.319585 1.000000 0.327123
0.355047 1.000000 0.305241
0.391882 1.000000 0.277867
0.430762 1.000000 0.243259
0.471229 1.000000 0.194919
0.513359 1.000000 0.115511
0.556909 1.000000 0.000000
0.601190 1.000000 0.000000
0.646448 1.000000 0.000000
0.691676 1.000000 0.000000
0.736690 1.000000 0.000000
0.780880 1.000000 0.000000
0.823758 0.996124 0.000000
0.864652 0.985260 0.000000
0.904509 0.974578 0.000000
0.944823 0.969329 0.000000
0.997406 0.964752 0.000000
1.000000 0.963226 0.000000
1.000000 0.950256 0.415625
1.000000 0.939422 0.605127
1.000000 0.938476 0.729091
1.000000 0.944060 0.814603
1.000000 0.953124 0.874754
1.000000 0.959075 0.910033
0.354253 1.000000 0.477546
0.357366 1.000000 0.478889
0.359869 1.000000 0.478187
0.362097 1.000000 0.474861
0.365057 1.000000 0.469245
0.369543 1.000000 0.461128
0.376165 1.000000 0.450599
0.385718 1.000000 0.437446
0.398871 1.000000 0.421668
0.415900 1.000000 0.403082
0.436347 1.000000 0.381048
0.460700 1.000000 0.354986
0.488441 1.000000 0.324102
0.519310 1.000000 0.286107
0.552728 1.000000 0.237369
0.588891 1.000000 0.166690
0.627466 1.000000 0.000000
0.667933 1.000000 0.000000
0.709560 1.000000 0.000000
0.751949 1.000000 0.000000
0.794400 1.000000 0.000000
0.836271 1.000000 0.000000
0.877104 0.997436 0.000000
0.917357 0.989044 0.000000
0.957519 0.984802 0.000000
1.000000 0.980865 0.000000
1.000000 0.978027 0.128634
1.000000 0.967956 0.464790
1.000000 0.957061 0.647303
1.000000 0.955627 0.763821
1.000000 0.960113 0.842618
1.000000 0.960632 0.881132
0.440040 1.000000 0.536370
0.442695 1.000000 0.537896
0.448157 1.000000 0.540246
0.453651 1.000000 0.541161
0.455299 1.000000 0.537072
0.457588 1.000000 0.531304
0.461128 1.000000 0.523613
0.465797 1.000000 0.513390
0.472175 1.000000 0.501091
0.480812 1.000000 0.486397
0.491798 1.000000 0.468879
0.505791 1.000000 0.448463
0.522454 1.000000 0.424201
0.542382 1.000000 0.395697
0.565606 1.000000 0.362127
0.592218 1.000000 0.322423
0.622126 1.000000 0.273167
0.654780 1.000000 0.208133
0.690181 1.000000 0.075837
0.727596 1.000000 0.000000
0.766720 1.000000 0.000000
0.806760 1.000000 0.000000
0.847135 1.000000 0.000000
0.887358 1.000000 0.000000
0.927794 1.000000 0.000000
0.967834 0.997772 0.000000
1.000000 0.993896 0.000000
1.000000 0.990143 0.233463
1.000000 0.982849 0.524651
1.000000 0.972229 0.694545
1.000000 0.968841 0.794339
1.000000 0.964385 0.840940
0.514733 1.000000 0.592737
0.516503 1.000000 0.593805
0.519677 1.000000 0.595209
0.525780 1.000000 0.597742
0.532036 1.000000 0.599084
0.532891 1.000000 0.594354
0.533989 1.000000 0.587945
0.536187 1.000000 0.580072
0.539361 1.000000 0.570489
0.543786 1.000000 0.558984
0.549493 1.000000 0.545006
0.556329 1.000000 0.527977
0.564935 1.000000 0.507744
0.575341 1.000000 0.483101
0.588861 1.000000 0.454719
0.605524 1.000000 0.421424
0.626246 1.000000 0.383886
0.650507 1.000000 0.339483
0.678401 1.000000 0.286076
0.709590 1.000000 0.216190
0.743313 1.000000 0.068666
0.779355 1.000000 0.000000
0.817075 1.000000 0.000000
0.855924 1.000000 0.000000
0.895201 1.000000 0.000000
0.935088 1.000000 0.000000
0.974365 1.000000 0.000000
1.000000 1.000000 0.000000
1.000000 0.998535 0.300420
1.000000 0.993774 0.575067
1.000000 0.980102 0.709651
1.000000 0.971435 0.782162
0.569055 1.000000 0.636255
0.570275 1.000000 0.637049
0.572869 1.000000 0.638300
0.577874 1.000000 0.640589
0.585534 1.000000 0.644190
0.591821 1.000000 0.645563
0.593530 1.000000 0.641535
0.595819 1.000000 0.636408
0.598596 1.000000 0.629969
0.602350 1.000000 0.622309
0.606744 1.000000 0.612879
0.611536 1.000000 0.601129
0.617212 1.000000 0.586938
0.623865 1.000000 0.569726
0.631464 1.000000 0.548608
0.640589 1.000000 0.523064
0.651942 1.000000 0.492927
0.666407 1.000000 0.457618
0.684810 1.000000 0.418219
0.707118 1.000000 0.373388
0.732937 1.000000 0.320287
0.761959 1.000000 0.252476
0.793881 1.000000 0.144533
0.828305 1.000000 0.000000
0.864714 1.000000 0.000000
0.902556 1.000000 0.000000
0.941466 1.000000 0.000000
0.979400 1.000000 0.000000
1.000000 1.000000 0.000000
1.000000 1.000000 0.364752
1.000000 0.998138 0.579278
1.000000 0.984009 0.697200
0.627741 1.000000 0.684291
0.628229 1.000000 0.684535
0.630030 1.000000 0.685359
0.633356 1.000000 0.686915
0.639002 1.000000 0.689540
0.646754 1.000000 0.693324
0.651087 1.000000 0.693172
0.650843 1.000000 0.687831
0.651209 1.000000 0.681666
0.651728 1.000000 0.674128
0.653040 1.000000 0.665400
0.654536 1.000000 0.654810
0.656764 1.000000 0.642298
0.659632 1.000000 0.627527
