20 Preset/Travel Style 2/【3】LUT video cho PR-AE-FCPX/Travel 2 LUT (11).cube
# Created by Adobe Lightroom plugin Export LUT (1.24.0)
# www.johnrellis.com/lightroom/exportlut.htm
# Preset: 11素材江湖 - PINETREE
# Color profile: E:\lut插件\exportlut.1.24\exportlut.lrplugin\color profiles\Rec709gamma2.4.icc
LUT_3D_SIZE 32
DOMAIN_MIN 0.0 0.0 0.0
DOMAIN_MAX 1.0 1.0 1.0
0.115206 0.115206 0.115206
0.115206 0.115206 0.115206
0.116609 0.115358 0.115175
0.118929 0.115389 0.115419
0.123781 0.115694 0.115572
0.133486 0.116518 0.115541
0.150332 0.117556 0.115572
0.172671 0.118532 0.115633
0.197635 0.120211 0.115053
0.225742 0.122225 0.114687
0.259037 0.124849 0.113680
0.299840 0.128542 0.112123
0.351476 0.133791 0.109224
0.417243 0.141451 0.104067
0.496407 0.152316 0.095155
0.587854 0.165957 0.072786
0.683223 0.182101 0.021942
0.774777 0.199069 0.000000
0.860960 0.215824 0.000000
0.933532 0.231998 0.000000
0.993652 0.247196 0.000000
1.000000 0.262577 0.000000
1.000000 0.276677 0.000000
1.000000 0.291173 0.000000
1.000000 0.306645 0.068666
1.000000 0.323735 0.130617
1.000000 0.342840 0.175204
1.000000 0.364416 0.218814
1.000000 0.389319 0.262821
1.000000 0.418311 0.309087
1.000000 0.450935 0.356970
1.000000 0.487495 0.407691
0.115572 0.115480 0.115175
0.115572 0.115480 0.115175
0.116548 0.115358 0.115480
0.118746 0.115694 0.115389
0.123598 0.115999 0.115541
0.132845 0.116884 0.115816
0.149783 0.117922 0.115846
0.171969 0.118959 0.115602
0.196475 0.120729 0.115328
0.224643 0.122774 0.114656
0.257755 0.125490 0.113954
0.298131 0.129152 0.112459
0.349126 0.134554 0.109621
0.414191 0.142550 0.104921
0.493294 0.152926 0.095979
0.583642 0.166903 0.077211
0.679591 0.182925 0.025452
0.770932 0.199954 0.000000
0.857542 0.217105 0.000000
0.930541 0.233341 0.000000
0.990997 0.247807 0.000000
1.000000 0.262608 0.000000
1.000000 0.276768 0.000000
1.000000 0.291752 0.000000
1.000000 0.306371 0.060365
1.000000 0.323186 0.127413
1.000000 0.341741 0.172183
1.000000 0.363409 0.215549
1.000000 0.388006 0.259770
1.000000 0.416449 0.305211
1.000000 0.448707 0.353552
1.000000 0.485115 0.404028
0.116091 0.115999 0.115694
0.116091 0.115999 0.115694
0.116426 0.116274 0.115663
0.117983 0.116670 0.116182
0.122683 0.117311 0.116304
0.131868 0.118441 0.116518
0.148440 0.119814 0.116518
0.170443 0.121218 0.116243
0.194980 0.122988 0.115969
0.223056 0.125338 0.115572
0.256016 0.128603 0.114473
0.296330 0.132753 0.113252
0.346990 0.138247 0.110750
0.411444 0.146883 0.106050
0.489876 0.158541 0.098238
0.580438 0.173037 0.081941
0.676051 0.189609 0.034302
0.768185 0.206516 0.000000
0.854765 0.223728 0.000000
0.928222 0.239475 0.000000
0.989288 0.253941 0.000000
1.000000 0.268498 0.000000
1.000000 0.282170 0.000000
1.000000 0.296117 0.000000
1.000000 0.311528 0.078798
1.000000 0.327245 0.131228
1.000000 0.345617 0.175143
1.000000 0.366949 0.218082
1.000000 0.391302 0.261875
1.000000 0.419593 0.307683
1.000000 0.451759 0.355779
1.000000 0.487587 0.406043
0.116640 0.117983 0.116335
0.117159 0.117922 0.116304
0.117494 0.118166 0.116274
0.119417 0.118807 0.116457
0.122560 0.119265 0.117525
0.130129 0.120882 0.118288
0.145937 0.122896 0.118196
0.167758 0.125185 0.117830
0.192477 0.127718 0.117464
0.220554 0.130800 0.116945
0.253819 0.134157 0.116426
0.293736 0.139254 0.115328
0.343999 0.146273 0.113313
0.408179 0.155886 0.109499
0.486458 0.168307 0.102449
0.576074 0.183963 0.090486
0.671595 0.201114 0.050752
0.763088 0.218906 0.000000
0.850126 0.235813 0.000000
0.923980 0.251591 0.000000
0.985565 0.265904 0.000000
1.000000 0.279393 0.000000
1.000000 0.292149 0.000000
1.000000 0.305852 0.000000
1.000000 0.320043 0.096071
1.000000 0.336217 0.142245
1.000000 0.354589 0.184909
1.000000 0.375738 0.227390
1.000000 0.400000 0.270848
1.000000 0.428473 0.316564
1.000000 0.459815 0.363867
1.000000 0.495186 0.413458
0.119112 0.121096 0.117617
0.119112 0.121096 0.117617
0.119936 0.121279 0.117586
0.121401 0.121950 0.117464
0.125734 0.123629 0.117403
0.132082 0.125002 0.119387
0.142061 0.127077 0.121431
0.163516 0.130922 0.121126
0.188327 0.134401 0.120607
0.216312 0.138369 0.120546
0.249302 0.142855 0.120150
0.289525 0.148959 0.119753
0.339513 0.157473 0.118654
0.403296 0.168673 0.116182
0.480690 0.183108 0.110750
0.570794 0.200198 0.100069
0.667048 0.218448 0.078187
0.759426 0.236393 0.022614
0.846525 0.253880 0.000000
0.920928 0.269383 0.000000
0.982788 0.283696 0.000000
1.000000 0.296513 0.000000
1.000000 0.308782 0.000000
1.000000 0.321843 0.060182
1.000000 0.335729 0.119783
1.000000 0.351415 0.160830
1.000000 0.369268 0.201083
1.000000 0.390295 0.242252
1.000000 0.414435 0.285588
1.000000 0.442115 0.330632
1.000000 0.473243 0.377264
1.000000 0.508110 0.426276
0.122133 0.126650 0.118776
0.122560 0.126589 0.119051
0.123354 0.126772 0.119020
0.125460 0.127596 0.119142
0.129061 0.129519 0.118776
0.138430 0.133883 0.118746
0.150240 0.136202 0.121523
0.161959 0.138705 0.125978
0.182498 0.143252 0.128084
0.211063 0.148684 0.128267
0.244053 0.154940 0.128359
0.284489 0.162631 0.128664
0.334844 0.172610 0.128511
0.399359 0.185428 0.126467
0.477028 0.201785 0.122225
0.567498 0.220584 0.112764
0.664210 0.240391 0.097810
0.756832 0.259678 0.066316
0.844388 0.277806 0.013489
0.918975 0.293309 0.000000
0.980957 0.307500 0.000000
1.000000 0.320012 0.000000
1.000000 0.338994 0.095735
1.000000 0.352056 0.132876
1.000000 0.366461 0.169741
1.000000 0.382818 0.207218
1.000000 0.402045 0.246677
1.000000 0.423468 0.286717
1.000000 0.448890 0.329625
1.000000 0.477150 0.374029
1.000000 0.508751 0.420142
1.000000 0.542351 0.466316
0.127504 0.136934 0.120790
0.127901 0.136904 0.121096
0.129641 0.136721 0.121370
0.132479 0.138064 0.121370
0.136965 0.140322 0.121157
0.143923 0.143587 0.121004
0.159060 0.150942 0.120974
0.174319 0.153506 0.126589
0.187991 0.156527 0.134524
0.205692 0.162387 0.142336
0.240299 0.170443 0.142855
0.282414 0.180270 0.143191
0.335149 0.192355 0.142916
0.401526 0.207584 0.141207
0.481788 0.226078 0.136995
0.573358 0.247288 0.128878
0.669612 0.269139 0.116732
0.761990 0.289464 0.101625
0.848569 0.307988 0.083894
0.924132 0.324468 0.065827
0.986419 0.339055 0.080140
1.000000 0.351720 0.103487
1.000000 0.363897 0.132082
1.000000 0.377386 0.163821
1.000000 0.391760 0.198734
1.000000 0.408270 0.235172
1.000000 0.427131 0.273472
1.000000 0.448524 0.312932
1.000000 0.473091 0.354437
1.000000 0.500725 0.397803
1.000000 0.531121 0.442451
1.000000 0.563073 0.486885
0.135439 0.150149 0.124208
0.135805 0.150088 0.124483
0.138186 0.149844 0.125002
0.140993 0.150607 0.125368
0.145571 0.152956 0.125368
0.152682 0.156161 0.125673
0.162631 0.160616 0.125643
0.182071 0.170687 0.126772
0.200320 0.174746 0.135927
0.217197 0.178836 0.145754
0.237308 0.185885 0.156802
0.274357 0.196872 0.161166
0.327581 0.211032 0.161105
0.394568 0.228641 0.159976
0.474861 0.249332 0.156649
0.566552 0.272862 0.150362
0.663111 0.296727 0.141238
0.755367 0.319066 0.131350
0.843809 0.339361 0.123079
0.918761 0.356481 0.122133
0.980102 0.370550 0.130800
1.000000 0.383398 0.148867
1.000000 0.395514 0.173098
1.000000 0.408881 0.202823
1.000000 0.423468 0.235935
1.000000 0.439857 0.270970
1.000000 0.458534 0.307713
1.000000 0.479591 0.346319
1.000000 0.503960 0.387366
1.000000 0.530755 0.429664
1.000000 0.559655 0.472358
1.000000 0.589502 0.514031
0.145754 0.165560 0.130831
0.146517 0.165469 0.130831
0.148745 0.165072 0.131624
0.152041 0.165438 0.132479
0.156558 0.167849 0.132662
0.162966 0.171176 0.133089
0.172549 0.175540 0.133700
0.185519 0.181521 0.134310
0.210056 0.195346 0.136294
0.233249 0.201846 0.147341
0.255528 0.207767 0.158907
0.282231 0.217258 0.172061
0.319554 0.230808 0.184085
0.387396 0.251102 0.183352
0.468788 0.274815 0.181308
0.561120 0.301030 0.176608
0.657771 0.327398 0.170718
0.751095 0.351812 0.165438
0.839322 0.374151 0.162478
0.913024 0.391882 0.166354
0.973449 0.406561 0.177798
1.000000 0.419440 0.195712
1.000000 0.431891 0.219486
1.000000 0.445655 0.248051
1.000000 0.460609 0.280125
1.000000 0.477394 0.314336
1.000000 0.495735 0.350317
1.000000 0.517021 0.388525
1.000000 0.540703 0.428168
1.000000 0.566339 0.468238
1.000000 0.592859 0.507530
1.000000 0.620508 0.546349
0.158785 0.183413 0.139406
0.159426 0.183352 0.139620
0.161318 0.183139 0.140078
0.165591 0.182712 0.141421
0.169741 0.184939 0.142031
0.175937 0.188418 0.142306
0.184817 0.193362 0.143038
0.197360 0.199649 0.144015
0.213565 0.207767 0.144808
0.246098 0.227237 0.147433
0.276677 0.237308 0.160067
0.306706 0.246555 0.173434
0.343328 0.259678 0.188846
0.386938 0.276158 0.206790
0.460975 0.301579 0.212284
0.554650 0.331243 0.209812
0.652979 0.361456 0.207462
0.746944 0.388495 0.206119
0.834165 0.412329 0.208316
0.906432 0.431373 0.215702
0.965881 0.446479 0.229526
1.000000 0.459968 0.248264
1.000000 0.472847 0.271153
1.000000 0.486702 0.298619
1.000000 0.501427 0.329107
1.000000 0.517998 0.361913
1.000000 0.536675 0.397345
1.000000 0.557519 0.434180
1.000000 0.580102 0.471687
1.000000 0.603845 0.508812
1.000000 0.628565 0.545617
1.000000 0.654200 0.582177
0.173770 0.204105 0.149111
0.174319 0.204044 0.149325
0.176303 0.203861 0.149722
0.180240 0.203586 0.151156
0.185122 0.205112 0.152132
0.191623 0.209079 0.152773
0.200870 0.214511 0.153384
0.212985 0.221439 0.154513
0.229343 0.230564 0.155673
0.251164 0.242069 0.156649
0.295720 0.270909 0.158724
0.336858 0.286290 0.173251
0.377844 0.300023 0.189456
0.424994 0.317144 0.208316
0.479744 0.338231 0.231540
0.548760 0.365270 0.253086
0.646540 0.398230 0.253849
0.739895 0.427893 0.256535
0.825528 0.453620 0.262242
0.896635 0.473823 0.272526
0.955047 0.490089 0.287541
1.000000 0.504326 0.306767
1.000000 0.518151 0.329992
1.000000 0.532555 0.357031
1.000000 0.547997 0.387060
1.000000 0.564965 0.419348
1.000000 0.583185 0.452552
1.000000 0.602655 0.486397
1.000000 0.623255 0.520500
1.000000 0.645197 0.554894
1.000000 0.667872 0.588830
1.000000 0.691218 0.622400
0.191745 0.229587 0.159731
0.192203 0.229526 0.159915
0.194369 0.229313 0.160678
0.198337 0.229068 0.161776
0.204105 0.229740 0.163333
0.210880 0.234257 0.164004
0.220279 0.240391 0.165072
0.233219 0.248539 0.166049
0.250523 0.259098 0.167056
0.272953 0.272313 0.168154
0.302678 0.289311 0.168795
0.365240 0.331670 0.168917
0.433173 0.364508 0.189059
0.489265 0.384771 0.212039
0.548852 0.406928 0.239841
0.609674 0.430793 0.274418
0.668788 0.456306 0.315618
0.752224 0.487007 0.331914
0.833829 0.513695 0.341619
0.900298 0.534600 0.355383
0.954772 0.551354 0.372381
0.999359 0.566125 0.392340
1.000000 0.580621 0.415778
1.000000 0.595056 0.441627
1.000000 0.610101 0.469123
1.000000 0.625513 0.497139
1.000000 0.641871 0.525841
1.000000 0.658625 0.554498
1.000000 0.676600 0.583825
1.000000 0.695491 0.613519
1.000000 0.714778 0.642542
1.000000 0.733791 0.670222
0.215335 0.263920 0.172183
0.215732 0.263859 0.172366
0.217960 0.263767 0.172854
0.222293 0.263249 0.174197
0.228794 0.262638 0.176181
0.236179 0.267613 0.176944
0.246433 0.274754 0.177676
0.260441 0.284276 0.178744
0.279057 0.296635 0.179843
0.304509 0.313268 0.180789
0.337438 0.334051 0.181643
0.379919 0.359960 0.181491
0.467140 0.421057 0.179629
0.533989 0.448035 0.206119
0.594873 0.469154 0.239475
0.652094 0.488777 0.278904
0.707393 0.509972 0.323583
0.759396 0.533715 0.372503
0.813657 0.559503 0.414191
0.879454 0.581689 0.427527
0.933440 0.599390 0.443275
0.978149 0.614984 0.461860
1.000000 0.629572 0.482704
1.000000 0.643885 0.505821
1.000000 0.658045 0.529870
1.000000 0.672419 0.554894
1.000000 0.687617 0.580987
1.000000 0.703365 0.607416
1.000000 0.719570 0.633783
1.000000 0.735805 0.659480
1.000000 0.751675 0.683680
1.000000 0.767453 0.707118
0.241855 0.304234 0.184054
0.242008 0.304234 0.184207
0.244816 0.303838 0.184878
0.249393 0.303349 0.186252
0.256535 0.302983 0.188449
0.265354 0.306767 0.189731
0.276432 0.314977 0.190768
0.291936 0.326146 0.191714
0.312444 0.340429 0.192813
0.339086 0.358679 0.193973
0.373144 0.381231 0.194736
0.416052 0.408911 0.195132
0.469368 0.441749 0.194491
0.571374 0.513268 0.195560
0.636194 0.535668 0.237095
0.693172 0.552850 0.283055
0.745052 0.569116 0.332128
0.790677 0.586389 0.384771
0.829252 0.605890 0.440406
0.861692 0.627802 0.494606
0.909911 0.647120 0.516014
0.955291 0.663233 0.531945
0.993011 0.677882 0.550225
1.000000 0.692042 0.570611
1.000000 0.705745 0.592187
1.000000 0.719509 0.614832
1.000000 0.733272 0.637720
1.000000 0.746670 0.659724
1.000000 0.760037 0.681483
1.000000 0.773281 0.702602
1.000000 0.786221 0.722744
1.000000 0.799130 0.742367
0.274907 0.354772 0.196963
0.275547 0.354650 0.197269
0.277958 0.354253 0.197879
0.282811 0.353674 0.199313
0.290593 0.352789 0.201694
0.300298 0.354192 0.204257
0.312688 0.363348 0.205020
0.329259 0.375463 0.206058
0.350805 0.391089 0.207248
0.378332 0.410376 0.208469
0.413184 0.434211 0.210117
0.456153 0.462776 0.211673
0.507805 0.495552 0.213596
0.566339 0.530602 0.216739
0.669520 0.601648 0.232242
0.729397 0.618891 0.286870
0.778470 0.630762 0.343786
0.818173 0.641230 0.400214
0.851774 0.654139 0.456794
0.879973 0.669856 0.510674
0.903380 0.688624 0.562158
0.930724 0.708736 0.601282
0.968841 0.723842 0.617182
1.000000 0.737728 0.634699
1.000000 0.750484 0.652644
1.000000 0.762631 0.671015
1.000000 0.774350 0.689418
1.000000 0.785672 0.707546
1.000000 0.796750 0.725460
1.000000 0.807706 0.743008
1.000000 0.818570 0.760037
1.000000 0.829252 0.776608
0.312810 0.412055 0.211368
0.313634 0.412085 0.211460
0.316320 0.411627 0.212436
0.322026 0.411444 0.214084
0.330327 0.410742 0.216678
0.341680 0.410132 0.220432
0.355047 0.419837 0.221836
0.372808 0.433051 0.223545
0.395575 0.449866 0.225284
0.424018 0.470161 0.227726
0.458320 0.493843 0.230777
0.499428 0.520684 0.234684
0.546471 0.550225 0.240116
0.599084 0.581506 0.247715
0.657923 0.615045 0.257176
0.754940 0.680446 0.290379
0.802457 0.688563 0.354986
0.840543 0.695216 0.417060
0.870268 0.701961 0.474250
0.895415 0.711818 0.527489
0.916442 0.725795 0.579065
0.933684 0.743587 0.628870
0.948119 0.763607 0.674525
0.977050 0.777829 0.692531
1.000000 0.789700 0.706813
1.000000 0.800565 0.721462
1.000000 0.810758 0.736263
1.000000 0.820279 0.750912
1.000000 0.829374 0.765255
1.000000 0.838254 0.779446
1.000000 0.846952 0.793332
1.000000 0.855558 0.806973
0.355871 0.474983 0.228611
0.356359 0.474861 0.228855
0.359564 0.474617 0.229862
0.365270 0.474311 0.231601
0.373968 0.473915 0.234806
0.386389 0.473365 0.239139
0.400610 0.479835 0.242466
0.418647 0.493385 0.245029
0.441352 0.509606 0.248112
0.468482 0.528496 0.252323
0.501244 0.550530 0.257908
0.539025 0.574853 0.264958
0.582422 0.602014 0.274022
0.630915 0.631006 0.285008
0.683894 0.661280 0.298741
0.739712 0.691402 0.317205
0.819883 0.743435 0.368078
0.856840 0.746151 0.434668
0.886473 0.749874 0.494606
0.908934 0.754513 0.547448
0.927886 0.763638 0.598474
0.943420 0.776577 0.646784
0.956634 0.791714 0.689693
0.967864 0.808011 0.727779
0.983398 0.822599 0.753872
1.000000 0.832639 0.765499
1.000000 0.841672 0.777340
1.000000 0.849973 0.789181
1.000000 0.857725 0.800839
1.000000 0.865171 0.812467
1.000000 0.872221 0.823728
1.000000 0.879149 0.834836
0.402747 0.540856 0.253208
0.403876 0.541039 0.253574
0.415961 0.553277 0.260716
0.422156 0.552850 0.262852
0.431678 0.552453 0.266423
0.444068 0.551904 0.271397
0.459571 0.554376 0.277165
0.477150 0.566583 0.281102
0.498726 0.581384 0.286442
0.524712 0.598749 0.293309
0.555322 0.618677 0.302007
0.590753 0.640925 0.312566
0.630060 0.664851 0.324987
0.672602 0.689235 0.340490
0.717159 0.713191 0.359075
0.763088 0.736629 0.380896
0.812345 0.761776 0.407904
0.874266 0.800107 0.465278
0.901640 0.799130 0.524041
0.923369 0.800778 0.578637
0.939696 0.804807 0.627161
0.953643 0.812589 0.671229
0.965423 0.822751 0.710231
0.975311 0.834592 0.745266
0.983429 0.847257 0.776333
0.990204 0.860227 0.803799
1.000000 0.868559 0.814389
1.000000 0.875608 0.823331
1.000000 0.882139 0.832486
1.000000 0.888243 0.841642
1.000000 0.894072 0.850706
1.000000 0.899657 0.859678
0.454353 0.608087 0.289342
0.456275 0.609186 0.290410
0.459937 0.610285 0.292271
0.466499 0.611109 0.295384
0.476600 0.611475 0.299687
0.489113 0.611261 0.305241
0.505119 0.610773 0.312169
0.521538 0.621271 0.317510
0.541619 0.634668 0.323949
0.566003 0.650446 0.332433
0.593896 0.668269 0.343084
0.625605 0.687434 0.355810
0.660029 0.707271 0.371038
0.696590 0.727352 0.389075
0.735378 0.747677 0.409827
0.775387 0.767819 0.432563
0.815640 0.787228 0.457099
0.859739 0.809659 0.487495
0.909392 0.839750 0.545068
0.930297 0.837919 0.599084
0.946960 0.839261 0.647700
0.960204 0.842954 0.689052
0.971283 0.849241 0.725704
0.980407 0.857542 0.758694
0.987976 0.866972 0.787686
0.994079 0.877104 0.813657
0.998993 0.887541 0.836728
1.000000 0.896239 0.851987
1.000000 0.902037 0.859190
1.000000 0.907317 0.866545
1.000000 0.912291 0.873960
1.000000 0.916930 0.881254
0.503410 0.668086 0.331548
0.505669 0.669184 0.332738
0.509239 0.670222 0.334905
0.515709 0.671199 0.338231
0.525170 0.671656 0.342779
0.537316 0.671595 0.348547
0.552697 0.671015 0.355596
0.569024 0.676936 0.362951
0.587274 0.688289 0.370916
0.608606 0.701259 0.381140
0.633356 0.715755 0.393500
0.660700 0.731258 0.408209
0.690547 0.747555 0.424933
0.722469 0.764431 0.443488
0.755825 0.781369 0.464302
0.790280 0.798276 0.486519
0.825315 0.814908 0.510430
0.860258 0.831113 0.536126
0.898436 0.850736 0.569482
0.936553 0.873930 0.623590
0.952453 0.871427 0.668299
0.965484 0.871824 0.707393
0.976013 0.874784 0.741665
0.984619 0.879820 0.772335
0.991608 0.886351 0.799588
0.997223 0.893858 0.823972
1.000000 0.901854 0.845487
1.000000 0.910155 0.864805
1.000000 0.918517 0.882109
1.000000 0.923461 0.888487
1.000000 0.927733 0.894408
1.000000 0.931701 0.900298
0.554376 0.723537 0.384436
0.555810 0.724361 0.385748
0.559319 0.725124 0.388098
0.565362 0.725734 0.391424
0.573938 0.726040 0.395880
0.585412 0.725826 0.401678
0.599573 0.725338 0.408728
0.615106 0.727077 0.417212
0.631495 0.736416 0.426276
0.650050 0.746761 0.436957
0.671412 0.758541 0.449836
0.695125 0.771176 0.464546
0.720974 0.784695 0.480995
0.748409 0.798489 0.499336
0.777035 0.812650 0.519402
0.806821 0.826963 0.541283
0.837003 0.841123 0.564782
0.867063 0.855070 0.590326
0.896635 0.868650 0.616815
0.928862 0.885710 0.649378
0.958556 0.903563 0.694484
0.970825 0.900938 0.730587
0.980591 0.900786 0.761837
0.988739 0.903136 0.790372
0.995178 0.907164 0.815732
1.000000 0.912261 0.838163
1.000000 0.918029 0.858030
1.000000 0.924285 0.875731
1.000000 0.930755 0.891569
1.000000 0.937224 0.905638
1.000000 0.942321 0.914641
1.000000 0.945617 0.919158
0.610193 0.776364 0.452705
0.611200 0.776669 0.453468
0.613458 0.776730 0.454902
0.618311 0.776699 0.457191
0.625605 0.776455 0.460792
0.635401 0.775906 0.465736
0.647486 0.775296 0.471901
0.662470 0.774533 0.479683
0.676387 0.781338 0.488563
0.692592 0.789822 0.499458
0.711025 0.799283 0.512016
0.731319 0.809537 0.526329
0.753323 0.820401 0.542229
0.776699 0.831693 0.559991
0.801144 0.843229 0.579187
0.826261 0.854856 0.599878
0.851682 0.866453 0.621607
0.877043 0.877958 0.643793
0.901884 0.889128 0.665949
0.926116 0.899962 0.688167
0.952483 0.914000 0.715846
0.974884 0.927031 0.752132
0.983917 0.923980 0.780087
0.991028 0.922911 0.804532
0.997101 0.924407 0.827726
1.000000 0.927306 0.848478
1.000000 0.931182 0.867002
1.000000 0.935698 0.883543
1.000000 0.940581 0.898283
1.000000 0.945678 0.911376
1.000000 0.950744 0.923033
1.000000 0.955688 0.933349
0.658595 0.817197 0.515862
0.659327 0.817411 0.516411
0.661463 0.817594 0.517693
0.665675 0.817441 0.519982
0.671962 0.817227 0.523064
0.680262 0.816770 0.527428
0.691127 0.816190 0.533043
0.704128 0.815518 0.540154
0.717098 0.818906 0.548852
0.731197 0.825742 0.559228
0.746792 0.833280 0.571099
0.764065 0.841550 0.584833
0.782986 0.850370 0.600122
0.802792 0.859556 0.616754
0.823545 0.869017 0.634119
0.844694 0.878660 0.652155
0.866087 0.888304 0.670832
0.887510 0.897887 0.689754
0.908629 0.907286 0.708797
0.929168 0.916350 0.727932
0.948943 0.925048 0.746944
0.970459 0.936614 0.771145
0.986969 0.945861 0.800320
0.993561 0.942779 0.822263
0.998413 0.940398 0.839414
1.000000 0.941161 0.858183
1.000000 0.943328 0.875364
1.000000 0.946258 0.890806
1.000000 0.949767 0.904540
1.000000 0.953552 0.916777
1.000000 0.957549 0.927764
1.000000 0.961547 0.937469
0.708461 0.854398 0.583795
0.709285 0.854673 0.584649
0.711055 0.854765 0.585962
0.714290 0.854520 0.587549
0.719295 0.854002 0.589899
0.726070 0.853391 0.593256
0.734646 0.852567 0.597742
0.745266 0.851621 0.603479
0.756924 0.852140 0.610834
0.768338 0.857267 0.619623
0.781064 0.862974 0.629725
0.795407 0.869505 0.641321
0.810758 0.876371 0.653864
0.827054 0.883635 0.667262
0.844022 0.891142 0.681270
0.861540 0.898802 0.696162
0.879454 0.906645 0.711604
0.897429 0.914488 0.727565
0.915343 0.922240 0.743862
0.932860 0.929900 0.760616
0.949767 0.937224 0.777249
0.965789 0.944152 0.793698
0.983062 0.953399 0.814389
0.995148 0.959808 0.837613
0.999939 0.956603 0.854612
1.000000 0.954772 0.869627
1.000000 0.954894 0.884398
1.000000 0.956329 0.898466
1.000000 0.958495 0.911070
1.000000 0.961089 0.922393
1.000000 0.964050 0.932586
1.000000 0.967193 0.941680
0.750820 0.883024 0.642908
0.751614 0.883238 0.643580
0.753231 0.883360 0.644770
0.755978 0.883238 0.646235
0.760220 0.882963 0.648524
0.765927 0.882567 0.651575
0.773434 0.882078 0.655634
0.782620 0.881529 0.660945
0.793118 0.880980 0.667170
0.802792 0.884916 0.674800
0.813504 0.889647 0.683619
0.825284 0.894835 0.693385
0.837980 0.900389 0.703853
0.851438 0.906218 0.715206
0.865476 0.912261 0.726986
0.879942 0.918364 0.739345
0.894682 0.924651 0.752285
0.909606 0.930877 0.765591
0.924529 0.937163 0.779507
0.939117 0.943328 0.793576
0.953277 0.949248 0.807767
0.966674 0.954894 0.821805
0.979248 0.960174 0.835630
0.992554 0.967224 0.852811
1.000000 0.971374 0.871122
1.000000 0.968383 0.884215
1.000000 0.966491 0.895750
1.000000 0.966217 0.907408
1.000000 0.967224 0.918853
1.000000 0.968750 0.929168
1.000000 0.970733 0.938445
1.000000 0.972839 0.946532
0.791012 0.909026 0.698177
0.791531 0.909087 0.698573
0.792660 0.909056 0.699245
0.794827 0.908965 0.700496
0.798245 0.908721 0.702235
0.802914 0.908324 0.704585
0.808896 0.907927 0.707912
0.816281 0.907439 0.712032
0.824979 0.906889 0.717067
0.833494 0.908690 0.723201
0.842283 0.912383 0.730465
0.851865 0.916442 0.738491
0.862242 0.920836 0.747311
0.873350 0.925444 0.756741
0.884825 0.930205 0.766567
0.896757 0.935058 0.776913
0.908934 0.940002 0.787778
0.921233 0.945006 0.798978
0.933532 0.949950 0.810575
0.945739 0.954894 0.822507
0.957427 0.959594 0.834562
0.968658 0.964111 0.846525
0.979156 0.968322 0.858183
0.988830 0.972229 0.869535
0.998840 0.977417 0.883696
1.000000 0.979858 0.897765
1.000000 0.977111 0.907744
1.000000 0.975280 0.916625
1.000000 0.974701 0.925689
1.000000 0.975372 0.935149
1.000000 0.976410 0.943389
1.000000 0.977569 0.950408
0.825742 0.930541 0.745571
0.826108 0.930602 0.745937
0.827024 0.930632 0.746578
0.828916 0.930541 0.747616
0.831785 0.930419 0.749264
0.835782 0.930236 0.751553
0.841093 0.930144 0.754818
0.847593 0.929992 0.758907
0.855192 0.929870 0.763790
0.863249 0.930541 0.769619
0.870787 0.933715 0.776394
0.878965 0.937102 0.783597
0.887633 0.940703 0.791409
0.896727 0.944366 0.799649
0.906096 0.948119 0.808072
0.915679 0.951843 0.816739
0.925383 0.955596 0.825681
0.935241 0.959350 0.834867
0.945068 0.963073 0.844358
0.954681 0.966735 0.854093
0.964019 0.970275 0.863890
0.972930 0.973632 0.873686
0.981262 0.976776 0.883238
0.988952 0.979675 0.892638
0.996002 0.982269 0.901671
1.000000 0.985779 0.912596
1.000000 0.986908 0.923033
1.000000 0.984527 0.930205
1.000000 0.982849 0.936584
1.000000 0.981933 0.942748
1.000000 0.982055 0.949523
1.000000 0.982544 0.955657
0.860472 0.950774 0.793423
0.860655 0.950774 0.793545
0.861326 0.950713 0.793942
0.862669 0.950591 0.794614
0.864805 0.950408 0.795743
0.867857 0.950195 0.797360
0.871855 0.949920 0.799619
0.876738 0.949615 0.802426
0.882567 0.949310 0.805997
0.889189 0.948943 0.810025
0.894896 0.950927 0.815000
0.901091 0.953307 0.820401
0.907836 0.955840 0.826413
0.914916 0.958465 0.832761
