20 Preset/Travel Style 2/【3】LUT video cho PR-AE-FCPX/Travel 2 LUT (4).cube
# Created by Adobe Lightroom plugin Export LUT (1.24.0)
# www.johnrellis.com/lightroom/exportlut.htm
# Preset: 04素材江湖 - COUNTRY II
# Color profile: E:\lut插件\exportlut.1.24\exportlut.lrplugin\color profiles\Rec709gamma2.4.icc
LUT_3D_SIZE 5
DOMAIN_MIN 0.000000 0.000000 0.000000
DOMAIN_MAX 0.903226 0.903226 0.903226
0.126223 0.126223 0.126223
0.157687 0.127535 0.127443
0.273686 0.128634 0.128847
0.517967 0.129305 0.128908
0.946136 0.097993 0.096956
0.121523 0.153750 0.127840
0.153323 0.150759 0.131014
0.235416 0.156344 0.126925
0.464759 0.186313 0.125002
0.921019 0.233127 0.030396
0.086671 0.252995 0.139254
0.142947 0.231693 0.143008
0.291508 0.279362 0.167483
0.411872 0.273472 0.131411
0.692653 0.342657 0.000000
0.000000 0.470558 0.078370
0.000000 0.442878 0.106142
0.261601 0.430213 0.134798
0.598291 0.565942 0.187167
0.868559 0.598535 0.158511
0.000000 0.879606 0.000000
0.000000 0.870634 0.000000
0.000000 0.781888 0.000000
0.607599 0.844694 0.219394
0.929442 0.889433 0.519371
0.123751 0.132662 0.153353
0.157565 0.127993 0.157443
0.278233 0.131899 0.174105
0.563012 0.000000 0.183963
0.915587 0.000000 0.178805
0.124636 0.162081 0.163455
0.163699 0.163699 0.163699
0.271336 0.167361 0.167208
0.503258 0.170260 0.170291
0.877531 0.157809 0.157717
0.000000 0.277836 0.172763
0.138918 0.256565 0.168582
0.278294 0.269078 0.192905
0.374212 0.250950 0.151461
0.719081 0.337438 0.059419
0.000000 0.510887 0.114870
0.000000 0.483803 0.130831
0.250553 0.433906 0.162966
0.600946 0.570123 0.240360
0.855680 0.587518 0.190860
0.000000 0.886351 0.000000
0.000000 0.875669 0.000000
0.000000 0.837705 0.000000
0.622461 0.864805 0.306065
0.940215 0.904326 0.591547
0.069001 0.177035 0.294011
0.147982 0.165255 0.297948
0.302251 0.140108 0.302312
0.591638 0.000000 0.389868
0.985626 0.000000 0.457404
0.138888 0.241886 0.313909
0.158633 0.216251 0.313268
0.312169 0.179934 0.312200
0.612757 0.106538 0.390875
0.998352 0.000000 0.454475
0.000000 0.372930 0.380224
0.000000 0.367987 0.374151
0.355810 0.355810 0.355810
0.624994 0.342199 0.342290
0.937499 0.346838 0.346654
0.000000 0.694942 0.457252
0.000000 0.661769 0.421485
0.180697 0.546960 0.298589
0.638087 0.615839 0.428779
0.801785 0.530694 0.239017
0.000000 0.911254 0.362097
0.000000 0.905730 0.317174
0.000000 0.866117 0.280095
0.548852 0.838529 0.357183
0.923400 0.893431 0.648066
0.000000 0.300816 0.662470
0.000000 0.259007 0.667353
0.374395 0.205875 0.667689
0.659480 0.000000 0.659541
0.957031 0.000000 0.709346
0.000000 0.382757 0.673579
0.000000 0.346166 0.673640
0.361181 0.267979 0.666438
0.647456 0.122805 0.647547
0.949462 0.000000 0.700069
0.222019 0.590265 0.685359
0.286503 0.577111 0.682277
0.394629 0.494911 0.681910
0.650752 0.376013 0.650782
0.959991 0.448127 0.709316
0.000000 0.767208 0.781186
0.000000 0.760952 0.773953
0.464576 0.753170 0.761746
0.721767 0.721767 0.721767
0.945769 0.679927 0.679866
0.000000 0.979583 0.807462
0.000000 0.974792 0.800626
0.438453 0.954284 0.771389
0.511955 0.882231 0.601709
0.919585 0.902953 0.781949
0.125673 0.536950 0.923827
0.165225 0.514885 0.924132
0.411322 0.475593 0.925811
0.668513 0.392889 0.923705
0.921141 0.259678 0.921294
0.296727 0.589685 0.918212
0.307500 0.570855 0.919066
0.432288 0.518761 0.920958
0.665858 0.436469 0.918151
0.916228 0.316014 0.916320
0.581384 0.760128 0.914977
0.575341 0.745876 0.914061
0.570397 0.687037 0.915770
0.682185 0.597620 0.912505
0.915068 0.506676 0.915221
0.672724 0.872099 0.927703
0.688655 0.871733 0.925597
0.755184 0.874846 0.922881
0.788479 0.828916 0.928313
0.930846 0.767330 0.930877
0.621668 0.955138 0.965362
0.645319 0.955230 0.964904
0.739864 0.957977 0.965362
0.854887 0.960143 0.964019
0.945647 0.945647 0.945647
