20 Preset/Travel Style 2/【3】LUT video cho PR-AE-FCPX/Travel 2 LUT (18).cube
# Created by Adobe Lightroom plugin Export LUT (1.24.0)
# www.johnrellis.com/lightroom/exportlut.htm
# Preset: 18素材江湖 - GREEN
# Color profile: E:\lut插件\exportlut.1.24\exportlut.lrplugin\color profiles\Rec709gamma2.4.icc
LUT_3D_SIZE 8
DOMAIN_MIN 0.000000 0.000000 0.000000
DOMAIN_MAX 0.903226 0.903226 0.903226
0.128298 0.158724 0.124392
0.138125 0.158602 0.125826
0.181064 0.157443 0.128847
0.255619 0.150027 0.131685
0.378424 0.121614 0.136416
0.528435 0.000000 0.145113
0.696681 0.000000 0.157443
0.876890 0.000000 0.180758
0.123568 0.172091 0.124239
0.139437 0.172549 0.124605
0.189639 0.168124 0.127810
0.274723 0.160830 0.131838
0.404303 0.132998 0.138491
0.559014 0.000000 0.147463
0.725734 0.000000 0.161349
0.895720 0.000000 0.186160
0.103914 0.221225 0.130373
0.116670 0.222477 0.129824
0.184726 0.226200 0.130678
0.287846 0.219394 0.134493
0.420020 0.202762 0.141146
0.568170 0.165438 0.150271
0.718624 0.020966 0.163272
0.886503 0.000000 0.187472
0.000000 0.321813 0.130922
0.000000 0.324346 0.129976
0.135195 0.330205 0.128603
0.285252 0.334508 0.130068
0.431373 0.326635 0.136263
0.575372 0.294804 0.151156
0.733822 0.279362 0.167208
0.896513 0.273747 0.196017
0.000000 0.467872 0.131746
0.000000 0.468605 0.130983
0.000000 0.469001 0.125826
0.251682 0.475807 0.128206
0.447089 0.488960 0.135958
0.621454 0.492134 0.150790
0.769009 0.469490 0.177188
0.909178 0.460273 0.216251
0.000000 0.612787 0.157687
0.000000 0.608148 0.154147
0.000000 0.607752 0.148775
0.178958 0.610407 0.145205
0.439399 0.623255 0.162417
0.628229 0.636835 0.187900
0.789425 0.646601 0.220340
0.910857 0.632349 0.268132
0.000000 0.749905 0.231510
0.000000 0.748836 0.229313
0.000000 0.748745 0.225498
0.210605 0.747219 0.215579
0.461250 0.754086 0.237003
0.646754 0.761959 0.274449
0.797696 0.771054 0.321874
0.915801 0.779507 0.390509
0.218540 0.863554 0.378668
0.236973 0.863584 0.378210
0.298619 0.862974 0.374609
0.385107 0.861418 0.365942
0.523919 0.867918 0.387854
0.676753 0.868620 0.426123
0.800656 0.870390 0.473579
0.902495 0.875792 0.534661
0.127260 0.160037 0.136599
0.143069 0.159945 0.136782
0.188815 0.165225 0.141939
0.277867 0.163210 0.153048
0.410712 0.128176 0.158236
0.569696 0.000000 0.165713
0.738643 0.000000 0.180819
0.907805 0.000000 0.207797
0.126528 0.175723 0.139681
0.143008 0.176425 0.140841
0.194858 0.175937 0.144137
0.288975 0.168063 0.148898
0.422889 0.137881 0.156252
0.581140 0.000000 0.167056
0.752407 0.000000 0.184237
0.919158 0.000000 0.212650
0.112276 0.230198 0.146731
0.125216 0.231113 0.146334
0.192935 0.234440 0.147005
0.302861 0.226352 0.151766
0.442695 0.211429 0.160189
0.596033 0.174350 0.171267
0.757107 0.071992 0.187961
0.914824 0.000000 0.215305
0.000000 0.341619 0.150637
0.000000 0.343114 0.150149
0.139651 0.346136 0.148287
0.306371 0.354803 0.151431
0.464240 0.347021 0.160555
0.613489 0.315435 0.176150
0.771908 0.302495 0.194949
0.922118 0.299168 0.227024
0.000000 0.477699 0.158297
0.000000 0.479316 0.157931
0.000000 0.481025 0.153017
0.265599 0.489967 0.156649
0.467811 0.505943 0.168032
0.642023 0.507622 0.183169
0.786618 0.482826 0.206729
0.921996 0.474372 0.246006
0.000000 0.624231 0.187778
0.000000 0.623896 0.186709
0.000000 0.622736 0.181491
0.199222 0.622736 0.176455
0.453498 0.633875 0.193118
0.639063 0.645014 0.217594
0.798123 0.653712 0.249485
0.917327 0.639155 0.296086
0.000000 0.758877 0.261326
0.000000 0.759762 0.262089
0.000000 0.759701 0.258640
0.246189 0.757137 0.247868
0.471931 0.760830 0.264622
0.655665 0.768307 0.301518
0.805783 0.778317 0.352026
0.921050 0.786496 0.420905
0.261387 0.868406 0.404395
0.272343 0.867643 0.402014
0.325292 0.867216 0.398657
0.403571 0.865629 0.390204
0.516716 0.865019 0.390143
0.675410 0.867826 0.433906
0.801694 0.871336 0.485878
0.902953 0.876829 0.546166
0.123934 0.168246 0.180087
0.139498 0.168582 0.180362
0.196231 0.171176 0.184604
0.289616 0.175509 0.189700
0.417060 0.175509 0.220249
0.566583 0.169436 0.260685
0.732448 0.000000 0.277379
0.898741 0.000000 0.300481
0.128389 0.187625 0.185733
0.141421 0.185245 0.187594
0.201144 0.187076 0.191592
0.299351 0.192203 0.199893
0.428809 0.195041 0.230777
0.581353 0.176516 0.259861
0.747280 0.001434 0.275242
0.909667 0.000000 0.297765
0.116732 0.241398 0.200534
0.136843 0.242252 0.201694
0.204654 0.245335 0.206638
0.313268 0.242710 0.213626
0.448402 0.231418 0.224002
0.600488 0.203677 0.237858
0.760433 0.145357 0.256168
0.916655 0.000000 0.284154
0.000000 0.351080 0.223758
0.095369 0.351965 0.225315
0.174319 0.355505 0.219760
0.317845 0.361913 0.223850
0.467384 0.348882 0.232731
0.615229 0.330877 0.245945
0.770535 0.318456 0.264347
0.919097 0.315190 0.294530
0.000000 0.493050 0.243259
0.000000 0.493324 0.242710
0.000000 0.493416 0.238285
0.278660 0.495705 0.236271
0.474678 0.509361 0.250797
0.643275 0.507988 0.265049
0.787778 0.483803 0.282048
0.921386 0.483711 0.315618
0.000000 0.635920 0.275395
0.000000 0.635065 0.273716
0.000000 0.634058 0.269505
0.227054 0.631495 0.260105
0.466651 0.641962 0.276555
0.649531 0.652583 0.300298
0.802121 0.657191 0.326390
0.916747 0.639979 0.360204
0.000000 0.761746 0.333227
0.000000 0.762387 0.333318
0.061158 0.762966 0.330938
0.291295 0.761410 0.323308
0.475257 0.763149 0.329961
0.657893 0.769863 0.363561
0.804623 0.778195 0.407507
0.916747 0.784298 0.465797
0.311223 0.869139 0.455726
0.324559 0.869474 0.456336
0.366705 0.869200 0.453437
0.429267 0.866728 0.442451
0.516472 0.865599 0.432746
0.674617 0.867399 0.471412
0.800565 0.870695 0.519677
0.901244 0.876432 0.575525
0.087465 0.183291 0.277440
0.118502 0.183505 0.276188
0.201480 0.185977 0.282261
0.316350 0.185519 0.293034
0.456733 0.190219 0.299901
0.616968 0.193271 0.335607
0.765957 0.207431 0.389654
0.903899 0.253025 0.456092
0.094759 0.202213 0.280339
0.119234 0.200870 0.281376
0.203525 0.202792 0.286351
0.317937 0.202487 0.295628
0.459480 0.210910 0.303807
0.618067 0.217838 0.342138
0.767147 0.233158 0.395850
0.903929 0.275700 0.461097
0.080293 0.271366 0.297765
0.118685 0.272343 0.299504
0.206088 0.268101 0.309361
0.335729 0.272709 0.318517
0.475532 0.286503 0.326818
0.612848 0.293797 0.361517
0.751675 0.304875 0.405951
0.903380 0.296513 0.439551
0.000000 0.372076 0.325139
0.082490 0.373754 0.327153
0.213016 0.378149 0.333227
0.343297 0.383429 0.343267
0.488258 0.379644 0.353338
0.636439 0.370581 0.365789
0.786557 0.357427 0.382330
0.924590 0.353674 0.408698
0.000000 0.506737 0.357458
0.068116 0.508537 0.359503
0.222416 0.512108 0.366033
0.322850 0.512139 0.357733
0.490822 0.520348 0.367681
0.647517 0.509697 0.378088
0.790799 0.496651 0.393347
0.920653 0.502739 0.424475
0.075288 0.645899 0.409522
0.129244 0.642756 0.406531
0.194583 0.645045 0.394903
0.312078 0.642329 0.383093
0.472633 0.644800 0.384588
0.657710 0.658473 0.412634
0.803159 0.658381 0.433783
0.914733 0.640345 0.456428
0.138979 0.769741 0.447639
0.168154 0.769131 0.446143
0.252445 0.767727 0.441199
0.354864 0.765042 0.432136
0.468879 0.761898 0.420111
0.657343 0.769986 0.453864
0.804593 0.780117 0.497414
0.912352 0.784604 0.544305
0.381415 0.868132 0.534234
0.389502 0.868132 0.533776
0.420569 0.867948 0.531121
0.473518 0.867124 0.524529
0.544915 0.866300 0.514611
0.672786 0.867063 0.533165
0.799283 0.870512 0.575891
0.898680 0.876005 0.624018
0.000000 0.209201 0.411872
0.000000 0.209628 0.410559
0.181521 0.212772 0.416327
0.329564 0.213535 0.425086
0.483528 0.210025 0.442969
0.639185 0.226902 0.455726
0.815763 0.261479 0.493385
0.930816 0.320012 0.545983
0.000000 0.228092 0.413794
0.000000 0.227878 0.412024
0.185306 0.230350 0.417212
0.332769 0.232456 0.428809
0.486885 0.230991 0.446815
0.642237 0.249760 0.459754
0.815152 0.284703 0.498054
0.929564 0.339544 0.549920
0.000000 0.307805 0.426612
0.052857 0.306737 0.428565
0.190158 0.296910 0.437018
0.345342 0.301976 0.448371
0.504295 0.307500 0.466773
0.662440 0.335119 0.483192
0.815579 0.366796 0.519707
0.926421 0.411780 0.568750
0.000000 0.410620 0.452094
0.000000 0.411658 0.453498
0.208957 0.414984 0.458320
0.350835 0.411719 0.473884
0.516625 0.421332 0.489143
0.675532 0.453315 0.509117
0.802274 0.469215 0.545434
0.911711 0.499184 0.590021
0.000000 0.540490 0.493263
0.045441 0.540764 0.493812
0.240482 0.543023 0.498482
0.384833 0.546807 0.506950
0.531365 0.553033 0.521233
0.675227 0.548913 0.531762
0.810636 0.544823 0.545525
0.924468 0.549432 0.567193
0.248692 0.676814 0.540703
0.270481 0.676905 0.541558
0.345800 0.678492 0.546715
0.446235 0.678218 0.552026
0.535027 0.677089 0.543420
0.684718 0.680507 0.554711
0.812100 0.667842 0.562310
0.916197 0.656245 0.578485
0.364782 0.782467 0.586114
0.379004 0.782986 0.587396
0.426673 0.783505 0.590204
0.493019 0.781521 0.588037
0.542901 0.777676 0.563958
0.668055 0.778622 0.569116
0.812467 0.790127 0.609674
0.912566 0.792050 0.643122
0.529442 0.873564 0.658259
0.538689 0.873442 0.659998
0.546075 0.874266 0.653223
0.556237 0.873014 0.635218
0.603296 0.871672 0.623987
0.673060 0.870176 0.613031
0.802365 0.874266 0.652522
0.900084 0.880766 0.694759
0.000000 0.247196 0.550286
0.000000 0.247532 0.549798
0.137697 0.251377 0.557305
0.332036 0.254002 0.566827
0.507866 0.252903 0.582849
0.670008 0.254704 0.606043
0.803281 0.300420 0.615656
0.946624 0.397894 0.646632
0.000000 0.270512 0.566064
0.000000 0.271366 0.567224
0.153567 0.273991 0.572564
0.344854 0.276463 0.581720
0.519951 0.275456 0.594720
0.679561 0.279271 0.615259
0.810452 0.326024 0.623804
0.948486 0.422644 0.653162
0.000000 0.349187 0.570520
0.000000 0.343969 0.572778
0.156802 0.334997 0.578759
0.352636 0.341070 0.591882
0.527062 0.344701 0.604974
0.684443 0.354162 0.623804
0.813626 0.400031 0.633539
0.943023 0.486336 0.663325
0.000000 0.453071 0.581109
0.000000 0.453925 0.584192
0.209354 0.454200 0.592279
0.348425 0.437995 0.601343
0.523735 0.444617 0.612238
0.681636 0.458747 0.630915
0.813107 0.503655 0.646296
0.925536 0.561425 0.678950
0.000000 0.574792 0.617609
0.086885 0.575250 0.618463
0.250034 0.576135 0.621454
0.390509 0.576776 0.626062
0.538018 0.574060 0.642817
0.697658 0.588434 0.660090
0.828031 0.630213 0.683253
0.912505 0.647730 0.708675
0.262943 0.695369 0.659236
0.282292 0.693965 0.658228
0.359167 0.694789 0.661219
0.467994 0.695857 0.666560
0.588647 0.698268 0.675624
0.709255 0.699947 0.685725
0.816526 0.693751 0.690639
0.910399 0.694789 0.702907
0.458564 0.794461 0.689784
0.465614 0.793759 0.689448
0.500694 0.793576 0.691585
0.561181 0.792996 0.695491
0.637873 0.791653 0.700740
0.700679 0.788113 0.691249
0.817685 0.797665 0.712978
0.908324 0.792905 0.726680
0.586603 0.880095 0.739223
0.592798 0.880369 0.740230
0.613336 0.880339 0.741878
0.646265 0.879118 0.742306
0.697749 0.877043 0.745449
0.721523 0.875944 0.723445
0.803738 0.877104 0.728969
0.901427 0.885130 0.764157
0.000000 0.321996 0.726619
0.000000 0.323186 0.728145
0.180941 0.325292 0.730465
0.387793 0.327733 0.735378
0.562310 0.330907 0.743099
0.721736 0.339818 0.752438
0.850248 0.367102 0.766201
0.929076 0.440040 0.756924
0.000000 0.337011 0.724697
0.000000 0.338384 0.726375
0.182162 0.339940 0.728756
0.385595 0.341955 0.733425
0.558556 0.344518 0.740352
0.716640 0.352422 0.748959
0.844724 0.377478 0.762173
0.924437 0.446387 0.753231
0.000000 0.408118 0.731777
0.000000 0.402380 0.732723
0.191501 0.400214 0.734524
0.391333 0.402441 0.738460
0.560449 0.406348 0.744228
0.716243 0.416632 0.752804
0.844205 0.443153 0.767117
0.923339 0.508995 0.761624
0.000000 0.522576 0.736385
0.130892 0.522057 0.737606
0.275395 0.518242 0.740749
0.394293 0.498848 0.747158
0.562982 0.504448 0.752682
0.716426 0.516747 0.761318
0.841093 0.541711 0.774838
0.918303 0.596612 0.773404
0.136751 0.621607 0.740108
0.176669 0.620600 0.739590
0.284672 0.618433 0.739986
0.424842 0.614801 0.747280
0.559106 0.605768 0.757778
0.709651 0.615625 0.766262
0.832395 0.634913 0.779568
0.912932 0.685145 0.788479
0.319707 0.717159 0.759518
0.336339 0.717189 0.759823
0.395178 0.716457 0.760739
0.484688 0.715023 0.762631
0.590265 0.713191 0.765377
0.713252 0.714565 0.778622
0.830808 0.731716 0.793423
0.912169 0.770596 0.811276
0.478462 0.809751 0.786435
0.488472 0.809903 0.787045
0.523980 0.809323 0.787961
0.586938 0.808591 0.790127
0.665278 0.807736 0.793454
0.749355 0.808347 0.799161
0.832334 0.813230 0.809506
0.906615 0.812589 0.815824
0.655512 0.886351 0.813504
0.659968 0.886442 0.813993
0.677272 0.886870 0.815976
0.704433 0.886656 0.818173
0.741146 0.885985 0.820615
0.784390 0.884916 0.822354
0.820890 0.882109 0.812131
0.903929 0.889616 0.829984
0.165530 0.427131 0.845792
0.211093 0.428168 0.846250
0.326329 0.429328 0.846433
0.465217 0.434119 0.848203
0.605341 0.442023 0.850523
0.737758 0.455940 0.853452
0.856626 0.481025 0.857542
0.944060 0.519097 0.863767
0.166079 0.438270 0.844358
0.212100 0.439246 0.844846
0.326909 0.440894 0.845457
0.464240 0.444800 0.846983
0.603418 0.452308 0.849363
0.735744 0.465492 0.852293
0.854124 0.488777 0.856199
0.941619 0.525109 0.862272
0.186893 0.486213 0.844450
0.225681 0.486671 0.844663
0.333074 0.487678 0.845029
0.468452 0.493019 0.847532
0.603723 0.499001 0.849363
0.733059 0.509941 0.851865
0.849546 0.530999 0.855833
0.936522 0.562799 0.862119
0.322911 0.587091 0.842191
0.343908 0.587488 0.842710
0.379706 0.574762 0.844633
0.472999 0.565759 0.847532
0.605341 0.571923 0.849760
0.731044 0.581811 0.852659
0.843442 0.598871 0.856992
0.929046 0.624933 0.863706
0.326024 0.663539 0.841154
0.343420 0.663233 0.841733
0.401678 0.659876 0.842710
0.510857 0.660060 0.845487
0.603021 0.648463 0.849973
0.725429 0.655818 0.853208
0.834867 0.670192 0.858152
0.920348 0.693202 0.866087
0.411109 0.744808 0.846464
0.419043 0.744015 0.846098
0.453529 0.741512 0.845487
0.516808 0.737881 0.845243
0.614008 0.733455 0.848692
0.723812 0.733120 0.856870
0.830869 0.747646 0.864134
0.914946 0.767880 0.873472
0.540795 0.824308 0.861112
0.546563 0.824002 0.861082
0.570275 0.822934 0.861021
0.614893 0.821439 0.861418
0.674922 0.819394 0.862150
0.744289 0.817472 0.863584
0.828305 0.819394 0.872068
0.910674 0.834592 0.881407
0.650477 0.895445 0.877684
0.653986 0.895293 0.877653
0.669276 0.894804 0.877928
0.699214 0.894285 0.878813
0.740871 0.893462 0.880125
0.791348 0.892638 0.881926
0.848356 0.892638 0.885039
0.909117 0.895750 0.891295
