20 Preset/Travel Style 2/【3】LUT video cho PR-AE-FCPX/Travel 2 LUT (17).cube
# Created by Adobe Lightroom plugin Export LUT (1.24.0)
# www.johnrellis.com/lightroom/exportlut.htm
# Preset: 17素材江湖 - FLAT
# Color profile: E:\lut插件\exportlut.1.24\exportlut.lrplugin\color profiles\Rec709gamma2.4.icc
LUT_3D_SIZE 32
DOMAIN_MIN 0.0 0.0 0.0
DOMAIN_MAX 1.0 1.0 1.0
0.123140 0.081758 0.099947
0.123140 0.081758 0.099947
0.123568 0.081605 0.100313
0.124361 0.082094 0.100252
0.126650 0.081392 0.100618
0.128542 0.082185 0.100862
0.131838 0.081819 0.101503
0.136202 0.081788 0.101747
0.141909 0.081178 0.102327
0.149844 0.080385 0.102510
0.160464 0.078920 0.102937
0.175235 0.074434 0.102937
0.192996 0.066682 0.103578
0.215183 0.054841 0.103639
0.241123 0.037598 0.103914
0.270939 0.014862 0.104219
0.305089 0.000000 0.103853
0.342596 0.000000 0.103792
0.383459 0.000000 0.103670
0.428016 0.000000 0.103395
0.475166 0.000000 0.102846
0.523400 0.000000 0.102083
0.572351 0.000000 0.101320
0.622187 0.000000 0.101320
0.672358 0.000000 0.101045
0.722652 0.000000 0.101289
0.772366 0.000000 0.102785
0.823575 0.000000 0.105837
0.873136 0.000000 0.110964
0.919188 0.000000 0.119051
0.961730 0.000000 0.130282
1.000000 0.000000 0.144503
0.123079 0.081758 0.100313
0.123568 0.081605 0.100313
0.123873 0.082216 0.100252
0.124849 0.081941 0.100252
0.126467 0.082124 0.100557
0.129000 0.082063 0.100862
0.131685 0.082582 0.101472
0.136202 0.081788 0.101747
0.141787 0.081941 0.102296
0.149722 0.081117 0.102449
0.160800 0.078767 0.102937
0.174929 0.074678 0.102937
0.192996 0.066682 0.103578
0.215091 0.056062 0.103609
0.240879 0.039002 0.103853
0.270726 0.016297 0.104158
0.304356 0.000000 0.103822
0.342199 0.000000 0.103761
0.383307 0.000000 0.103639
0.427375 0.000000 0.102968
0.473884 0.000000 0.102846
0.521996 0.000000 0.102144
0.570703 0.000000 0.101381
0.620508 0.000000 0.100893
0.670832 0.000000 0.100679
0.720974 0.000000 0.101350
0.770748 0.000000 0.102907
0.821500 0.000000 0.105745
0.870909 0.000000 0.110628
0.916777 0.000000 0.118379
0.959442 0.000000 0.129030
0.998718 0.000000 0.143496
0.123445 0.083711 0.100526
0.123445 0.083711 0.100526
0.123934 0.083589 0.100526
0.125368 0.083162 0.100526
0.127077 0.083345 0.100465
0.129580 0.083284 0.100771
0.132692 0.083650 0.101350
0.136995 0.083619 0.101595
0.143069 0.082887 0.102174
0.151522 0.082551 0.102296
0.162631 0.080812 0.102724
0.177157 0.077485 0.102724
0.195377 0.070253 0.103304
0.217350 0.059388 0.103334
0.243412 0.043854 0.103487
0.273075 0.020905 0.103426
0.307042 0.000000 0.103334
0.344671 0.000000 0.103212
0.385412 0.000000 0.103090
0.429938 0.000000 0.102358
0.476539 0.000000 0.102113
0.524498 0.000000 0.101259
0.572900 0.000000 0.100557
0.622492 0.000000 0.100008
0.672541 0.000000 0.099763
0.722347 0.000000 0.100282
0.771603 0.000000 0.101930
0.822263 0.000000 0.104738
0.871244 0.000000 0.109285
0.916869 0.000000 0.117128
0.959228 0.000000 0.127871
0.998322 0.000000 0.142061
0.124239 0.086915 0.101717
0.124239 0.086915 0.101717
0.124788 0.086763 0.101350
0.125551 0.087251 0.101320
0.128328 0.087160 0.100526
0.131136 0.087678 0.100404
0.134768 0.087190 0.101045
0.139406 0.087007 0.101289
0.145968 0.086732 0.101839
0.154910 0.086122 0.101930
0.166567 0.084718 0.102327
0.181582 0.082582 0.102205
0.200137 0.078248 0.102724
0.222873 0.067109 0.102693
0.248753 0.053101 0.102724
0.278996 0.031525 0.102876
0.312963 0.000366 0.102693
0.350439 0.000000 0.102113
0.391028 0.000000 0.101808
0.435187 0.000000 0.101320
0.481300 0.000000 0.100618
0.528893 0.000000 0.099702
0.576867 0.000000 0.099153
0.626307 0.000000 0.098146
0.676173 0.000000 0.097536
0.725978 0.000000 0.097902
0.775479 0.000000 0.099306
0.825742 0.000000 0.102174
0.874144 0.000000 0.107210
0.919158 0.000000 0.115084
0.960876 0.000000 0.125765
0.999237 0.000000 0.140291
0.124636 0.092164 0.103304
0.124636 0.092164 0.103304
0.125093 0.092103 0.103304
0.126558 0.091829 0.102937
0.128389 0.091951 0.102144
0.132021 0.092561 0.101625
0.137392 0.092378 0.100771
0.143404 0.092378 0.100587
0.150820 0.091981 0.101106
0.160616 0.091707 0.101167
0.172732 0.091432 0.101442
0.188815 0.090028 0.101625
0.208133 0.088106 0.101595
0.231357 0.082277 0.101747
0.258305 0.071260 0.101625
0.288945 0.050416 0.101228
0.323217 0.020691 0.100832
0.360937 0.000000 0.100404
0.401740 0.000000 0.099519
0.445624 0.000000 0.099214
0.491798 0.000000 0.097688
0.538506 0.000000 0.096864
0.586145 0.000000 0.095644
0.635004 0.000000 0.094606
0.684382 0.000000 0.094148
0.733272 0.000000 0.094301
0.782589 0.000000 0.095186
0.831693 0.000000 0.098085
0.878874 0.000000 0.102998
0.922728 0.000000 0.111452
0.963684 0.000000 0.122683
1.000000 0.000000 0.137423
0.124208 0.100252 0.105440
0.124605 0.100191 0.105776
0.125154 0.100099 0.105440
0.127016 0.099825 0.105440
0.129305 0.099855 0.104707
0.133150 0.099977 0.103548
0.139590 0.101076 0.102113
0.147311 0.101106 0.101503
0.157473 0.101991 0.100679
0.169314 0.102266 0.099825
0.183261 0.102083 0.099641
0.200107 0.101381 0.100008
0.220462 0.100038 0.099458
0.244755 0.097658 0.099336
0.272709 0.093172 0.098939
0.303807 0.084047 0.098268
0.338811 0.059358 0.097841
0.376867 0.018128 0.097047
0.418036 0.000000 0.096132
0.461707 0.000000 0.095033
0.507530 0.000000 0.093568
0.553613 0.000000 0.091768
0.611902 0.000000 0.089876
0.659785 0.000000 0.088380
0.707332 0.000000 0.086793
0.754696 0.000000 0.087037
0.805203 0.000000 0.088350
0.853758 0.000000 0.092226
0.899260 0.000000 0.097871
0.940978 0.000000 0.107576
0.979614 0.000000 0.120851
1.000000 0.000000 0.137606
0.122255 0.115480 0.109102
0.122255 0.115480 0.109102
0.123293 0.115358 0.108766
0.125856 0.114748 0.108797
0.129824 0.113954 0.108156
0.134463 0.114260 0.106630
0.141421 0.114778 0.105013
0.152407 0.117006 0.102571
0.164492 0.117311 0.101350
0.179843 0.118166 0.099855
0.198367 0.119356 0.098390
0.217563 0.119814 0.097200
0.240299 0.120027 0.095674
0.265965 0.118593 0.094789
0.295171 0.115328 0.093996
0.327184 0.109682 0.093233
0.362707 0.100526 0.092409
0.401434 0.084504 0.090547
0.442908 0.031373 0.089021
0.486915 0.000000 0.087282
0.532372 0.000000 0.083680
0.578424 0.000000 0.080201
0.625086 0.000000 0.076722
0.672541 0.000000 0.071168
0.719600 0.000000 0.068666
0.768246 0.000000 0.066651
0.816464 0.000000 0.069001
0.862821 0.000000 0.075471
0.906035 0.000000 0.087465
0.945953 0.000000 0.098634
0.982971 0.000000 0.112825
1.000000 0.000000 0.130709
0.117372 0.137819 0.115297
0.117128 0.137636 0.115023
0.118379 0.137545 0.114107
0.121736 0.136995 0.113527
0.127443 0.135988 0.112978
0.134188 0.134798 0.112062
0.142214 0.135592 0.109804
0.153140 0.136873 0.106935
0.169863 0.140169 0.103273
0.187320 0.140658 0.100984
0.207919 0.141939 0.098970
0.232975 0.143221 0.096345
0.258732 0.143496 0.094026
0.286076 0.143008 0.091707
0.316838 0.141878 0.088777
0.350408 0.140352 0.083284
0.387427 0.134798 0.078370
0.426398 0.125338 0.074434
0.467811 0.110628 0.068818
0.510796 0.087739 0.062501
0.554894 0.010498 0.056580
0.599664 0.000000 0.049470
0.644923 0.000000 0.042939
0.690608 0.000000 0.036957
0.737301 0.000000 0.032288
0.784726 0.000000 0.028901
0.830503 0.000000 0.030671
0.874144 0.000000 0.035920
0.914977 0.000000 0.052674
0.953002 0.000000 0.080995
0.988373 0.000000 0.100282
1.000000 0.000000 0.120882
0.106905 0.168460 0.125277
0.106905 0.168460 0.125277
0.107240 0.168307 0.123110
0.111696 0.167880 0.122316
0.119448 0.166842 0.121309
0.129488 0.165408 0.120241
0.140810 0.164096 0.118532
0.152560 0.165957 0.114534
0.169070 0.167849 0.110109
0.192447 0.172030 0.103761
0.216709 0.172854 0.100099
0.243870 0.173922 0.096895
0.274723 0.174960 0.092531
0.309331 0.175540 0.088014
0.341283 0.173678 0.082277
0.376165 0.171328 0.073335
0.414130 0.168063 0.060700
0.454505 0.163790 0.044373
0.497108 0.157961 0.026520
0.539483 0.146090 0.016876
0.582391 0.129885 0.009003
0.625269 0.106355 0.002136
0.668421 0.055238 0.000000
0.713710 0.000000 0.000000
0.759121 0.000000 0.000000
0.803494 0.000000 0.000000
0.846616 0.000000 0.000000
0.887358 0.000000 0.000000
0.925750 0.000000 0.000977
0.961547 0.000000 0.031434
0.994995 0.000000 0.078614
1.000000 0.000000 0.108125
0.079042 0.207126 0.139620
0.080659 0.207095 0.139162
0.083711 0.207065 0.138430
0.088228 0.206760 0.135164
0.101381 0.205478 0.134096
0.116274 0.204135 0.132509
0.133608 0.201968 0.130465
0.150118 0.201694 0.127321
0.167758 0.203891 0.121920
0.190616 0.206424 0.114839
0.221012 0.210880 0.105867
0.252873 0.212863 0.099245
0.286473 0.213504 0.093507
0.323461 0.213748 0.087007
0.364843 0.213962 0.071412
0.404974 0.211643 0.054994
0.443610 0.208072 0.039521
0.484199 0.203738 0.021485
0.526055 0.198947 0.001556
0.568902 0.193973 0.000000
0.611994 0.187961 0.000000
0.654200 0.179141 0.000000
0.696407 0.166751 0.000000
0.738643 0.152499 0.000000
0.780514 0.137728 0.000000
0.821897 0.121096 0.000000
0.862119 0.105928 0.000000
0.900114 0.090089 0.000000
0.936065 0.078096 0.000000
0.970001 0.080690 0.000000
1.000000 0.100160 0.014313
1.000000 0.125826 0.086122
0.000000 0.252232 0.158083
0.000000 0.252232 0.157870
0.000000 0.252110 0.157473
0.000000 0.252079 0.154086
0.028046 0.251072 0.151186
0.086793 0.249821 0.149844
0.115755 0.247715 0.147585
0.141787 0.245335 0.145022
0.163973 0.246220 0.139559
0.188754 0.248997 0.131472
0.218875 0.251835 0.121675
0.254795 0.254643 0.110231
0.297246 0.259495 0.098085
0.336797 0.259342 0.089479
0.380438 0.258976 0.072938
0.426429 0.258274 0.045655
0.475196 0.256931 0.013672
0.516136 0.252293 0.000000
0.557336 0.247654 0.000000
0.599603 0.243259 0.000000
0.641016 0.238651 0.000000
0.682429 0.235264 0.000000
0.723781 0.232914 0.000000
0.764584 0.229404 0.000000
0.803861 0.222416 0.000000
0.842496 0.216678 0.000000
0.879484 0.211887 0.000000
0.914672 0.208133 0.000000
0.948089 0.207675 0.000000
0.979736 0.210605 0.000000
1.000000 0.217227 0.000000
1.000000 0.228550 0.016419
0.000000 0.303319 0.180911
0.000000 0.303380 0.180880
0.000000 0.303410 0.180331
0.000000 0.303380 0.178195
0.000000 0.302678 0.172793
0.000000 0.301457 0.171023
0.064454 0.299382 0.168521
0.122713 0.297185 0.165530
0.158511 0.294347 0.162509
0.186801 0.296391 0.154665
0.218509 0.299657 0.144137
0.255589 0.302678 0.131533
0.304997 0.311559 0.117189
0.358373 0.317632 0.097047
0.405066 0.316899 0.083436
0.454292 0.316136 0.048737
0.504692 0.315099 0.006989
0.556176 0.313939 0.000000
0.604120 0.311192 0.000000
0.643977 0.306096 0.000000
0.683101 0.301884 0.000000
0.721370 0.298650 0.000000
0.760159 0.296971 0.000000
0.798947 0.297124 0.000000
0.837278 0.299229 0.000000
0.872313 0.297581 0.000000
0.905119 0.294682 0.000000
0.936370 0.292515 0.000000
0.966125 0.292241 0.000000
0.994385 0.294194 0.000000
1.000000 0.298894 0.000000
1.000000 0.306706 0.000000
0.000000 0.363470 0.209995
0.000000 0.363165 0.209781
0.000000 0.363195 0.209079
0.000000 0.362737 0.207675
0.000000 0.362066 0.201083
0.000000 0.360815 0.198337
0.000000 0.358648 0.195956
0.088167 0.356268 0.192630
0.146181 0.353613 0.189059
0.189181 0.351202 0.184360
0.223972 0.355169 0.173831
0.263890 0.359350 0.161959
0.309239 0.363317 0.146670
0.360510 0.366827 0.127047
0.420478 0.373968 0.100038
0.470954 0.372473 0.081727
0.521447 0.371130 0.034211
0.571832 0.369665 0.000000
0.621607 0.368292 0.000000
0.669703 0.367102 0.000000
0.709102 0.363073 0.000000
0.745235 0.359075 0.000000
0.781491 0.356695 0.000000
0.817899 0.356237 0.000000
0.853269 0.357214 0.000000
0.887205 0.359075 0.000000
0.919524 0.361639 0.000000
0.948394 0.359472 0.000000
0.976013 0.358770 0.000000
1.000000 0.359930 0.000000
1.000000 0.362890 0.000000
1.000000 0.368475 0.000000
0.000000 0.422827 0.240940
0.000000 0.422705 0.240543
0.000000 0.422156 0.239780
0.000000 0.421637 0.238560
0.000000 0.420996 0.233494
0.000000 0.419257 0.227359
0.000000 0.417029 0.224674
0.000000 0.414557 0.221317
0.133486 0.411719 0.217655
0.189151 0.408606 0.213199
0.233005 0.407782 0.206455
0.272831 0.411810 0.194888
0.317571 0.415869 0.181064
0.367163 0.419562 0.163943
0.421118 0.422553 0.141878
0.484504 0.429725 0.107668
0.535180 0.427802 0.089326
0.584558 0.425940 0.036927
0.632563 0.424598 0.000000
0.679347 0.423041 0.000000
0.724544 0.422187 0.000000
0.768002 0.421912 0.000000
0.802396 0.418647 0.000000
0.836179 0.416968 0.000000
0.868864 0.416144 0.000000
0.900450 0.416846 0.000000
0.930724 0.418280 0.000000
0.959594 0.421302 0.000000
0.985473 0.420630 0.000000
1.000000 0.420630 0.000000
1.000000 0.422278 0.000000
1.000000 0.425879 0.000000
0.000000 0.480934 0.273625
0.000000 0.480781 0.273198
0.000000 0.480323 0.272557
0.000000 0.479622 0.271153
0.000000 0.478614 0.267857
0.000000 0.477302 0.259220
0.000000 0.474769 0.256138
0.000000 0.472328 0.252934
0.135866 0.469398 0.248966
0.197604 0.466316 0.244602
0.248020 0.462959 0.239841
0.289830 0.463935 0.230961
0.332067 0.467689 0.218875
0.378637 0.471260 0.203647
0.429419 0.474189 0.184970
0.483284 0.476356 0.161044
0.546441 0.483589 0.124666
0.595636 0.481727 0.104097
0.642451 0.479805 0.069245
0.687495 0.478035 0.000000
0.731472 0.476967 0.000000
0.774746 0.477211 0.000000
0.816678 0.478126 0.000000
0.852628 0.477272 0.000000
0.883055 0.474891 0.000000
0.912352 0.473854 0.000000
0.940703 0.474067 0.000000
0.967651 0.475349 0.000000
0.993439 0.477638 0.000000
1.000000 0.478614 0.000000
1.000000 0.479072 0.000000
1.000000 0.481331 0.000000
0.000000 0.535851 0.307561
0.000000 0.535912 0.307683
0.000000 0.535729 0.306767
0.000000 0.535088 0.305547
0.000000 0.534478 0.303746
0.000000 0.533501 0.294285
0.000000 0.531914 0.290806
0.036255 0.529686 0.287694
0.162142 0.526970 0.283757
0.220493 0.524041 0.279667
0.269841 0.520439 0.274723
0.315587 0.516106 0.268650
0.354162 0.518425 0.257939
0.396002 0.521111 0.244327
0.442298 0.523430 0.227970
0.491157 0.525414 0.208621
0.542931 0.526909 0.184604
0.603113 0.533837 0.148836
0.650019 0.532464 0.128267
0.694087 0.530449 0.106569
0.737209 0.529656 0.063539
0.779477 0.529442 0.000000
0.819974 0.529961 0.000000
0.858396 0.530968 0.000000
0.894591 0.532250 0.000000
0.923308 0.530541 0.000000
0.949706 0.529198 0.000000
0.974853 0.529046 0.000000
0.998871 0.529656 0.000000
1.000000 0.531365 0.000000
1.000000 0.532403 0.000000
1.000000 0.532891 0.000000
0.000000 0.587243 0.343511
0.000000 0.587152 0.343542
0.000000 0.586938 0.342779
0.000000 0.586572 0.341680
0.000000 0.585962 0.340246
0.000000 0.585199 0.332433
0.000000 0.583856 0.326360
0.148623 0.581659 0.323430
0.206302 0.579309 0.319951
0.254704 0.576226 0.315557
0.300267 0.572808 0.310979
0.342565 0.568933 0.305028
0.382788 0.565332 0.298192
0.419837 0.567834 0.285924
0.460060 0.570184 0.271763
0.503960 0.572015 0.254948
0.550439 0.573571 0.235569
0.598932 0.574884 0.211795
0.655726 0.581537 0.178775
0.700679 0.580987 0.156802
0.742885 0.579828 0.138827
0.783688 0.579339 0.116915
0.822568 0.579461 0.086030
0.859434 0.579980 0.000000
0.894469 0.580682 0.000000
0.927153 0.581964 0.000000
0.956878 0.583032 0.000000
0.980316 0.581353 0.000000
1.000000 0.580652 0.000000
1.000000 0.580957 0.000000
1.000000 0.581781 0.000000
1.000000 0.582483 0.000000
0.106569 0.635737 0.381567
0.109316 0.635828 0.381353
0.147707 0.643458 0.387762
0.162936 0.643091 0.386786
0.185153 0.642451 0.385046
0.189456 0.641688 0.379217
0.195773 0.640620 0.370611
0.234806 0.638361 0.367895
0.272770 0.636011 0.364263
0.310857 0.633051 0.360266
0.348486 0.629664 0.355322
0.385931 0.625757 0.349798
0.422431 0.621149 0.343420
0.456855 0.618891 0.334569
0.491096 0.620600 0.321477
0.528679 0.622034 0.306981
0.568841 0.623011 0.289708
0.611597 0.623926 0.269291
0.656214 0.624720 0.247013
0.708980 0.630915 0.215244
0.751766 0.630884 0.193515
0.790280 0.629755 0.180179
0.827298 0.628901 0.163729
0.862333 0.628595 0.146548
0.895354 0.628382 0.122896
0.926268 0.628748 0.083040
0.955108 0.629297 0.000000
0.982025 0.630121 0.000000
1.000000 0.630030 0.000000
1.000000 0.628717 0.000000
1.000000 0.628229 0.000000
1.000000 0.628382 0.000000
0.238712 0.682307 0.422248
0.241093 0.682948 0.422522
0.246708 0.683467 0.422736
0.256657 0.683711 0.422766
0.269718 0.683680 0.422217
0.276341 0.683131 0.417548
0.272984 0.682612 0.408759
0.297398 0.680598 0.404944
0.326604 0.678340 0.401678
0.356725 0.675654 0.397528
0.388098 0.672663 0.393133
0.419959 0.669398 0.388098
0.452277 0.665187 0.381903
0.484779 0.660639 0.375189
0.515496 0.660151 0.365118
0.547967 0.661677 0.352239
0.582940 0.663020 0.337652
0.620752 0.664088 0.320806
0.660975 0.665248 0.301976
0.702785 0.666133 0.280247
0.750484 0.671199 0.252964
0.792660 0.673060 0.230167
0.827939 0.672023 0.220066
0.861753 0.671290 0.208194
0.893400 0.670832 0.194858
0.923064 0.670741 0.179110
0.950835 0.670893 0.159670
0.976776 0.671260 0.135897
1.000000 0.671962 0.100252
1.000000 0.672877 0.000000
1.000000 0.672084 0.000000
1.000000 0.670985 0.000000
0.325231 0.720638 0.460426
0.327306 0.721187 0.460853
0.331701 0.721645 0.461341
0.338689 0.721950 0.461402
0.348089 0.721920 0.460761
0.354742 0.721523 0.457862
0.351354 0.721065 0.449500
0.363745 0.719631 0.444800
0.384558 0.717769 0.441627
0.408118 0.715419 0.438025
0.432837 0.712917 0.433539
0.459541 0.709926 0.428901
0.487282 0.706416 0.423377
0.515496 0.702480 0.416693
0.544579 0.698085 0.409674
0.572015 0.699367 0.398871
0.601892 0.700710 0.386267
0.634607 0.701869 0.371984
0.669703 0.702937 0.356359
0.706935 0.703944 0.338079
0.745235 0.704921 0.317601
0.787198 0.707851 0.293797
0.828458 0.711971 0.269932
0.860777 0.710964 0.262242
0.891051 0.710170 0.254063
0.919615 0.709773 0.243717
0.946258 0.709529 0.232151
0.971191 0.709529 0.218997
0.994507 0.709957 0.203952
1.000000 0.710475 0.185061
1.000000 0.711147 0.160372
1.000000 0.711452 0.120912
0.403937 0.755276 0.499794
0.405402 0.755734 0.500389
0.408728 0.756069 0.500572
0.413581 0.756283 0.500603
0.420569 0.756222 0.500237
0.426062 0.755825 0.497902
0.423560 0.755550 0.490791
0.428992 0.754604 0.485328
0.444495 0.752987 0.482765
0.462043 0.751095 0.479133
0.481941 0.748898 0.475196
0.503258 0.746426 0.470954
0.525841 0.743557 0.465888
0.549859 0.740230 0.459815
0.574670 0.736629 0.453651
0.600031 0.733974 0.445930
0.625208 0.735409 0.435126
0.653010 0.736843 0.423560
0.683375 0.738247 0.410132
0.715785 0.739620 0.395483
0.750088 0.741024 0.379492
0.785611 0.742245 0.361151
0.821988 0.743587 0.339574
0.862089 0.749569 0.316899
0.891051 0.748898 0.311345
0.918151 0.748318 0.305272
0.943481 0.748013 0.298497
0.967285 0.747799 0.290837
0.989624 0.747951 0.282261
1.000000 0.748196 0.271885
1.000000 0.748501 0.259098
1.000000 0.748623 0.243076
0.483955 0.788693 0.543542
0.484688 0.788815 0.543725
0.486519 0.788785 0.543816
0.489937 0.788632 0.543633
0.494606 0.788327 0.542992
0.498054 0.787869 0.540703
0.495857 0.787564 0.534722
0.497139 0.786954 0.529076
0.508202 0.785611 0.526268
0.521721 0.784024 0.523369
0.536584 0.782284 0.519829
0.553185 0.780240 0.515862
0.570886 0.777920 0.511101
0.590265 0.775235 0.505943
0.610651 0.772244 0.500084
0.632227 0.768826 0.493172
0.653620 0.767910 0.485145
0.676326 0.769131 0.474922
0.701320 0.770321 0.463752
0.728420 0.771450 0.451301
0.757382 0.772580 0.437354
0.788022 0.773587 0.421698
0.819547 0.774533 0.404303
0.851804 0.775296 0.384558
0.887999 0.780972 0.363439
0.914244 0.780453 0.357824
0.938537 0.779934 0.353338
0.961425 0.779690 0.348608
0.982849 0.779660 0.343603
1.000000 0.779782 0.337346
1.000000 0.779904 0.329808
1.000000 0.779995 0.320439
0.552178 0.815122 0.583276
0.552636 0.815213 0.583642
0.553918 0.815213 0.583612
0.556634 0.815091 0.583429
0.560357 0.814755 0.583154
0.562371 0.814450 0.580926
0.560571 0.814267 0.575952
0.560113 0.813901 0.570336
0.568231 0.812802 0.568048
0.578119 0.811612 0.565576
0.589288 0.810208 0.562585
0.602045 0.808560 0.559014
0.615778 0.806699 0.554650
0.631098 0.804593 0.550317
0.647608 0.802213 0.545129
0.664881 0.799588 0.539025
0.683497 0.796628 0.532616
0.701839 0.797299 0.524407
0.722103 0.798520 0.514763
0.744533 0.799619 0.504326
0.768551 0.800717 0.492958
0.794339 0.801755 0.479835
0.821500 0.802731 0.465553
0.849393 0.803647 0.449439
0.876768 0.803159 0.428779
0.909483 0.808286 0.409888
0.933501 0.808133 0.403662
0.955383 0.807797 0.401617
0.975952 0.807736 0.398596
0.995392 0.807767 0.395575
1.000000 0.808042 0.391577
1.000000 0.808194 0.386175
0.616236 0.839414 0.623651
0.616938 0.839536 0.623926
0.618067 0.839567 0.624170
0.619776 0.839353 0.623865
0.622187 0.839017 0.623346
0.622339 0.838651 0.620813
0.620478 0.838315 0.616419
0.618738 0.837980 0.611139
0.624537 0.836881 0.608881
0.631250 0.835782 0.606165
0.639246 0.834470 0.603082
0.648585 0.833036 0.599786
0.659083 0.831449 0.596033
0.670710 0.829618 0.592004
0.683406 0.827543 0.587152
0.697078 0.825284 0.581781
0.711940 0.822843 0.575891
0.727626 0.820859 0.569360
0.743618 0.821988 0.561669
0.761654 0.823148 0.553216
0.781430 0.824338 0.543481
0.802609 0.825437 0.532921
0.825223 0.826383 0.520867
0.848875 0.827237 0.507164
0.873472 0.827878 0.492042
0.898711 0.828428 0.474678
0.928099 0.833188 0.457740
0.950011 0.833219 0.450752
0.969635 0.833005 0.449531
0.988067 0.833097 0.448920
1.000000 0.833280 0.447517
1.000000 0.833585 0.445533
0.668147 0.858946 0.658534
0.668666 0.859068 0.658808
0.669642 0.859098 0.658900
0.671015 0.858976 0.658656
0.673091 0.858732 0.658412
0.672297 0.858671 0.655970
0.671015 0.858549 0.652369
0.669947 0.858427 0.648219
0.674464 0.857725 0.646509
0.679927 0.856931 0.644587
0.686213 0.856016 0.642298
0.693568 0.854948 0.639673
0.701625 0.853727 0.636530
0.710628 0.852293 0.632868
0.720333 0.850706 0.628809
0.731167 0.848936 0.624353
0.742885 0.847013 0.619409
0.755612 0.844907 0.613947
0.768795 0.844388 0.608026
0.782895 0.845457 0.600946
0.798611 0.846525 0.593378
0.815610 0.847654 0.584985
0.834012 0.848631 0.575372
0.853513 0.849546 0.564691
0.874083 0.850370 0.552270
0.895689 0.851072 0.538567
0.918029 0.851743 0.522667
0.944335 0.856260 0.507927
0.964385 0.856687 0.500755
0.981842 0.856779 0.502037
0.998413 0.857084 0.502861
1.000000 0.857481 0.503746
0.716396 0.877012 0.692958
0.716762 0.877073 0.693080
0.717311 0.877043 0.693111
0.718410 0.876921 0.693050
0.718318 0.876829 0.691768
0.717403 0.876768 0.689509
0.716365 0.876707 0.686549
0.715877 0.876555 0.683436
0.719173 0.876005 0.681971
0.723293 0.875395 0.680385
0.728054 0.874662 0.678248
0.733516 0.873838 0.676051
0.739834 0.872892 0.673579
0.746761 0.871824 0.670558
0.754360 0.870603 0.667231
0.762722 0.869200 0.663386
0.771939 0.867704 0.659205
0.781949 0.866117 0.654688
0.792844 0.864439 0.649836
0.804013 0.865019 0.644343
0.816373 0.866056 0.638270
0.829892 0.867124 0.631403
0.844602 0.868070 0.623835
0.860441 0.869017 0.615137
0.877379 0.869871 0.605493
0.895262 0.870634 0.594507
0.914061 0.871366 0.582208
0.933776 0.872007 0.568475
0.957427 0.876310 0.555077
0.975830 0.877134 0.548425
0.991455 0.877562 0.551507
1.000000 0.878172 0.554559
0.757626 0.892821 0.724605
0.757839 0.892882 0.724819
0.758145 0.892882 0.724727
0.757931 0.892912 0.723995
0.757626 0.892912 0.722805
0.757351 0.892973 0.721370
0.756893 0.893065 0.719173
0.757473 0.893095 0.717281
0.760555 0.892882 0.716640
0.764218 0.892638 0.715816
0.768490 0.892363 0.714809
0.773129 0.891966 0.713436
0.778378 0.891478 0.711910
0.783932 0.890867 0.709957
0.790005 0.890105 0.707454
0.796506 0.889128 0.704524
0.803555 0.888090 0.701198
0.811398 0.886931 0.697597
0.819913 0.885710 0.693782
0.828977 0.884855 0.689540
0.838346 0.885863 0.684871
0.848783 0.886870 0.679561
0.860197 0.887816 0.673671
0.872526 0.888762 0.667079
0.885924 0.889586 0.659571
0.900267 0.890379 0.650965
0.915587 0.891142 0.641505
0.931792 0.891844 0.630884
0.948882 0.892546 0.618860
0.969665 0.896422 0.607568
0.986328 0.897551 0.601282
1.000000 0.898039 0.605066
0.796078 0.908690 0.756710
0.796109 0.908690 0.756741
0.795987 0.908690 0.756344
0.795743 0.908690 0.755764
0.795468 0.908629 0.754788
0.795041 0.908629 0.753353
0.794491 0.908629 0.751461
0.795102 0.908507 0.750118
0.797177 0.908263 0.749294
0.799557 0.907958 0.748226
0.802487 0.907622 0.747158
0.805783 0.907225 0.745815
0.809445 0.906798 0.744228
0.813596 0.906279 0.742489
