20 Preset/Travel Style 2/【3】LUT video cho PR-AE-FCPX/Travel 2 LUT (24).cube
# Created by Adobe Lightroom plugin Export LUT (1.24.0)
# www.johnrellis.com/lightroom/exportlut.htm
# Preset: 24素材江湖 - DRONE
# Color profile: E:\lut插件\exportlut.1.24\exportlut.lrplugin\color profiles\Rec709gamma2.4.icc
LUT_3D_SIZE 5
DOMAIN_MIN 0.000000 0.000000 0.000000
DOMAIN_MAX 0.903226 0.903226 0.903226
0.167178 0.167178 0.167178
0.209506 0.169986 0.173861
0.384558 0.238590 0.238804
0.796170 0.422248 0.410132
1.000000 0.719234 0.712062
0.105989 0.282780 0.141390
0.234745 0.245792 0.150240
0.340459 0.298039 0.286687
0.749294 0.496651 0.461830
0.987457 0.762814 0.747402
0.000000 0.933227 0.000000
0.185306 0.890105 0.000000
0.626917 0.672419 0.000000
0.772396 0.653376 0.559625
0.917967 0.856931 0.841550
0.000000 1.000000 0.291569
0.160952 1.000000 0.230686
0.571435 1.000000 0.000000
0.886870 0.954986 0.000000
1.000000 0.924681 0.786038
0.666133 1.000000 0.716823
0.693538 1.000000 0.727993
0.683589 1.000000 0.648768
0.745907 1.000000 0.464057
0.945769 1.000000 0.000000
0.164065 0.172885 0.187472
0.183169 0.183169 0.183169
0.420813 0.240635 0.259251
0.799069 0.421790 0.426825
1.000000 0.712703 0.711482
0.165866 0.236790 0.200900
0.249821 0.238895 0.201846
0.385016 0.316564 0.305394
0.764614 0.499763 0.475532
0.987610 0.753384 0.742306
0.000000 0.900023 0.000000
0.213199 0.870176 0.000000
0.608759 0.637263 0.000000
0.734859 0.659083 0.612573
0.926146 0.858915 0.843534
0.424018 1.000000 0.530388
0.474159 1.000000 0.509056
0.619501 1.000000 0.289403
0.892088 0.951873 0.000000
1.000000 0.926726 0.813748
0.735348 1.000000 0.777646
0.763272 1.000000 0.792691
0.764767 1.000000 0.747341
0.788632 1.000000 0.593469
0.949737 1.000000 0.000000
0.186801 0.205936 0.297948
0.247166 0.230076 0.282444
0.313390 0.313390 0.313390
0.800809 0.457343 0.543511
1.000000 0.717647 0.753597
0.215396 0.267369 0.339544
0.285832 0.277287 0.322271
0.372381 0.370642 0.371313
0.873655 0.496407 0.560082
1.000000 0.763821 0.780606
0.000000 0.580163 0.394018
0.221195 0.715053 0.445747
0.653468 0.601190 0.387854
0.779965 0.734615 0.722469
0.966400 0.870665 0.859739
0.716213 1.000000 0.783871
0.777798 1.000000 0.814939
0.811887 1.000000 0.752743
0.914580 0.939696 0.262303
0.987152 0.937255 0.897368
0.844022 1.000000 0.879759
0.864469 1.000000 0.891295
0.904967 1.000000 0.909087
0.888304 1.000000 0.821500
0.966125 1.000000 0.497383
0.220554 0.299962 0.580468
0.333013 0.322454 0.565789
0.476844 0.458228 0.483925
0.606928 0.606928 0.606928
0.939422 0.818509 0.852995
0.213474 0.348425 0.618128
0.351476 0.369024 0.601373
0.515435 0.503227 0.519707
0.651331 0.651331 0.651331
0.957488 0.826780 0.860685
0.000000 0.550774 0.657984
0.254246 0.568719 0.683284
0.652216 0.647272 0.654078
0.828367 0.748775 0.769924
1.000000 0.872923 0.891478
0.000000 0.885863 0.660700
0.482887 0.914733 0.733822
0.909422 0.982361 0.923339
0.951904 0.916655 0.799588
0.975250 0.960723 0.957183
0.902861 1.000000 0.940795
0.915251 1.000000 0.946380
0.956542 1.000000 0.967926
0.974273 1.000000 0.969665
0.991302 1.000000 0.809842
0.451637 0.542687 0.908171
0.533562 0.567132 0.899779
0.734737 0.677272 0.867216
0.805203 0.805203 0.805203
0.881621 0.881621 0.881621
0.438849 0.559869 0.907836
0.527550 0.584375 0.900542
0.733547 0.684962 0.868498
0.807889 0.807889 0.807889
0.888273 0.888273 0.888273
0.418036 0.684016 0.929839
0.519493 0.691157 0.923674
0.734768 0.735958 0.898924
0.846708 0.846708 0.846708
0.932219 0.932219 0.932219
0.000000 0.831754 0.922179
0.000000 0.832395 0.925200
0.618799 0.861570 0.945678
0.936309 0.929168 0.944732
0.981811 0.972717 0.975738
0.000000 1.000000 0.771969
0.000000 1.000000 0.775845
0.312779 1.000000 0.856199
0.974762 1.000000 0.986419
1.000000 0.998596 0.987549
