20 Preset/Travel Style 2/【3】LUT video cho PR-AE-FCPX/Travel 2 LUT (23).cube
# Created by Adobe Lightroom plugin Export LUT (1.24.0)
# www.johnrellis.com/lightroom/exportlut.htm
# Preset: 23素材江湖 - DRONE
# Color profile: E:\lut插件\exportlut.1.24\exportlut.lrplugin\color profiles\Rec709gamma2.4.icc
LUT_3D_SIZE 5
DOMAIN_MIN 0.000000 0.000000 0.000000
DOMAIN_MAX 0.903226 0.903226 0.903226
0.111482 0.111482 0.111482
0.133486 0.109255 0.111604
0.272007 0.104311 0.108431
0.589990 0.103853 0.049866
1.000000 0.097017 0.000000
0.116121 0.135164 0.113069
0.150454 0.138338 0.110353
0.282597 0.163638 0.101717
0.606775 0.215061 0.000000
1.000000 0.265782 0.000000
0.190066 0.302251 0.150698
0.235355 0.311315 0.158511
0.370916 0.313329 0.111574
0.683436 0.416205 0.000000
1.000000 0.521447 0.000000
0.390112 0.727047 0.230808
0.457404 0.741054 0.263310
0.637049 0.755489 0.239200
0.842069 0.699886 0.000000
1.000000 0.684108 0.000000
0.772335 0.980224 0.721553
0.796262 0.980560 0.738521
0.864439 0.979492 0.782834
0.937987 0.980499 0.727871
1.000000 0.941314 0.602777
0.106569 0.114809 0.127504
0.135378 0.108156 0.133059
0.269200 0.089937 0.143008
0.571283 0.000000 0.143221
1.000000 0.000000 0.095705
0.107637 0.138125 0.134554
0.146456 0.141878 0.139498
0.281926 0.152865 0.143801
0.589075 0.169314 0.135348
1.000000 0.184817 0.027802
0.170596 0.289860 0.176089
0.220279 0.301518 0.187839
0.352331 0.301579 0.159121
0.665248 0.407568 0.046479
1.000000 0.499763 0.000000
0.358770 0.714656 0.273228
0.433967 0.730526 0.304875
0.628931 0.755337 0.323949
0.835813 0.697139 0.105074
1.000000 0.688472 0.093355
0.767849 0.979309 0.729824
0.792325 0.979644 0.746334
0.871885 0.981048 0.805875
0.939117 0.981689 0.759457
1.000000 0.945403 0.643793
0.014160 0.114137 0.237766
0.128176 0.109377 0.245518
0.280919 0.072816 0.268803
0.559136 0.000000 0.338201
1.000000 0.000000 0.390082
0.086671 0.167391 0.247349
0.126925 0.152682 0.254490
0.291112 0.137362 0.275731
0.586297 0.000000 0.335790
1.000000 0.000000 0.363592
0.065949 0.266239 0.252476
0.137606 0.274266 0.259922
0.334874 0.312444 0.298283
0.685328 0.359686 0.315648
1.000000 0.406317 0.352544
0.000000 0.641688 0.336278
0.216953 0.661097 0.373327
0.588464 0.740627 0.516564
0.811795 0.695033 0.393805
1.000000 0.722194 0.428168
0.713771 0.974090 0.734676
0.748470 0.975097 0.754086
0.852720 0.978363 0.820005
0.934752 0.980926 0.832761
1.000000 0.950744 0.730465
0.000000 0.124636 0.512840
0.000000 0.111269 0.523125
0.351995 0.000000 0.559930
0.635523 0.000000 0.605188
0.996674 0.000000 0.682673
0.000000 0.180850 0.522545
0.000000 0.165866 0.530144
0.340612 0.097658 0.563775
0.641199 0.000000 0.607599
1.000000 0.000000 0.675593
0.000000 0.385962 0.523522
0.000000 0.376898 0.528618
0.263096 0.316747 0.571221
0.654414 0.265934 0.607263
1.000000 0.246128 0.664179
0.000000 0.521904 0.486244
0.000000 0.530114 0.493843
0.149355 0.578576 0.538811
0.742672 0.705196 0.682063
1.000000 0.766262 0.742916
0.000000 0.954498 0.643915
0.224002 0.957458 0.667781
0.679866 0.967987 0.778408
0.932158 0.981201 0.915709
1.000000 0.963226 0.857725
0.000000 0.145571 0.891752
0.000000 0.121675 0.892760
0.295415 0.000000 0.904906
0.677119 0.000000 0.923461
0.981872 0.000000 0.938537
0.000000 0.195529 0.883391
0.000000 0.180697 0.885527
0.241703 0.033631 0.896971
0.662196 0.000000 0.915465
0.977569 0.000000 0.933074
0.000000 0.453071 0.878080
0.000000 0.423346 0.878843
0.000000 0.315862 0.891020
0.612116 0.216068 0.907988
0.985168 0.000000 0.936614
0.000000 0.698756 0.874083
0.000000 0.695674 0.873960
0.169741 0.704616 0.886412
0.607843 0.654231 0.920989
0.997284 0.702876 0.958099
0.000000 0.925902 0.864836
0.000000 0.924498 0.864012
0.000000 0.928069 0.871275
0.504204 0.925322 0.884459
0.977325 0.968536 0.963348
