20 Preset/Travel Style 2/【3】LUT video cho PR-AE-FCPX/Travel 2 LUT (9).cube
# Created by Adobe Lightroom plugin Export LUT (1.24.0)
# www.johnrellis.com/lightroom/exportlut.htm
# Preset: 09素材江湖 - LANDSCAPE II
# Color profile: E:\lut插件\exportlut.1.24\exportlut.lrplugin\color profiles\Rec709gamma2.4.icc
LUT_3D_SIZE 32
DOMAIN_MIN 0.0 0.0 0.0
DOMAIN_MAX 1.0 1.0 1.0
0.126223 0.126223 0.126223
0.126467 0.126467 0.126467
0.126925 0.126406 0.126467
0.127626 0.126589 0.126680
0.128786 0.126711 0.126925
0.130404 0.127291 0.127321
0.132601 0.127535 0.127779
0.135897 0.127901 0.128176
0.140108 0.128420 0.128542
0.144503 0.128847 0.129152
0.150271 0.129580 0.129946
0.156771 0.130129 0.130739
0.164736 0.131167 0.131899
0.174319 0.132326 0.133211
0.185580 0.133242 0.134707
0.198947 0.134340 0.136080
0.214542 0.135653 0.137972
0.232853 0.136904 0.139651
0.254734 0.138125 0.141787
0.281071 0.139132 0.144198
0.312291 0.140169 0.146548
0.372351 0.140536 0.150790
0.434821 0.139712 0.155093
0.498512 0.138247 0.159365
0.561730 0.136110 0.164187
0.624201 0.133303 0.169863
0.683955 0.133150 0.177066
0.742245 0.136080 0.186831
0.800290 0.144869 0.200565
0.858366 0.162966 0.219425
0.913542 0.192325 0.246372
0.963470 0.234623 0.282902
0.126467 0.126467 0.126467
0.126467 0.126467 0.126467
0.126925 0.126406 0.126467
0.127626 0.126589 0.126680
0.128603 0.126986 0.126894
0.129946 0.127352 0.127321
0.132601 0.127535 0.127779
0.135470 0.127962 0.128176
0.139467 0.128237 0.128603
0.143740 0.128939 0.129183
0.148989 0.129488 0.129732
0.155550 0.130068 0.130526
0.162936 0.131197 0.131685
0.172183 0.132174 0.133059
0.182834 0.133272 0.134310
0.195743 0.134249 0.135958
0.210697 0.135531 0.137392
0.228244 0.136812 0.139406
0.249210 0.137942 0.141360
0.274357 0.139071 0.143648
0.304295 0.139956 0.145968
0.358221 0.140719 0.149844
0.414221 0.140688 0.153628
0.472602 0.139223 0.157595
0.531640 0.137362 0.161837
0.591150 0.134981 0.166659
0.651179 0.133364 0.172610
0.710750 0.134401 0.180789
0.770687 0.139773 0.192569
0.831327 0.152895 0.209201
0.890959 0.177707 0.233249
0.945129 0.216190 0.266789
0.126314 0.126741 0.126436
0.126680 0.126680 0.126680
0.126680 0.126680 0.126680
0.127443 0.126864 0.126650
0.128908 0.127230 0.126833
0.130251 0.127565 0.127291
0.132448 0.127810 0.127749
0.135378 0.128237 0.127901
0.138918 0.128573 0.128573
0.143404 0.129000 0.128908
0.148592 0.129549 0.129732
0.154482 0.130220 0.130526
0.161807 0.131106 0.131472
0.170504 0.132204 0.132845
0.181003 0.133333 0.134096
0.193088 0.134524 0.135531
0.207645 0.135714 0.137270
0.224796 0.136904 0.139040
0.245090 0.138338 0.141024
0.269535 0.139559 0.143160
0.300023 0.140902 0.145632
0.350591 0.141817 0.149355
0.403510 0.142031 0.152865
0.459052 0.141299 0.156619
0.515190 0.139834 0.160403
0.572564 0.138216 0.164767
0.632258 0.136294 0.170169
0.692500 0.136690 0.177615
0.753628 0.140475 0.188418
0.815366 0.151339 0.203738
0.876707 0.173190 0.225711
0.933227 0.208133 0.257328
0.127047 0.127443 0.126864
0.127047 0.127443 0.126864
0.127047 0.127443 0.126864
0.127901 0.127321 0.127108
0.128969 0.127718 0.127047
0.130373 0.128084 0.127230
0.132570 0.128328 0.127657
0.135439 0.128756 0.128084
0.139010 0.129061 0.128481
0.143069 0.129549 0.129091
0.147982 0.130129 0.129671
0.153902 0.130800 0.130465
0.160555 0.131807 0.131411
0.168887 0.132723 0.132570
0.178775 0.133730 0.133883
0.190249 0.135042 0.135286
0.203708 0.136507 0.136812
0.219638 0.137819 0.138674
0.238651 0.139010 0.140536
0.261234 0.140505 0.142519
0.291691 0.141756 0.145083
0.335149 0.143343 0.148257
0.383062 0.144228 0.151431
0.435035 0.144503 0.154879
0.491249 0.143923 0.158633
0.550530 0.142824 0.162814
0.614252 0.141665 0.167910
0.678614 0.141939 0.175082
0.742702 0.145541 0.185580
0.805844 0.155886 0.200229
0.867704 0.174807 0.221225
0.923583 0.205417 0.250248
0.127565 0.128389 0.127504
0.127565 0.128389 0.127504
0.128023 0.128359 0.127504
0.128023 0.128359 0.127504
0.128969 0.128237 0.127504
0.130343 0.128603 0.127687
0.132540 0.129122 0.127565
0.135134 0.129305 0.128023
0.138735 0.129610 0.128420
0.142458 0.130129 0.128786
0.147005 0.130770 0.129366
0.152255 0.131533 0.130129
0.158816 0.132326 0.131136
0.166506 0.133577 0.132265
0.175998 0.134707 0.133577
0.187015 0.135897 0.135042
0.200351 0.137148 0.136599
0.215793 0.138674 0.138216
0.234379 0.140230 0.140078
0.256138 0.141848 0.142123
0.287724 0.143862 0.144778
0.327855 0.145785 0.147738
0.372656 0.147402 0.150515
0.423224 0.148196 0.153780
0.477729 0.149081 0.157321
0.537316 0.149020 0.161227
0.601068 0.148806 0.166171
0.665980 0.149569 0.172854
0.729824 0.153780 0.182254
0.793088 0.162173 0.196109
0.855375 0.178592 0.215457
0.912627 0.205600 0.242924
0.127993 0.130098 0.128298
0.127993 0.130098 0.128298
0.128450 0.130037 0.128298
0.128908 0.130007 0.128298
0.129793 0.129885 0.128298
0.130404 0.129580 0.128328
0.132601 0.130098 0.128206
0.135592 0.130495 0.128084
0.138399 0.130892 0.128237
0.142214 0.131167 0.128908
0.146395 0.131868 0.129488
0.151675 0.132601 0.130251
0.158145 0.133639 0.131228
0.165682 0.134676 0.132387
0.174960 0.135836 0.133455
0.185702 0.137301 0.134890
0.198581 0.138888 0.136416
0.213962 0.140414 0.138033
0.232364 0.142061 0.139895
0.254063 0.144137 0.141909
0.287846 0.146853 0.144594
0.326818 0.149325 0.147311
0.480629 0.159243 0.156863
0.549859 0.162112 0.161593
0.618128 0.164706 0.167361
0.681758 0.168673 0.174807
0.741146 0.174472 0.184909
0.797391 0.183780 0.198337
0.851835 0.198245 0.216342
0.901946 0.219333 0.239780
0.946593 0.248356 0.269627
0.985443 0.284855 0.305760
0.129397 0.133852 0.129793
0.129213 0.134127 0.129763
0.130220 0.133761 0.130068
0.130648 0.133700 0.130068
0.131777 0.133364 0.129824
0.132876 0.132998 0.129610
0.133974 0.131899 0.129488
0.137209 0.132509 0.129335
0.140291 0.133120 0.129183
0.143832 0.133425 0.129061
0.148714 0.134005 0.129641
0.154391 0.134890 0.130648
0.161196 0.136049 0.131807
0.169284 0.137423 0.132906
0.179019 0.138674 0.134157
0.190127 0.140200 0.135561
0.203677 0.142031 0.136995
0.219699 0.143709 0.138552
0.239109 0.145785 0.140475
0.269291 0.149233 0.142947
0.311620 0.153597 0.146059
0.364172 0.158175 0.149386
0.426520 0.163027 0.152895
0.496681 0.168093 0.157198
0.570062 0.173007 0.161929
0.640284 0.177798 0.168124
0.703609 0.183474 0.176577
0.761990 0.191135 0.187716
0.818173 0.202060 0.202609
0.871580 0.217899 0.222538
0.920073 0.240848 0.248478
0.963104 0.271550 0.281376
0.131044 0.138125 0.131685
0.131197 0.137881 0.131716
0.132021 0.137789 0.131991
0.132815 0.137697 0.132235
0.133913 0.137362 0.132021
0.134920 0.136538 0.131594
0.136263 0.135958 0.130892
0.137636 0.134340 0.130831
0.140993 0.135164 0.130648
0.144503 0.135470 0.130526
0.148531 0.135927 0.130373
0.152865 0.136538 0.130678
0.159152 0.137758 0.131624
0.166842 0.138979 0.132753
0.175937 0.140291 0.133761
0.186221 0.142000 0.135164
0.198764 0.143801 0.136416
0.213596 0.145571 0.138033
0.234348 0.148562 0.139803
0.263554 0.152529 0.142306
0.300420 0.157076 0.145083
0.346715 0.162325 0.147799
0.402686 0.168246 0.150912
0.467018 0.174777 0.154391
0.536248 0.181186 0.158480
0.605493 0.187320 0.163333
0.669825 0.193790 0.169955
0.730098 0.200870 0.179019
0.788388 0.210666 0.191836
0.844694 0.223941 0.209232
0.897215 0.242679 0.232883
0.943999 0.268772 0.263340
0.133639 0.143435 0.134310
0.133639 0.143435 0.134310
0.134432 0.143343 0.134554
0.135958 0.143160 0.135286
0.136782 0.142672 0.134859
0.137942 0.141665 0.134493
0.139193 0.140627 0.133639
0.140749 0.139559 0.133028
0.141695 0.137636 0.132540
0.145663 0.138338 0.132357
0.149630 0.138766 0.132204
0.153872 0.139162 0.131807
0.158236 0.139498 0.131655
0.165072 0.140810 0.132509
0.173404 0.142275 0.133547
0.183200 0.143832 0.134737
0.194980 0.145785 0.136019
0.210971 0.148226 0.137728
0.232120 0.151919 0.139620
0.258518 0.155917 0.141787
0.291875 0.160922 0.144045
0.333745 0.166751 0.146609
0.384710 0.173770 0.149264
0.444129 0.181369 0.152102
0.509483 0.189364 0.155367
0.576287 0.196963 0.159335
0.641566 0.204654 0.164614
0.703487 0.212436 0.172213
0.763577 0.221866 0.183566
0.821317 0.233768 0.198703
0.877043 0.250156 0.220096
0.926848 0.272557 0.248508
0.136446 0.151125 0.137636
0.136995 0.150881 0.137667
0.137697 0.150790 0.138155
0.139040 0.150851 0.138827
0.140322 0.150088 0.138674
0.141421 0.148745 0.137911
0.142916 0.147341 0.137148
0.144198 0.145754 0.136172
0.145968 0.143832 0.135225
0.146304 0.141146 0.134646
0.150729 0.141970 0.134432
0.155154 0.142550 0.133974
0.159854 0.142824 0.133577
0.164706 0.143069 0.133181
0.170474 0.143801 0.133150
0.179812 0.145663 0.134310
0.193179 0.148409 0.135927
0.209476 0.151583 0.137484
0.229435 0.155459 0.139193
0.254124 0.159792 0.141115
0.283970 0.164950 0.143130
0.320897 0.170962 0.145388
0.364477 0.178042 0.147402
0.415778 0.185824 0.149752
0.472419 0.193973 0.152132
0.533074 0.202396 0.154788
0.597223 0.211002 0.158511
0.661646 0.219883 0.163943
0.725277 0.229923 0.172793
0.787747 0.241703 0.185885
0.849241 0.256596 0.205142
0.905119 0.277043 0.231601
0.140078 0.160281 0.141665
0.140078 0.160281 0.141665
0.141024 0.160372 0.142092
0.143008 0.160342 0.142947
0.145174 0.160128 0.143618
0.146548 0.158480 0.142733
0.148135 0.156619 0.141634
0.149783 0.154513 0.140566
0.151247 0.152193 0.139284
0.152621 0.149386 0.137819
0.152804 0.146029 0.137148
0.157839 0.146487 0.136721
0.162570 0.147189 0.136019
0.167880 0.147555 0.135348
0.173587 0.148257 0.134829
0.179721 0.148653 0.134340
0.191287 0.151217 0.135561
0.206271 0.154391 0.136934
0.224308 0.158175 0.138491
0.246433 0.162722 0.140078
0.273564 0.167941 0.142031
0.306523 0.174228 0.143893
0.346532 0.181888 0.145571
0.394110 0.190280 0.147677
0.447669 0.199496 0.149630
0.505638 0.209262 0.151675
0.568383 0.219303 0.154391
0.633600 0.229770 0.158236
0.699092 0.240848 0.165225
0.763851 0.252964 0.176669
0.827573 0.267918 0.193851
0.887266 0.286656 0.218235
0.144686 0.174960 0.147250
0.145083 0.174929 0.147250
0.146304 0.174960 0.147890
0.148257 0.175265 0.148836
0.151827 0.175387 0.150423
0.153902 0.173709 0.149844
0.155673 0.171389 0.148287
0.157778 0.168429 0.146822
0.159609 0.164889 0.144961
0.161074 0.161288 0.143313
0.161624 0.157076 0.141268
0.161715 0.152529 0.140352
0.178714 0.160281 0.142580
0.187625 0.161929 0.141390
0.195834 0.162814 0.140322
0.203586 0.163333 0.139071
0.210697 0.163363 0.137881
0.221500 0.165042 0.137667
0.244053 0.170535 0.139040
0.271946 0.177310 0.140871
0.305272 0.185336 0.142336
0.345525 0.194553 0.143801
0.391974 0.204776 0.145296
0.444617 0.216159 0.146700
0.502098 0.227939 0.148165
0.562310 0.239811 0.150179
0.623560 0.251164 0.153506
0.683314 0.262242 0.159030
0.741878 0.273564 0.168093
0.800320 0.286137 0.181643
0.857603 0.301152 0.201450
0.910918 0.320165 0.229618
0.153841 0.209079 0.158785
0.154269 0.208927 0.158999
0.156039 0.208652 0.159396
0.159121 0.208377 0.160739
0.164279 0.208194 0.162722
0.168490 0.205600 0.162966
0.170687 0.200717 0.160616
0.173098 0.195377 0.158114
0.175875 0.190341 0.155612
0.180179 0.186648 0.153597
0.183566 0.182467 0.151400
0.184604 0.176272 0.149325
0.185092 0.169619 0.147890
0.194888 0.170962 0.146731
0.205051 0.172671 0.145052
0.213443 0.173190 0.143374
0.220768 0.172946 0.141360
0.226932 0.172335 0.139651
0.232578 0.171420 0.138186
0.252445 0.176394 0.139223
0.280308 0.183597 0.140383
0.314733 0.192325 0.141939
0.355474 0.202274 0.143008
0.402625 0.213809 0.143923
0.455848 0.226108 0.144961
0.513664 0.239048 0.145724
0.575341 0.252415 0.147158
0.638941 0.265690 0.150423
0.701900 0.279026 0.156558
0.764706 0.293065 0.167330
0.827207 0.308629 0.184512
0.886229 0.327001 0.209812
0.162387 0.248051 0.170748
0.162905 0.247807 0.170962
0.165377 0.247349 0.171542
0.169955 0.247501 0.173312
0.176852 0.247898 0.176120
0.185550 0.248325 0.179477
0.189761 0.242039 0.176455
0.194339 0.235447 0.173373
0.198672 0.228519 0.170016
0.203067 0.221592 0.166720
0.206943 0.214267 0.163333
0.209354 0.206088 0.159609
0.207645 0.195071 0.156100
0.205478 0.184390 0.153719
0.214633 0.184298 0.151614
0.224277 0.185153 0.148836
0.231968 0.184512 0.146334
0.238437 0.183383 0.143893
0.244144 0.182162 0.141665
0.249241 0.180697 0.139681
0.260685 0.181979 0.138918
0.290257 0.190249 0.140108
0.326421 0.200107 0.140902
0.369635 0.211856 0.141817
0.419135 0.224796 0.142245
0.474525 0.238773 0.142367
0.534691 0.253666 0.142794
0.599603 0.269047 0.143740
0.665705 0.284489 0.147250
0.732113 0.300389 0.155123
0.797757 0.317021 0.169070
0.862486 0.335973 0.191684
0.175021 0.318334 0.191012
0.176181 0.317845 0.191257
0.179629 0.316808 0.191928
0.186038 0.315496 0.193790
0.196170 0.314183 0.197269
0.209384 0.313970 0.202640
0.217166 0.305913 0.200320
0.222812 0.294865 0.195102
0.228672 0.283604 0.189853
0.234073 0.272404 0.184695
0.239017 0.261112 0.179538
0.242374 0.249363 0.174502
0.242344 0.235752 0.169039
0.235142 0.217685 0.163851
0.228946 0.201480 0.160067
0.236393 0.199161 0.156588
0.245609 0.198978 0.152895
0.252659 0.197421 0.149416
0.258640 0.195651 0.146334
0.264134 0.193790 0.143618
0.269261 0.191897 0.141299
0.274693 0.190341 0.139071
0.301366 0.197696 0.139284
0.339849 0.209201 0.139773
0.385565 0.222416 0.140017
0.437690 0.237064 0.139712
0.496651 0.253269 0.139040
0.562615 0.271183 0.138705
0.633570 0.290013 0.139559
0.705928 0.309239 0.144564
0.778592 0.329229 0.156802
0.850278 0.350866 0.179141
0.192447 0.394751 0.216892
0.193759 0.395178 0.217350
0.198489 0.394720 0.218784
0.208194 0.395056 0.221927
0.222446 0.395300 0.227054
0.241428 0.397162 0.235142
0.258213 0.394873 0.239048
0.267002 0.382788 0.231724
0.275364 0.369055 0.223758
0.283268 0.354437 0.215671
0.289006 0.336950 0.206912
0.291417 0.317357 0.197635
0.289494 0.295476 0.188388
0.282292 0.271305 0.179141
0.265019 0.242100 0.171420
0.252476 0.219059 0.165743
0.257847 0.213809 0.161044
0.266667 0.212955 0.156435
0.273594 0.210910 0.152346
0.280095 0.208896 0.148745
0.286412 0.206943 0.145449
0.292668 0.205203 0.142641
0.299138 0.203738 0.139895
0.314488 0.206241 0.138186
0.357000 0.219852 0.138003
0.407324 0.235721 0.137301
0.465400 0.253605 0.136080
0.531548 0.273625 0.134157
0.604242 0.295048 0.132509
0.678981 0.316716 0.134066
0.753384 0.338293 0.142794
0.827298 0.360845 0.161501
0.219821 0.474098 0.251896
0.221866 0.474281 0.252384
0.228000 0.474525 0.254429
0.238437 0.474769 0.258030
0.255772 0.476173 0.264652
0.278172 0.478523 0.274449
0.305547 0.482918 0.288487
0.313909 0.469429 0.278264
0.322850 0.454353 0.267613
0.331060 0.436561 0.255497
0.337865 0.416510 0.242710
0.341924 0.393652 0.229129
0.341497 0.367712 0.215305
0.335271 0.338231 0.201816
0.322454 0.306340 0.188846
0.297398 0.268162 0.179141
0.280217 0.239506 0.172122
0.283848 0.232059 0.166354
0.293217 0.230747 0.160678
0.300389 0.228183 0.155703
0.307652 0.225895 0.151217
0.314794 0.223972 0.147311
0.322240 0.222202 0.143587
0.329900 0.220890 0.140291
0.338445 0.220066 0.137148
0.377142 0.232547 0.135561
0.433692 0.251743 0.133455
0.499306 0.273533 0.130434
0.573327 0.297887 0.126253
0.652094 0.323033 0.124392
0.730831 0.347784 0.128634
0.808835 0.372717 0.144564
0.271672 0.562005 0.307012
0.275029 0.563500 0.308782
0.357763 0.643366 0.386114
0.370031 0.643946 0.391669
0.388678 0.644831 0.400580
0.412604 0.645899 0.412940
0.442756 0.648402 0.430335
0.454719 0.640681 0.426215
0.457557 0.625788 0.407477
0.462135 0.608362 0.386786
0.466773 0.587640 0.363256
0.469978 0.561944 0.336522
0.469154 0.529961 0.307042
0.461707 0.490517 0.275975
0.444923 0.443824 0.245762
0.419104 0.393317 0.218692
0.374792 0.332097 0.199435
0.344457 0.287633 0.186770
0.341772 0.272496 0.177279
0.348882 0.268070 0.168643
0.354192 0.262730 0.161166
0.360510 0.258671 0.154696
0.367254 0.255192 0.149081
0.374151 0.252079 0.143893
0.381048 0.249332 0.139223
0.389105 0.247440 0.134890
0.409613 0.251560 0.130922
0.471321 0.273747 0.126864
0.543206 0.299199 0.121218
0.623407 0.327123 0.115084
0.705715 0.355077 0.114443
0.787076 0.382605 0.125093
0.369909 0.660792 0.401495
0.379492 0.667597 0.409979
0.393866 0.674983 0.420996
0.411719 0.681575 0.433326
0.434028 0.687068 0.447211
0.457313 0.689967 0.460792
0.484108 0.692256 0.476631
0.505180 0.690700 0.485420
0.505241 0.677546 0.467445
0.506340 0.662043 0.447089
0.508293 0.643793 0.423468
0.509941 0.621912 0.396277
0.509819 0.594324 0.364508
0.506493 0.561212 0.330327
0.497566 0.521141 0.294621
0.479896 0.473762 0.259953
0.452491 0.421393 0.229313
0.405493 0.356817 0.207828
0.375219 0.310887 0.194003
0.372473 0.294621 0.183291
0.381476 0.290715 0.173526
0.389441 0.286442 0.164920
0.397253 0.282567 0.157046
0.405066 0.278965 0.150149
0.412665 0.275578 0.143771
0.421118 0.272953 0.137758
0.431312 0.271763 0.132113
0.444892 0.272374 0.126040
0.500786 0.292668 0.119081
0.581903 0.323369 0.109224
0.668452 0.355322 0.100374
0.755154 0.386664 0.102541
0.432471 0.709834 0.460700
0.442817 0.716030 0.469795
0.455818 0.722347 0.480537
0.472908 0.728206 0.492866
0.492256 0.732784 0.505730
0.512718 0.735439 0.518181
0.535393 0.737087 0.531853
0.560754 0.738735 0.547967
0.562127 0.729763 0.535637
0.560815 0.717067 0.516503
0.560693 0.702388 0.494759
0.560510 0.684108 0.469001
0.559350 0.661311 0.438636
0.556909 0.633570 0.403449
0.551843 0.600488 0.364508
0.542168 0.560418 0.323095
0.525048 0.513603 0.282719
0.497200 0.459754 0.246220
0.446662 0.390570 0.220462
0.415198 0.341680 0.203738
0.410895 0.322667 0.191135
0.421180 0.318730 0.179873
0.430610 0.314580 0.169223
0.439765 0.310552 0.159762
0.448249 0.306737 0.151064
0.457343 0.303532 0.142824
0.467994 0.301427 0.135134
0.482002 0.301488 0.127138
0.501610 0.304723 0.117952
0.539605 0.316930 0.106264
0.629603 0.353002 0.089296
0.721096 0.388464 0.069398
0.498970 0.754482 0.523491
0.507256 0.758968 0.530999
0.519066 0.763699 0.540490
0.533410 0.768063 0.551110
0.549279 0.771481 0.562036
0.566064 0.773281 0.572625
0.585412 0.774594 0.584680
0.606867 0.775845 0.598657
0.616846 0.772274 0.598810
0.614191 0.762753 0.582330
0.612299 0.751431 0.563287
0.610895 0.737484 0.540795
0.609308 0.720119 0.514000
0.607080 0.698634 0.482399
0.603815 0.672328 0.445686
0.598230 0.640192 0.404273
0.590143 0.602930 0.360174
0.577234 0.560143 0.315587
0.554650 0.510246 0.274876
0.508385 0.442084 0.243503
0.479377 0.391791 0.222904
0.477394 0.371588 0.207095
0.491402 0.368658 0.192538
0.505486 0.365972 0.178927
0.518975 0.363317 0.165866
0.532280 0.360571 0.153017
0.547204 0.359258 0.140230
0.565576 0.360174 0.127016
0.589837 0.364660 0.111818
0.621241 0.373083 0.091707
0.661036 0.385962 0.034089
0.742519 0.419013 0.000000
0.608789 0.814755 0.626917
0.612421 0.816129 0.629999
0.617212 0.817258 0.633631
0.624079 0.818051 0.638117
0.632746 0.818448 0.643488
0.643427 0.818509 0.649775
0.656764 0.818631 0.657923
0.672999 0.819150 0.668513
0.688502 0.819150 0.677913
0.685359 0.812222 0.665126
0.682368 0.804074 0.649775
0.679103 0.794125 0.631037
0.675654 0.781796 0.608240
0.672450 0.766537 0.581079
0.669032 0.747433 0.548974
0.665400 0.723964 0.511589
0.660456 0.695277 0.468818
0.652674 0.659846 0.419837
0.640162 0.617823 0.367742
0.617243 0.566155 0.316930
0.571954 0.496132 0.274235
0.541497 0.441321 0.245335
0.534966 0.415167 0.224308
0.546197 0.408911 0.205814
0.559411 0.404517 0.188724
0.573724 0.401282 0.172457
0.589837 0.399451 0.156619
0.609247 0.400031 0.140749
0.633417 0.403693 0.123323
0.663691 0.410986 0.102480
0.701137 0.422400 0.057710
0.746944 0.438331 0.000000
0.663478 0.842710 0.678676
0.666041 0.843717 0.680903
0.669825 0.844633 0.683772
0.675135 0.845274 0.687404
0.682124 0.845731 0.691798
0.690761 0.845914 0.697017
0.701686 0.846128 0.703792
0.714687 0.846647 0.712337
0.729763 0.847623 0.722744
0.731472 0.843687 0.717739
0.728695 0.837339 0.706020
0.725795 0.829801 0.691890
0.722530 0.820462 0.674434
0.719173 0.809323 0.653529
0.715480 0.795529 0.627283
0.712245 0.779080 0.596735
0.709407 0.758663 0.560815
0.706386 0.734035 0.520012
0.701808 0.703853 0.473060
0.693446 0.666499 0.419287
0.672724 0.616510 0.364172
0.631830 0.548089 0.312474
0.605737 0.494209 0.276646
0.599786 0.465705 0.250309
0.591516 0.443183 0.219974
0.605188 0.438331 0.200656
0.622187 0.436103 0.182437
0.641749 0.435889 0.164523
0.665614 0.438666 0.146578
0.695125 0.445106 0.127169
0.731868 0.455879 0.104097
0.776425 0.471290 0.057832
0.728450 0.876036 0.740414
0.731441 0.877379 0.743221
0.734157 0.878019 0.745235
0.736965 0.877928 0.746792
0.739925 0.877287 0.748135
0.744381 0.876402 0.750149
0.750240 0.875334 0.752956
0.757778 0.874357 0.757107
0.767544 0.873808 0.762997
0.772641 0.871489 0.763485
0.767971 0.865141 0.752041
0.763638 0.858061 0.739010
0.759243 0.849821 0.723964
0.754299 0.839872 0.705562
0.748989 0.827909 0.682948
0.743801 0.813748 0.656336
0.738949 0.796902 0.624140
0.735378 0.777371 0.587610
0.732998 0.754757 0.547631
0.730709 0.727932 0.502983
0.726009 0.695094 0.452003
0.707759 0.647822 0.396185
0.669978 0.581567 0.340398
0.645258 0.527306 0.299382
0.636805 0.495430 0.268284
0.645472 0.485267 0.243107
0.658900 0.479133 0.220829
0.676387 0.476387 0.200168
0.698085 0.476875 0.180941
0.725307 0.481117 0.162356
0.759396 0.490059 0.143954
0.801114 0.503777 0.126375
0.756497 0.891691 0.767391
0.759091 0.892821 0.769741
0.761746 0.893492 0.771817
0.764553 0.893797 0.773678
0.768368 0.893797 0.775937
0.773098 0.893706 0.778744
0.779477 0.893736 0.782712
0.787747 0.893950 0.787961
0.797238 0.894438 0.794369
0.807736 0.895079 0.801663
0.805142 0.890837 0.794003
0.802426 0.885893 0.784939
0.799191 0.879789 0.773861
0.795468 0.872465 0.760403
0.791012 0.863401 0.743709
0.786404 0.852689 0.723812
0.781857 0.840055 0.699916
0.778042 0.825528 0.672114
0.775448 0.808927 0.639948
0.774166 0.789731 0.602472
0.773495 0.766598 0.559564
0.771756 0.738308 0.510338
0.757229 0.695033 0.454536
0.726467 0.633356 0.392767
0.706447 0.581201 0.346166
0.700465 0.548913 0.310369
0.711574 0.539147 0.283177
0.727596 0.533745 0.259525
0.750118 0.533440 0.239414
0.777218 0.536675 0.221653
0.809354 0.543755 0.207675
0.846433 0.554742 0.199161
0.792935 0.911406 0.802304
0.794125 0.911864 0.803342
0.795621 0.912139 0.804410
0.797574 0.912200 0.805661
0.800320 0.912108 0.807218
0.804044 0.911925 0.809354
0.808988 0.911803 0.812314
0.815305 0.911833 0.816251
0.822812 0.912047 0.821195
0.831540 0.912474 0.827237
0.833371 0.910399 0.825437
0.831022 0.906462 0.818235
0.828428 0.901762 0.809628
0.825376 0.896025 0.799100
0.821744 0.889067 0.786313
0.817746 0.880705 0.770779
0.813901 0.871122 0.752956
0.810483 0.859983 0.731991
0.807980 0.847501 0.708034
0.806638 0.833280 0.680293
0.806302 0.816678 0.647608
0.806455 0.796445 0.606928
0.806332 0.771237 0.558679
0.793759 0.730587 0.503838
0.768978 0.674281 0.441077
0.754482 0.625422 0.390478
0.750271 0.592920 0.351171
0.762051 0.582696 0.322148
0.779385 0.577478 0.298192
0.804929 0.579309 0.281621
0.834562 0.584710 0.269566
0.868528 0.594018 0.264714
0.818753 0.925902 0.827176
0.819730 0.926268 0.828000
0.821042 0.926513 0.828977
0.822995 0.926757 0.830320
0.825956 0.927001 0.832273
0.830228 0.927459 0.835203
0.836271 0.928435 0.839597
0.843748 0.929656 0.845121
0.852384 0.931243 0.851713
0.861906 0.933074 0.859098
0.869444 0.934173 0.864286
0.870024 0.932677 0.861387
0.870115 0.930602 0.857389
0.869627 0.927642 0.851957
0.868406 0.923705 0.844694
0.866178 0.918456 0.835050
0.863706 0.912169 0.823301
0.861295 0.904875 0.809659
0.859495 0.896635 0.794186
0.858396 0.887266 0.776455
0.857908 0.876463 0.755612
0.858000 0.863432 0.730312
0.858549 0.847440 0.698573
0.859739 0.827512 0.658167
0.851530 0.793942 0.608026
0.836759 0.747829 0.548333
0.830900 0.706966 0.499855
0.832609 0.677272 0.458808
0.846281 0.667170 0.430182
0.864317 0.661860 0.408759
0.890501 0.665370 0.400824
0.919677 0.673121 0.402136
0.860166 0.947662 0.866911
0.860380 0.947662 0.867033
0.860868 0.947601 0.867308
0.861814 0.947509 0.867796
0.863493 0.947417 0.868742
0.865934 0.947387 0.870207
0.869291 0.947448 0.872374
0.873564 0.947662 0.875151
0.878813 0.947997 0.878813
0.884886 0.948516 0.883085
0.891508 0.949126 0.887938
0.891417 0.947478 0.885130
0.890501 0.945220 0.880980
0.889189 0.942443 0.875669
