20 Preset/Travel Style 2/【3】LUT video cho PR-AE-FCPX/Travel 2 LUT (22).cube
# Created by Adobe Lightroom plugin Export LUT (1.24.0)
# www.johnrellis.com/lightroom/exportlut.htm
# Preset: 22素材江湖 - DRONE
# Color profile: E:\lut插件\exportlut.1.24\exportlut.lrplugin\color profiles\Rec709gamma2.4.icc
LUT_3D_SIZE 8
DOMAIN_MIN 0.000000 0.000000 0.000000
DOMAIN_MAX 0.903226 0.903226 0.903226
0.000000 0.000000 0.000000
0.011933 0.000000 0.000000
0.108064 0.000000 0.000702
0.207767 0.000000 0.000000
0.350317 0.000000 0.000000
0.593103 0.000000 0.000000
0.868101 0.000000 0.000000
1.000000 0.000000 0.000000
0.000000 0.015717 0.000122
0.021515 0.015442 0.000855
0.107515 0.019806 0.000000
0.201236 0.033906 0.000000
0.337743 0.064271 0.000000
0.551904 0.094057 0.000000
0.815305 0.106416 0.000000
1.000000 0.103639 0.000000
0.086244 0.100038 0.009033
0.098207 0.099977 0.009552
0.130312 0.106722 0.000000
0.226383 0.137972 0.000000
0.379461 0.181094 0.000000
0.593347 0.224277 0.000000
0.877958 0.273167 0.000000
1.000000 0.287358 0.000000
0.186038 0.213169 0.008545
0.195529 0.209171 0.015290
0.227726 0.218662 0.000000
0.290562 0.236454 0.000000
0.449958 0.296208 0.000000
0.675135 0.381476 0.000000
0.914763 0.434913 0.000000
1.000000 0.445533 0.000000
0.308415 0.354559 0.000000
0.316747 0.351110 0.004181
0.348241 0.354192 0.000000
0.411109 0.381201 0.000000
0.482673 0.392279 0.000000
0.671717 0.462013 0.000000
0.912139 0.552453 0.000000
1.000000 0.596979 0.000000
0.487709 0.564782 0.000000
0.506889 0.574121 0.000000
0.541497 0.566766 0.000000
0.596460 0.588037 0.000000
0.682704 0.619165 0.000000
0.769253 0.624842 0.000000
0.946563 0.671717 0.000000
1.000000 0.706691 0.000000
0.700160 0.816312 0.143496
0.711208 0.817136 0.155123
0.745907 0.809567 0.176486
0.794400 0.811765 0.159976
0.853513 0.823331 0.000000
0.934997 0.838895 0.000000
0.998474 0.816342 0.000000
1.000000 0.806577 0.000000
0.859037 0.976715 0.526513
0.865293 0.976043 0.529290
0.891966 0.973907 0.544274
0.939269 0.971130 0.574762
0.963134 0.965759 0.509392
1.000000 0.974212 0.490486
1.000000 0.973114 0.462043
1.000000 0.936522 0.411780
0.000000 0.000977 0.005524
0.011810 0.000000 0.007874
0.101839 0.000000 0.007446
0.192813 0.000000 0.008270
0.329076 0.000000 0.000000
0.530632 0.000000 0.000000
0.784543 0.000000 0.000000
1.000000 0.000000 0.000000
0.000000 0.015900 0.011475
0.021088 0.015198 0.009949
0.104402 0.022827 0.009918
0.195590 0.035187 0.005341
0.331334 0.050965 0.000000
0.524041 0.068238 0.000000
0.765286 0.064607 0.000000
1.000000 0.015015 0.000000
0.079683 0.099947 0.021698
0.095888 0.098634 0.023804
0.126345 0.105165 0.012116
0.219577 0.134127 0.000000
0.355261 0.166812 0.000000
0.546777 0.202304 0.000000
0.800015 0.241520 0.000000
1.000000 0.263920 0.000000
0.168612 0.198215 0.030243
0.179141 0.195346 0.035309
0.211490 0.204105 0.014038
0.262211 0.213962 0.000000
0.396094 0.260380 0.000000
0.595361 0.335241 0.000000
0.838132 0.393835 0.000000
1.000000 0.421118 0.000000
0.296696 0.346105 0.028717
0.304204 0.341466 0.040833
0.332982 0.340002 0.033326
0.387213 0.360082 0.000000
0.449622 0.365789 0.000000
0.630121 0.432929 0.000000
0.877073 0.529808 0.000000
1.000000 0.580865 0.000000
0.465797 0.545098 0.000000
0.475532 0.543450 0.000000
0.510643 0.535821 0.032136
0.566918 0.560113 0.000000
0.654658 0.594476 0.000000
0.748470 0.608087 0.000000
0.930388 0.659480 0.000000
1.000000 0.697658 0.000000
0.678737 0.798642 0.125277
0.685267 0.794369 0.126741
0.719142 0.786099 0.151308
0.771176 0.789670 0.141451
0.836301 0.807736 0.000000
0.919249 0.825040 0.000000
0.981170 0.801572 0.000000
1.000000 0.795041 0.000000
0.844663 0.969940 0.499947
0.853117 0.970489 0.508049
0.880156 0.968048 0.521782
0.930663 0.964904 0.554955
0.967041 0.970642 0.539086
1.000000 0.975525 0.505241
1.000000 0.972259 0.462989
1.000000 0.935515 0.411566
0.000000 0.002869 0.060609
0.016266 0.000000 0.065217
0.098939 0.000000 0.078309
0.199832 0.000000 0.097597
0.347204 0.000000 0.086061
0.554406 0.000000 0.071839
0.818326 0.000000 0.000000
1.000000 0.000000 0.000000
0.008515 0.020386 0.065888
0.025788 0.020569 0.070039
0.106142 0.017578 0.081697
0.203372 0.000000 0.089998
0.345586 0.000000 0.082094
0.542931 0.000000 0.058656
0.798856 0.000000 0.000000
1.000000 0.000000 0.000000
0.000000 0.113649 0.091341
0.033204 0.112642 0.083528
0.127565 0.110811 0.083101
0.227359 0.133333 0.085298
0.372656 0.155306 0.073243
0.570123 0.181094 0.006043
0.824399 0.206607 0.000000
1.000000 0.215244 0.000000
0.148257 0.214755 0.100221
0.167819 0.213260 0.104036
0.213260 0.212680 0.105287
0.269047 0.221988 0.082887
0.414496 0.270390 0.009857
0.620783 0.338811 0.000000
0.866514 0.387671 0.000000
1.000000 0.406256 0.000000
0.281285 0.356329 0.117006
0.292729 0.353552 0.119997
0.332555 0.345830 0.130220
0.391699 0.368933 0.093263
0.462379 0.377600 0.000000
0.649714 0.444099 0.000000
0.890990 0.533898 0.000000
1.000000 0.573571 0.000000
0.450507 0.553582 0.111086
0.462043 0.552880 0.117159
0.500755 0.543603 0.136751
0.557671 0.556512 0.101076
0.644800 0.589258 0.000000
0.741207 0.603204 0.000000
0.930968 0.658320 0.000000
1.000000 0.698604 0.000000
0.665705 0.810391 0.203311
0.673518 0.806760 0.204105
0.708705 0.796445 0.215000
0.766415 0.791226 0.221286
0.830747 0.807675 0.157137
0.918364 0.827970 0.000000
0.985901 0.807553 0.000000
1.000000 0.802304 0.000000
0.830747 0.972595 0.523552
0.836606 0.971283 0.523613
0.864775 0.968566 0.535698
0.919341 0.966796 0.573602
0.962097 0.970214 0.568536
1.000000 0.976715 0.543542
1.000000 0.975128 0.506065
1.000000 0.938659 0.457099
0.014679 0.000855 0.136416
0.044831 0.000000 0.139620
0.116976 0.000000 0.146273
0.193820 0.000000 0.157870
0.338476 0.000000 0.191470
0.538201 0.000000 0.210422
0.801785 0.000000 0.187381
1.000000 0.000000 0.176577
0.019226 0.026032 0.143496
0.049592 0.023407 0.145449
0.122103 0.011566 0.150698
0.203952 0.000000 0.162264
0.350072 0.000000 0.191653
0.546166 0.000000 0.202243
0.804593 0.000000 0.174319
1.000000 0.000000 0.173953
0.016632 0.114412 0.153231
0.058350 0.115572 0.153201
0.131044 0.115450 0.157137
0.227451 0.112612 0.166110
0.379644 0.092775 0.177218
0.587976 0.000000 0.178073
0.860075 0.000000 0.178500
1.000000 0.000000 0.176638
0.000000 0.243748 0.193423
0.000000 0.240818 0.186038
0.175845 0.229313 0.174838
0.266453 0.228397 0.168887
0.415015 0.270573 0.175937
0.617090 0.305333 0.169619
0.869566 0.340459 0.152102
1.000000 0.351324 0.154116
0.205509 0.391943 0.190982
0.233768 0.387060 0.192538
0.311498 0.373602 0.201297
0.390906 0.380468 0.198001
0.472847 0.391058 0.171084
0.679713 0.461250 0.133944
0.916197 0.541680 0.113313
1.000000 0.554009 0.149691
0.417884 0.594629 0.212619
0.439796 0.601404 0.218967
0.492348 0.587427 0.227970
0.568048 0.580621 0.232944
0.659541 0.612238 0.181094
0.752438 0.615656 0.108614
0.944610 0.666072 0.000000
1.000000 0.702358 0.181765
0.621057 0.827970 0.297490
0.634028 0.827390 0.301396
0.682124 0.821439 0.313207
0.761959 0.810117 0.336034
0.831876 0.821592 0.306493
0.922087 0.840909 0.244236
0.988067 0.814511 0.187259
1.000000 0.808957 0.205234
0.806638 0.982300 0.584497
0.813748 0.981506 0.586419
0.843534 0.978576 0.595941
0.897795 0.973877 0.618402
0.954467 0.971801 0.630610
1.000000 0.978088 0.607111
1.000000 0.979400 0.575341
1.000000 0.944640 0.535790
0.058686 0.000000 0.234562
0.092958 0.000000 0.237308
0.149233 0.000000 0.242039
0.225040 0.000000 0.251072
0.334081 0.000000 0.271061
0.520226 0.000000 0.320439
0.781399 0.000000 0.368505
1.000000 0.000000 0.382544
0.051087 0.023865 0.241306
0.091859 0.020264 0.244144
0.151827 0.000000 0.248264
0.230472 0.000000 0.255680
0.342138 0.000000 0.274876
0.528862 0.000000 0.320714
0.789303 0.000000 0.364416
1.000000 0.000000 0.374487
0.000000 0.127016 0.255009
0.069856 0.129274 0.256443
0.153079 0.122164 0.259831
0.241917 0.100801 0.264866
0.361791 0.061097 0.278386
0.545251 0.000000 0.308537
0.808927 0.000000 0.336767
1.000000 0.000000 0.333837
0.000000 0.230198 0.278721
0.016846 0.230503 0.277867
0.162325 0.233585 0.275883
0.261540 0.232364 0.275547
0.407355 0.234440 0.284672
0.612848 0.224277 0.292149
0.866850 0.206851 0.304051
1.000000 0.188754 0.320043
0.000000 0.421912 0.335607
0.000000 0.420935 0.329900
0.042206 0.410285 0.300816
0.347631 0.382055 0.296880
0.451972 0.385046 0.279057
0.663996 0.449989 0.293767
0.902708 0.488319 0.303441
1.000000 0.492439 0.325200
0.125063 0.607935 0.302281
0.204776 0.605219 0.304143
0.352392 0.587457 0.307500
0.488258 0.562524 0.317510
0.598444 0.576165 0.304356
0.722042 0.598169 0.278965
0.941070 0.661128 0.290410
1.000000 0.700008 0.371984
0.492348 0.844755 0.402991
0.507744 0.841306 0.400855
0.570825 0.831479 0.399573
0.681758 0.820005 0.414649
0.796292 0.811307 0.426184
0.893065 0.832486 0.381872
0.971038 0.809018 0.338720
1.000000 0.806729 0.363256
0.718441 0.984955 0.609918
0.727657 0.983917 0.610895
0.765408 0.980224 0.617548
0.839658 0.977417 0.647517
0.923827 0.969848 0.676204
0.982361 0.974334 0.666835
1.000000 0.980407 0.635981
1.000000 0.945769 0.597833
0.114534 0.000000 0.386145
0.136477 0.000000 0.388220
0.199283 0.000000 0.389349
0.289494 0.000000 0.402167
0.393744 0.000000 0.411170
0.532769 0.000000 0.433234
0.782803 0.000000 0.509819
1.000000 0.000000 0.557885
0.104433 0.002106 0.380346
0.127321 0.000000 0.381018
0.193820 0.000000 0.384161
0.280980 0.000000 0.391913
0.384375 0.000000 0.400061
0.525628 0.000000 0.424994
0.772091 0.000000 0.498604
1.000000 0.000000 0.548577
0.004608 0.141299 0.407996
0.095064 0.138857 0.407721
0.189578 0.127718 0.409705
0.286534 0.093629 0.406470
0.399023 0.000000 0.411109
0.556054 0.000000 0.438239
0.803830 0.000000 0.500175
1.000000 0.000000 0.538140
0.000000 0.270542 0.432227
0.000000 0.267796 0.431037
0.161837 0.258305 0.432563
0.301549 0.251011 0.441108
0.441657 0.222690 0.445441
0.627741 0.195010 0.468025
0.879820 0.007965 0.508934
1.000000 0.000000 0.529320
0.000000 0.408911 0.466102
0.000000 0.408606 0.465003
0.101778 0.408423 0.461158
0.298894 0.409430 0.453651
0.449592 0.398169 0.441047
0.670802 0.407630 0.458289
0.910735 0.419928 0.487312
1.000000 0.443549 0.524376
0.000000 0.684016 0.557244
0.000000 0.687312 0.555444
0.000000 0.678645 0.529503
0.241733 0.654932 0.476631
0.564935 0.603815 0.475074
0.718441 0.615137 0.454017
0.941894 0.682643 0.522454
1.000000 0.688380 0.564660
0.000000 0.889342 0.545434
0.000000 0.889769 0.546136
0.304265 0.882658 0.551873
0.565820 0.864958 0.584466
0.732601 0.841611 0.586725
0.860899 0.839414 0.568444
0.957885 0.823239 0.530602
1.000000 0.831998 0.583062
0.651820 0.995789 0.723201
0.657496 0.994690 0.721004
0.689998 0.991760 0.719142
0.756344 0.987640 0.722560
0.849760 0.979675 0.730648
0.954894 0.970764 0.753201
1.000000 0.980377 0.729824
1.000000 0.952605 0.697932
0.171603 0.000000 0.604700
0.196170 0.000000 0.608331
0.270207 0.000000 0.609766
0.372747 0.000000 0.615900
0.489052 0.000000 0.620386
0.623041 0.000000 0.626520
0.796017 0.000000 0.651545
1.000000 0.000000 0.691157
0.156100 0.000000 0.595026
0.182773 0.000000 0.599451
0.260166 0.000000 0.601282
0.362524 0.000000 0.604364
0.477943 0.000000 0.607630
0.608515 0.000000 0.611200
0.777676 0.000000 0.634394
0.996368 0.000000 0.676417
0.006104 0.133059 0.617548
0.117769 0.128573 0.618006
0.234440 0.104067 0.616968
0.355291 0.000000 0.618158
0.480598 0.000000 0.617914
0.622553 0.000000 0.621881
0.812772 0.000000 0.653834
1.000000 0.000000 0.684260
0.000000 0.272648 0.652033
0.000000 0.273289 0.649195
0.139071 0.266392 0.646113
0.333013 0.242313 0.648096
0.488808 0.187655 0.646815
0.657282 0.000000 0.651606
0.865324 0.000000 0.677668
1.000000 0.000000 0.684382
0.000000 0.455451 0.677729
0.000000 0.452277 0.673884
0.000000 0.446174 0.667903
0.271611 0.428199 0.666346
0.470680 0.396826 0.664088
0.670008 0.344793 0.662898
0.889891 0.331670 0.673030
1.000000 0.375616 0.689876
0.000000 0.656733 0.731167
0.000000 0.657038 0.731167
0.000000 0.656733 0.729702
0.219669 0.655177 0.725460
0.488502 0.649134 0.712886
0.688685 0.623835 0.693904
0.912993 0.659907 0.715358
1.000000 0.703243 0.755489
0.000000 0.917815 0.815824
0.000000 0.917784 0.814572
0.000000 0.914366 0.805417
0.327794 0.907073 0.787716
0.582666 0.889342 0.758938
0.795743 0.850065 0.750454
0.920500 0.838682 0.728511
1.000000 0.871702 0.792721
0.498665 1.000000 0.808225
0.513970 1.000000 0.808865
0.576104 1.000000 0.813230
0.663478 1.000000 0.817807
0.784451 0.994720 0.838254
0.892943 0.984253 0.848142
0.987030 0.980224 0.844755
1.000000 0.965148 0.821805
0.241764 0.000000 0.857542
0.265232 0.000000 0.859068
0.342626 0.000000 0.857694
0.454505 0.000000 0.861051
0.583856 0.000000 0.864469
0.724788 0.000000 0.867308
0.887541 0.000000 0.874235
1.000000 0.000000 0.879271
0.224277 0.000000 0.852537
0.250492 0.000000 0.854215
0.332464 0.000000 0.854490
0.446998 0.000000 0.856870
0.577905 0.000000 0.860166
0.719936 0.000000 0.862974
0.882048 0.000000 0.868467
1.000000 0.000000 0.873014
0.128634 0.119570 0.856687
0.176364 0.111330 0.857267
0.290929 0.018494 0.856626
0.426001 0.000000 0.863035
0.567071 0.000000 0.864103
0.715511 0.000000 0.864622
0.885008 0.000000 0.870512
1.000000 0.000000 0.873991
0.000000 0.287297 0.866484
0.000000 0.285100 0.867491
0.163363 0.270939 0.867643
0.372808 0.239902 0.870695
0.541955 0.165225 0.873350
0.710048 0.000000 0.875608
0.896208 0.000000 0.881834
1.000000 0.000000 0.880583
0.000000 0.469581 0.877195
0.000000 0.466712 0.878447
0.000000 0.447211 0.878660
0.286015 0.443030 0.880217
0.495827 0.403510 0.882048
0.687922 0.330480 0.884733
0.899626 0.237125 0.892149
1.000000 0.260899 0.885283
0.000000 0.663264 0.901884
0.000000 0.661860 0.900694
0.000000 0.658869 0.897704
0.327153 0.659266 0.894591
0.519677 0.657954 0.893736
0.696101 0.640101 0.901884
0.903044 0.597925 0.914031
1.000000 0.627955 0.892485
0.000000 0.863798 0.938323
0.000000 0.863859 0.937987
0.281193 0.864103 0.936767
0.461311 0.865934 0.935119
0.623651 0.868498 0.932097
0.770352 0.871092 0.926390
0.884459 0.851225 0.915404
1.000000 0.861723 0.913451
0.424018 1.000000 0.967071
0.439551 1.000000 0.966705
0.504448 1.000000 0.965850
0.610437 1.000000 0.962707
0.726345 1.000000 0.955230
0.835080 0.999725 0.947723
0.938994 0.988403 0.948241
1.000000 0.979828 0.944335
