20 Preset/Travel Style 2/【3】LUT video cho PR-AE-FCPX/Travel 2 LUT (19).cube
# Created by Adobe Lightroom plugin Export LUT (1.24.0)
# www.johnrellis.com/lightroom/exportlut.htm
# Preset: 19素材江湖 - PURPLE
# Color profile: E:\lut插件\exportlut.1.24\exportlut.lrplugin\color profiles\Rec709gamma2.4.icc
LUT_3D_SIZE 8
DOMAIN_MIN 0.000000 0.000000 0.000000
DOMAIN_MAX 0.903226 0.903226 0.903226
0.104280 0.087953 0.120211
0.130922 0.087678 0.121157
0.194797 0.081788 0.123751
0.294438 0.033417 0.126070
0.456580 0.000000 0.124086
0.652369 0.000000 0.113375
0.819913 0.000000 0.085603
0.956542 0.000000 0.000000
0.117220 0.109133 0.131044
0.136324 0.109834 0.127779
0.204135 0.100618 0.126467
0.307958 0.072969 0.127077
0.474220 0.000000 0.123232
0.666926 0.000000 0.110353
0.828763 0.000000 0.071015
0.960815 0.000000 0.000000
0.141085 0.174014 0.156100
0.158389 0.174472 0.155306
0.225071 0.179141 0.143862
0.358007 0.164004 0.131228
0.530358 0.127932 0.115267
0.706325 0.041413 0.089479
0.850431 0.085939 0.000000
0.969787 0.186557 0.000000
0.134615 0.334386 0.200778
0.167819 0.336400 0.199222
0.267338 0.343389 0.191104
0.411322 0.355840 0.147738
0.607965 0.356359 0.074311
0.759152 0.325414 0.000000
0.881956 0.350805 0.000000
0.983154 0.385473 0.000000
0.062623 0.586572 0.285893
0.165499 0.587366 0.284794
0.320378 0.590997 0.278599
0.473548 0.596277 0.245365
0.635096 0.601801 0.145266
0.793393 0.598322 0.000000
0.902983 0.565972 0.000000
0.994415 0.553155 0.000000
0.396612 0.764248 0.450324
0.412116 0.764004 0.449134
0.475685 0.764920 0.447150
0.573449 0.766903 0.442573
0.669490 0.768734 0.395514
0.785855 0.768521 0.306371
0.901762 0.760983 0.201785
0.985992 0.730312 0.059144
0.629145 0.867399 0.632563
0.634424 0.867460 0.632380
0.656458 0.867948 0.632258
0.696895 0.868803 0.631952
0.749050 0.870176 0.626154
0.802792 0.870695 0.585016
0.879423 0.869810 0.520165
0.965393 0.864500 0.456275
0.783841 0.929808 0.777890
0.785916 0.929870 0.778042
0.794308 0.930175 0.778439
0.810636 0.930785 0.779141
0.835996 0.932158 0.781582
0.861234 0.933349 0.772702
0.892699 0.934234 0.748470
0.940154 0.934539 0.712184
0.113649 0.093202 0.137209
0.130617 0.093355 0.134981
0.200534 0.090608 0.132387
0.306340 0.064027 0.130068
0.473152 0.000000 0.123445
0.666835 0.000000 0.110384
0.828641 0.000000 0.072145
0.960845 0.000000 0.000000
0.123171 0.111238 0.145052
0.142458 0.112245 0.145266
0.208927 0.109163 0.140932
0.317601 0.092805 0.134035
0.487434 0.000000 0.122408
0.677699 0.000000 0.107179
0.835477 0.000000 0.054322
0.964355 0.000000 0.000000
0.158877 0.176852 0.174533
0.170352 0.178408 0.171542
0.232914 0.182254 0.161593
0.364904 0.165560 0.149050
0.539025 0.137667 0.126528
0.714870 0.108278 0.080934
0.856779 0.134371 0.000000
0.973205 0.209201 0.000000
0.176242 0.339513 0.228397
0.181460 0.342596 0.218601
0.279301 0.348394 0.212741
0.420294 0.361486 0.171115
0.614832 0.358648 0.117647
0.764187 0.330877 0.004913
0.886656 0.362097 0.000000
0.985809 0.393927 0.000000
0.175998 0.587152 0.314427
0.195102 0.589166 0.306035
0.333013 0.592889 0.300725
0.481788 0.598901 0.273259
0.639796 0.604486 0.185824
0.795285 0.599115 0.000000
0.904448 0.566155 0.000000
0.995941 0.556664 0.000000
0.416754 0.764279 0.468635
0.425879 0.764828 0.464942
0.485573 0.765835 0.463020
0.579492 0.767697 0.458930
0.673121 0.769558 0.415686
0.786862 0.769253 0.331701
0.901579 0.761013 0.239048
0.985779 0.730800 0.150454
0.635523 0.867521 0.640742
0.640253 0.867796 0.640467
0.661646 0.868284 0.640406
0.700832 0.869139 0.640101
0.752163 0.870451 0.635157
0.804349 0.871031 0.595758
0.879606 0.870298 0.533959
0.964691 0.864988 0.473091
0.785916 0.929961 0.781186
0.787747 0.929992 0.781155
0.796109 0.930327 0.781613
0.812192 0.930938 0.782376
0.836362 0.932006 0.783719
0.861936 0.933288 0.775906
0.893126 0.934264 0.752346
0.940063 0.934630 0.716762
0.135927 0.104311 0.177096
0.151431 0.105135 0.175326
0.194614 0.106691 0.172702
0.320989 0.044312 0.170138
0.491188 0.000000 0.158480
0.682246 0.000000 0.137881
0.840269 0.000000 0.079774
0.966430 0.000000 0.000000
0.146792 0.122072 0.189456
0.164218 0.123018 0.187594
0.208621 0.124941 0.183627
0.335424 0.085847 0.176364
0.505241 0.000000 0.164157
0.692012 0.000000 0.141146
0.845945 0.000000 0.075441
0.969421 0.069032 0.000000
0.172488 0.183474 0.218906
0.188815 0.184939 0.219242
0.251286 0.189151 0.219272
0.380743 0.177920 0.204776
0.552697 0.150057 0.182712
0.722469 0.124483 0.148287
0.863462 0.172457 0.051179
0.977630 0.253330 0.000000
0.210605 0.345403 0.289952
0.233616 0.347448 0.289036
0.303563 0.356054 0.278294
0.439918 0.366644 0.249088
0.622370 0.348272 0.214389
0.766567 0.340459 0.167941
0.887510 0.365698 0.037812
0.988037 0.407782 0.000000
0.281498 0.587579 0.392828
0.306554 0.588556 0.391394
0.369726 0.593805 0.373480
0.505211 0.600000 0.360723
0.647333 0.605493 0.295109
0.795468 0.593194 0.228916
0.904448 0.560571 0.163912
0.994293 0.560204 0.000000
0.478950 0.761105 0.529351
0.491585 0.761135 0.529046
0.513603 0.764187 0.513390
0.595880 0.766812 0.511131
0.682979 0.769497 0.482246
0.788022 0.769558 0.413977
0.898314 0.759182 0.344518
0.982757 0.729946 0.281651
0.666529 0.864469 0.675135
0.668605 0.864927 0.673487
0.674495 0.866880 0.664759
0.710506 0.868070 0.664851
0.761074 0.869902 0.664759
0.808072 0.870726 0.630701
0.878630 0.870054 0.576928
0.960510 0.864408 0.524376
0.797116 0.928893 0.795926
0.797513 0.929168 0.794980
0.800687 0.930083 0.791775
0.816037 0.930724 0.792508
0.839322 0.931914 0.793881
0.864988 0.933227 0.788632
0.894347 0.934234 0.766567
0.939544 0.934630 0.733516
0.165408 0.119356 0.255924
0.182773 0.120424 0.254582
0.241367 0.125765 0.249882
0.320409 0.121218 0.250340
0.532555 0.000000 0.262913
0.714015 0.000000 0.204746
0.846036 0.000000 0.183841
0.972229 0.000000 0.119448
0.179294 0.138857 0.271489
0.197269 0.139559 0.270054
0.256352 0.143771 0.263554
0.335088 0.139895 0.261601
0.543572 0.000000 0.269261
0.719203 0.000000 0.212863
0.850980 0.000000 0.189059
0.974182 0.000000 0.121645
0.185000 0.203891 0.313542
0.208377 0.204440 0.314672
0.294194 0.210483 0.311406
0.389044 0.215122 0.303838
0.583551 0.153201 0.291875
0.731838 0.099336 0.248783
0.866239 0.156741 0.209293
0.979828 0.239109 0.130861
0.224949 0.353735 0.376654
0.248631 0.355627 0.377050
0.332708 0.363439 0.377447
0.465431 0.378149 0.377050
0.628504 0.364263 0.343145
0.767208 0.362737 0.302647
0.886748 0.376165 0.248264
0.987518 0.404150 0.161685
0.335882 0.590143 0.485145
0.357794 0.590967 0.484688
0.434455 0.593622 0.482094
0.532738 0.599542 0.469062
0.659602 0.608362 0.432013
0.792325 0.582544 0.388495
0.898009 0.566552 0.334386
0.988708 0.568048 0.257603
0.512627 0.759518 0.593805
0.522789 0.759304 0.593256
0.564263 0.759884 0.591974
0.619043 0.762936 0.582086
0.698695 0.767727 0.573053
0.788846 0.768734 0.521599
0.890959 0.755184 0.472145
0.976135 0.727657 0.418280
0.674342 0.863920 0.706477
0.679408 0.863890 0.706722
0.700130 0.863828 0.707820
0.723201 0.865843 0.701259
0.768521 0.868284 0.702144
0.813779 0.870024 0.682124
0.877195 0.869749 0.639307
0.953948 0.863523 0.598230
0.799649 0.928557 0.810544
0.802335 0.928588 0.811032
0.812924 0.928740 0.813107
0.821103 0.930358 0.808896
0.843198 0.931701 0.810452
0.870237 0.933257 0.809995
0.896422 0.934356 0.790249
0.938872 0.934752 0.760616
0.212070 0.141665 0.387732
0.232456 0.142428 0.386816
0.304204 0.144625 0.382757
0.404913 0.153902 0.373175
0.521904 0.125582 0.380468
0.745571 0.000000 0.408301
0.889097 0.000000 0.346136
0.992035 0.000000 0.262852
0.226413 0.162539 0.402228
0.246311 0.162966 0.400916
0.317815 0.164767 0.396002
0.419165 0.174319 0.385443
0.534112 0.155123 0.390723
0.751034 0.050507 0.416083
0.890867 0.000000 0.349920
0.990967 0.000000 0.269718
0.245090 0.235050 0.447730
0.269108 0.235966 0.446418
0.351507 0.240360 0.440894
0.463783 0.255772 0.428840
0.575586 0.261112 0.429053
0.767483 0.262974 0.444129
0.896361 0.000000 0.363012
0.984466 0.175387 0.297185
0.244602 0.378424 0.497963
0.267796 0.379767 0.498238
0.358984 0.385595 0.500023
0.513237 0.410010 0.496986
0.622156 0.434211 0.490059
0.778836 0.421180 0.476967
0.888457 0.376623 0.401892
0.981201 0.400824 0.338903
0.357763 0.581323 0.566094
0.377508 0.582483 0.565972
0.447669 0.586847 0.566064
0.550500 0.595636 0.566369
0.665431 0.612085 0.566979
0.780240 0.594049 0.527916
0.884215 0.582269 0.478706
0.979065 0.573480 0.411536
0.536187 0.758511 0.661341
0.547356 0.758968 0.661830
0.589807 0.760830 0.663600
0.646601 0.760983 0.659602
0.712093 0.765225 0.652583
0.792325 0.770504 0.624598
0.881804 0.748440 0.586664
0.965881 0.728389 0.535729
0.682094 0.863859 0.747524
0.686488 0.864012 0.747463
0.703700 0.864347 0.747005
0.736782 0.864591 0.746731
0.774563 0.866423 0.742580
0.821042 0.869932 0.737819
0.876341 0.869841 0.703761
0.947692 0.861631 0.671168
0.792966 0.929747 0.827451
0.795865 0.929747 0.827817
0.807248 0.929839 0.829465
0.827359 0.930022 0.832303
0.846342 0.931640 0.830930
0.873625 0.933593 0.832670
0.899351 0.934966 0.819791
0.938598 0.935332 0.793912
0.296361 0.175174 0.541497
0.316106 0.175418 0.540734
0.388281 0.177829 0.538231
0.495766 0.187961 0.531243
0.604242 0.228855 0.518486
0.718929 0.216770 0.532891
0.882780 0.268009 0.557397
0.997345 0.246067 0.520653
0.310826 0.198245 0.552239
0.330175 0.198856 0.551537
0.400549 0.201877 0.548211
0.506584 0.213596 0.540673
0.612940 0.254307 0.527306
0.724544 0.249210 0.540215
0.883635 0.301732 0.562890
0.996490 0.276127 0.523980
0.336919 0.279332 0.581292
0.357153 0.280552 0.580529
0.428473 0.286778 0.576959
0.534722 0.304112 0.569757
0.637629 0.345342 0.556298
0.739071 0.357275 0.564996
0.883085 0.408850 0.582971
0.991394 0.366186 0.534844
0.333806 0.413031 0.618189
0.357397 0.415167 0.619013
0.449226 0.432593 0.621088
0.561395 0.449744 0.613581
0.665217 0.483925 0.601526
0.753567 0.506462 0.604761
0.878538 0.547326 0.618128
0.982818 0.472389 0.547814
0.396887 0.589929 0.660212
0.412329 0.590753 0.660090
0.467964 0.593957 0.659632
0.558923 0.600916 0.659174
0.685939 0.627466 0.657496
0.765957 0.651057 0.655146
0.873777 0.647486 0.645045
0.969482 0.581262 0.560601
0.541558 0.742092 0.712032
0.550164 0.742428 0.711879
0.584375 0.744625 0.711879
0.640558 0.748959 0.711849
0.709438 0.755734 0.712062
0.786313 0.767544 0.713893
0.866117 0.747555 0.676051
0.950835 0.730587 0.629114
0.680476 0.859617 0.786191
0.685328 0.859800 0.786343
0.704738 0.860868 0.787411
0.740047 0.863218 0.789822
0.780514 0.864988 0.788968
0.823209 0.866911 0.783597
0.875792 0.869535 0.764858
0.941039 0.855772 0.736507
0.797360 0.929992 0.856016
0.799374 0.930083 0.856016
0.807401 0.930358 0.855894
0.822416 0.930907 0.855589
0.846494 0.931731 0.856016
0.874205 0.933440 0.855955
0.903258 0.935851 0.853513
0.938415 0.935973 0.830961
0.439216 0.252781 0.695888
0.455573 0.255741 0.696468
0.512383 0.264195 0.693843
0.600916 0.286625 0.688869
0.695308 0.331975 0.679866
0.777005 0.395666 0.669825
0.863493 0.403723 0.678614
0.959319 0.478096 0.682399
0.441413 0.272465 0.695369
0.457801 0.275608 0.696193
0.513237 0.283604 0.693538
0.599268 0.303899 0.687953
0.692439 0.345708 0.678248
0.772335 0.405646 0.666743
0.857847 0.411353 0.674678
0.954559 0.480262 0.678492
0.462623 0.359197 0.712306
0.476295 0.360906 0.711666
0.528283 0.368475 0.708309
0.610437 0.387304 0.702235
0.699062 0.422705 0.691920
0.775631 0.477089 0.678981
0.858457 0.488167 0.689509
0.950622 0.550561 0.695552
0.474281 0.489296 0.735500
0.487984 0.490547 0.734646
0.538903 0.496193 0.731106
0.620294 0.512200 0.726131
0.708034 0.538506 0.717250
0.783169 0.581079 0.705745
0.856229 0.597528 0.713771
0.941436 0.642939 0.720607
0.449622 0.608423 0.749599
0.463111 0.608057 0.748836
0.517479 0.611536 0.748379
0.607111 0.624384 0.749264
0.706233 0.647089 0.742733
0.784634 0.674922 0.733120
0.848814 0.693629 0.736934
0.933288 0.728450 0.749538
0.555596 0.742885 0.778927
0.562341 0.743313 0.778836
0.588281 0.744259 0.778042
0.633234 0.745663 0.776333
0.693080 0.746975 0.773220
0.791073 0.768917 0.774258
0.852811 0.788907 0.775967
0.931426 0.787259 0.769406
0.676387 0.845579 0.818509
0.680812 0.846159 0.818875
0.696162 0.847013 0.818784
0.725093 0.849088 0.818875
0.764736 0.851865 0.818601
0.812528 0.856138 0.818662
0.868467 0.865019 0.821958
0.929198 0.847868 0.788937
0.785641 0.926146 0.878874
0.788205 0.926329 0.879088
0.799313 0.927367 0.880369
0.818357 0.928679 0.881834
0.845090 0.930785 0.884245
0.873594 0.932982 0.885008
0.903441 0.934966 0.882628
0.937713 0.935882 0.869108
0.586999 0.416114 0.815854
0.596399 0.419715 0.815824
0.629603 0.428626 0.812802
0.687587 0.452003 0.808988
0.756313 0.487526 0.802182
0.822293 0.535210 0.791928
0.881621 0.578058 0.787716
0.942382 0.583154 0.787594
0.585473 0.428351 0.814633
0.594873 0.431769 0.814664
0.628351 0.441413 0.812284
0.685756 0.462470 0.808164
0.754299 0.496132 0.801419
0.820340 0.541711 0.791287
0.878996 0.582666 0.786221
0.939666 0.586969 0.786007
0.587579 0.486275 0.818204
0.595941 0.488350 0.817868
0.628290 0.495491 0.815305
0.686152 0.515984 0.812741
0.752773 0.542565 0.805631
0.817502 0.579919 0.795285
0.874479 0.618799 0.789212
0.934020 0.623041 0.790158
0.584833 0.570550 0.825650
0.593561 0.572534 0.825528
0.626123 0.578210 0.823362
0.682094 0.592157 0.820127
0.749172 0.613611 0.814145
0.814267 0.643641 0.805417
0.869047 0.678096 0.797635
0.926390 0.682612 0.800687
0.558618 0.651209 0.835264
0.567987 0.652583 0.835386
0.600732 0.655238 0.834195
0.668605 0.672236 0.831174
0.738491 0.686397 0.825742
0.807126 0.707240 0.818143
0.863462 0.736629 0.809232
0.918425 0.745693 0.814694
0.577630 0.753109 0.848173
0.580743 0.752132 0.847471
0.595575 0.749081 0.845396
0.638605 0.747860 0.843351
0.713832 0.755093 0.842557
0.799100 0.776089 0.839353
0.864927 0.800351 0.834623
0.915618 0.815824 0.839231
0.688533 0.851865 0.874449
0.690883 0.851743 0.874235
0.701045 0.851408 0.873411
0.721859 0.851225 0.872221
0.752255 0.850492 0.870176
0.791135 0.848173 0.866636
0.866423 0.860472 0.865202
0.917082 0.875456 0.866667
0.781827 0.916411 0.901640
0.783352 0.916442 0.901549
0.790402 0.916869 0.901518
0.804959 0.918029 0.901884
0.826261 0.919707 0.902190
0.854185 0.921874 0.902342
0.889128 0.924895 0.902617
0.930419 0.931090 0.905394
