20 Preset/Travel Style 2/【3】LUT video cho PR-AE-FCPX/Travel 2 LUT (5).cube
# Created by Adobe Lightroom plugin Export LUT (1.24.0)
# www.johnrellis.com/lightroom/exportlut.htm
# Preset: 05素材江湖 - DARK
# Color profile: E:\lut插件\exportlut.1.24\exportlut.lrplugin\color profiles\Rec709gamma2.4.icc
LUT_3D_SIZE 8
DOMAIN_MIN 0.000000 0.000000 0.000000
DOMAIN_MAX 0.903226 0.903226 0.903226
0.000000 0.000000 0.000000
0.053315 0.002899 0.000824
0.205264 0.014374 0.000000
0.404822 0.046937 0.000000
0.683040 0.105257 0.000000
0.957427 0.155550 0.000000
1.000000 0.215702 0.000000
1.000000 0.277806 0.113283
0.033997 0.044099 0.004639
0.084749 0.051392 0.003693
0.205600 0.092836 0.000000
0.390997 0.123201 0.000000
0.656489 0.165469 0.000000
0.937835 0.209842 0.000000
1.000000 0.248722 0.000000
1.000000 0.295384 0.079652
0.152773 0.176455 0.000000
0.183078 0.179171 0.000000
0.288121 0.222538 0.000000
0.444984 0.255375 0.000000
0.691341 0.307713 0.000000
0.968536 0.358618 0.000000
1.000000 0.379767 0.000000
1.000000 0.400458 0.169589
0.287663 0.331792 0.000000
0.307744 0.325170 0.000000
0.420233 0.388220 0.000000
0.685420 0.530022 0.000000
0.896941 0.563287 0.000000
1.000000 0.538323 0.000000
1.000000 0.529595 0.006226
1.000000 0.525566 0.236790
0.467109 0.540246 0.000000
0.483955 0.533654 0.000000
0.570275 0.559045 0.000000
0.792020 0.707210 0.000000
0.972168 0.768856 0.281132
1.000000 0.730892 0.281132
1.000000 0.674128 0.210117
1.000000 0.652430 0.308507
0.645167 0.744137 0.000000
0.667018 0.748623 0.000000
0.723323 0.732631 0.000000
0.855558 0.812894 0.171511
0.985840 0.875547 0.373541
1.000000 0.893095 0.625391
1.000000 0.867033 0.646265
1.000000 0.812650 0.572961
0.780209 0.889891 0.282444
0.792416 0.889067 0.284215
0.835599 0.879515 0.272831
0.911528 0.895445 0.332464
0.996796 0.936614 0.486000
1.000000 0.950134 0.676722
1.000000 0.955932 0.829038
1.000000 0.941192 0.837461
0.878935 0.975372 0.533471
0.885740 0.974456 0.531762
0.914458 0.971008 0.528283
0.966735 0.966888 0.536614
1.000000 0.975616 0.622370
1.000000 0.987060 0.746212
1.000000 0.982238 0.856809
1.000000 0.983368 0.929168
0.000000 0.010590 0.040436
0.044007 0.003540 0.048310
0.184604 0.000000 0.059327
0.364508 0.000000 0.066987
0.628840 0.000000 0.019715
0.917754 0.110994 0.000000
1.000000 0.189914 0.000000
1.000000 0.264927 0.163058
0.000000 0.051240 0.055177
0.056641 0.056641 0.056641
0.192203 0.078492 0.064240
0.369268 0.101900 0.060029
0.628107 0.136751 0.004730
0.914031 0.184054 0.000000
1.000000 0.230930 0.000000
1.000000 0.285801 0.151553
0.114107 0.180697 0.086610
0.158022 0.176486 0.087922
0.259373 0.208438 0.098604
0.408545 0.233921 0.012573
0.656977 0.285283 0.000000
0.929412 0.334783 0.000000
1.000000 0.358923 0.000000
1.000000 0.387396 0.192844
0.255436 0.324834 0.098848
0.280125 0.319768 0.099367
0.382879 0.360204 0.094759
0.606317 0.474495 0.118593
0.810483 0.507958 0.000000
0.952972 0.502953 0.000000
1.000000 0.506065 0.089448
1.000000 0.510582 0.236210
0.441627 0.535180 0.077119
0.458534 0.527184 0.080476
0.533104 0.528069 0.078767
0.747829 0.672602 0.000000
0.938262 0.743526 0.286259
1.000000 0.713100 0.279332
1.000000 0.661128 0.212314
1.000000 0.644953 0.312810
0.618372 0.733150 0.102480
0.634180 0.729885 0.102022
0.691951 0.714839 0.098787
0.827268 0.789883 0.187503
0.970092 0.863890 0.374395
1.000000 0.888762 0.627924
1.000000 0.863767 0.646143
1.000000 0.808377 0.568902
0.760494 0.881651 0.289006
0.769924 0.878050 0.283116
0.813657 0.867857 0.271153
0.893767 0.880827 0.318547
0.987152 0.929259 0.479347
1.000000 0.946654 0.670344
1.000000 0.953002 0.821683
1.000000 0.937469 0.828733
0.867430 0.972198 0.527337
0.875547 0.971923 0.529870
0.904662 0.968231 0.525109
0.960021 0.962280 0.523583
1.000000 0.976959 0.644892
1.000000 0.987213 0.756741
1.000000 0.982483 0.859800
1.000000 0.983703 0.930968
0.000000 0.080293 0.168002
0.000000 0.028595 0.172122
0.173892 0.000000 0.179660
0.324468 0.000000 0.202945
0.595636 0.000000 0.227176
0.916777 0.000000 0.245396
1.000000 0.193637 0.304234
1.000000 0.331853 0.366308
0.000000 0.119570 0.173373
0.000000 0.110353 0.176211
0.177859 0.079683 0.182650
0.332616 0.017975 0.202090
0.599878 0.000000 0.213474
0.907897 0.019013 0.256626
1.000000 0.228153 0.294926
1.000000 0.341802 0.356634
0.000000 0.194980 0.202426
0.057710 0.195285 0.201236
0.196048 0.196048 0.196048
0.381323 0.218051 0.210880
0.647089 0.256443 0.231785
0.927123 0.307713 0.257939
1.000000 0.363439 0.305150
1.000000 0.427558 0.373877
0.000000 0.368444 0.220432
0.089021 0.364294 0.215854
0.315129 0.343328 0.220829
0.540673 0.449470 0.283665
0.742367 0.469398 0.233494
0.950622 0.496315 0.259831
1.000000 0.518822 0.328649
1.000000 0.547875 0.409522
0.343664 0.568719 0.247135
0.377295 0.562768 0.245701
0.479805 0.540459 0.241367
0.683223 0.637537 0.276982
0.904112 0.745693 0.446662
1.000000 0.715236 0.418769
1.000000 0.665309 0.356054
1.000000 0.672358 0.458350
0.556481 0.753231 0.283452
0.576776 0.750576 0.282963
0.647456 0.734859 0.275853
0.774411 0.757504 0.302770
0.938933 0.854276 0.467048
1.000000 0.893828 0.698238
1.000000 0.875547 0.708827
1.000000 0.826688 0.642145
0.727504 0.894499 0.416022
0.738003 0.891295 0.410559
0.782559 0.880400 0.395636
0.864439 0.865568 0.382269
0.965301 0.921416 0.541772
1.000000 0.948974 0.721279
1.000000 0.960327 0.859495
1.000000 0.948180 0.864561
0.850248 0.975341 0.600183
0.856077 0.974151 0.596796
0.883818 0.970550 0.591119
0.939391 0.965087 0.589563
0.992126 0.974304 0.672297
1.000000 0.986664 0.784909
1.000000 0.984771 0.880430
1.000000 0.986572 0.943969
0.000000 0.151186 0.317327
0.000000 0.133120 0.322515
0.119295 0.077394 0.326787
0.320806 0.000000 0.331304
0.498207 0.000000 0.359594
0.801297 0.000000 0.423224
1.000000 0.000000 0.432624
1.000000 0.286412 0.483955
0.000000 0.188052 0.329198
0.000000 0.178225 0.330724
0.120577 0.127626 0.333928
0.327520 0.073945 0.337530
0.506737 0.000000 0.363226
0.814572 0.000000 0.423316
1.000000 0.000000 0.432044
1.000000 0.359380 0.505455
0.000000 0.267887 0.347356
0.000000 0.267216 0.345678
0.163546 0.248936 0.343206
0.337072 0.208072 0.344671
0.543084 0.195102 0.376135
0.873777 0.179080 0.430304
1.000000 0.362249 0.489845
1.000000 0.553582 0.597131
0.000000 0.391028 0.406744
0.000000 0.388830 0.403418
0.212863 0.383032 0.393194
0.371557 0.371557 0.371557
0.643122 0.421271 0.413031
0.898680 0.484627 0.466194
1.000000 0.557275 0.534508
1.000000 0.630121 0.608453
0.000000 0.655879 0.495552
0.000000 0.647730 0.481849
0.214054 0.621088 0.430426
0.533257 0.572015 0.414221
0.816922 0.724086 0.583429
0.944945 0.696559 0.536339
1.000000 0.701228 0.569818
1.000000 0.735561 0.647089
0.401221 0.805142 0.501610
0.443549 0.807309 0.507591
0.546746 0.790341 0.492622
0.692561 0.759640 0.468940
0.881590 0.837003 0.588037
0.984741 0.901366 0.783902
1.000000 0.887999 0.779629
1.000000 0.844450 0.717952
0.670283 0.913939 0.592462
0.682704 0.912596 0.591241
0.729580 0.905150 0.581079
0.813382 0.889647 0.560357
0.925200 0.906706 0.623407
1.000000 0.951781 0.785397
1.000000 0.968322 0.901427
1.000000 0.958770 0.900999
0.829191 0.982940 0.715785
0.834623 0.982177 0.714168
0.858122 0.979034 0.708034
0.905303 0.972992 0.698085
0.971710 0.968414 0.705379
1.000000 0.984771 0.818387
1.000000 0.987671 0.906249
1.000000 0.990417 0.961364
0.000000 0.250828 0.526482
0.000000 0.237613 0.530541
0.000000 0.154025 0.533410
0.300450 0.100862 0.532921
0.515801 0.000000 0.532769
0.717678 0.000000 0.559411
0.947723 0.000000 0.589899
1.000000 0.005249 0.607294
0.000000 0.282750 0.536950
0.000000 0.274144 0.540795
0.000000 0.194614 0.543053
0.300694 0.148470 0.537652
0.520165 0.000000 0.536950
0.723323 0.000000 0.562066
0.954040 0.000000 0.591638
1.000000 0.193912 0.610986
0.000000 0.374823 0.554986
0.000000 0.368627 0.555322
0.000000 0.335485 0.551995
0.296696 0.264439 0.549950
0.526452 0.211246 0.541192
0.728084 0.168917 0.558221
0.970611 0.168643 0.593988
1.000000 0.387671 0.626795
0.000000 0.483040 0.597559
0.000000 0.481270 0.594873
0.000000 0.476600 0.586114
0.350805 0.447211 0.571893
0.551781 0.385351 0.562066
0.764309 0.380072 0.574395
0.997406 0.484382 0.632410
1.000000 0.628626 0.702296
0.000000 0.636378 0.661585
0.000000 0.635645 0.659815
0.201297 0.629267 0.649592
0.429358 0.613947 0.626307
0.579889 0.579889 0.579889
0.832853 0.651545 0.645838
0.989960 0.722683 0.713741
1.000000 0.779721 0.769924
0.126375 0.843046 0.735775
0.210361 0.840452 0.730800
0.355657 0.824704 0.703334
0.502922 0.794675 0.648280
0.709712 0.745418 0.610163
0.924620 0.873289 0.805264
1.000000 0.864103 0.790646
1.000000 0.862516 0.800870
0.575006 0.938445 0.733120
0.580011 0.936248 0.728054
0.626154 0.927123 0.720974
0.728542 0.911223 0.719509
0.836851 0.887327 0.689418
0.966400 0.937377 0.803738
1.000000 0.969574 0.923827
1.000000 0.960357 0.917144
0.791775 0.987610 0.806088
0.795773 0.986908 0.804379
0.814237 0.984070 0.798123
0.858701 0.979889 0.794095
0.920806 0.970947 0.777707
0.990051 0.977081 0.828214
1.000000 0.988830 0.921813
1.000000 0.992859 0.973083
0.000000 0.369207 0.762295
0.000000 0.359014 0.763943
0.000000 0.290806 0.763149
0.000000 0.213626 0.763973
0.501793 0.125734 0.758907
0.726741 0.000000 0.750484
0.922667 0.000000 0.758267
1.000000 0.000000 0.745296
0.000000 0.387152 0.754696
0.000000 0.378576 0.754543
0.000000 0.320531 0.754849
0.000000 0.238956 0.754513
0.492744 0.168154 0.747982
0.717891 0.000000 0.741085
0.914611 0.000000 0.750393
1.000000 0.000000 0.739925
0.000000 0.475776 0.773617
0.000000 0.469490 0.772915
0.000000 0.442664 0.771939
0.000000 0.344488 0.765591
0.494942 0.296391 0.756435
0.726131 0.220554 0.747768
0.923033 0.202884 0.754635
1.000000 0.255894 0.741299
0.000000 0.595361 0.793790
0.000000 0.594141 0.791165
0.000000 0.587610 0.787198
0.341161 0.559930 0.787411
0.530541 0.485878 0.782528
0.751797 0.429999 0.769528
0.937285 0.441199 0.767941
1.000000 0.517418 0.767941
0.000000 0.695888 0.812589
0.000000 0.695644 0.811093
0.242161 0.695674 0.805692
0.454505 0.696376 0.795285
0.604150 0.672419 0.776211
0.752102 0.604425 0.762020
0.921172 0.615045 0.760891
1.000000 0.728450 0.811582
0.375647 0.818418 0.842374
0.407202 0.820523 0.843595
0.481025 0.818509 0.838956
0.581567 0.813596 0.829252
0.681147 0.800839 0.809873
0.773007 0.773007 0.773007
0.948730 0.842466 0.839414
1.000000 0.887572 0.883543
0.647791 0.963378 0.915770
0.658289 0.963043 0.914824
0.685420 0.958953 0.906432
0.729610 0.950256 0.888334
0.779507 0.933410 0.853849
0.873655 0.896727 0.812985
0.987182 0.966613 0.941009
1.000000 0.956909 0.928161
0.785092 0.997681 0.896086
0.786618 0.997131 0.894408
0.798306 0.995239 0.889982
0.822843 0.991821 0.882444
0.877348 0.982788 0.880217
0.939788 0.970703 0.857023
1.000000 0.987793 0.930877
1.000000 0.995087 0.983886
0.000000 0.458747 0.901976
0.000000 0.455543 0.904173
0.000000 0.413764 0.904631
0.000000 0.326146 0.907134
0.372656 0.291142 0.903319
0.652735 0.213535 0.896300
0.862058 0.000000 0.889464
1.000000 0.000000 0.889128
0.000000 0.468971 0.892729
0.000000 0.466712 0.895567
0.000000 0.431189 0.896178
0.000000 0.338323 0.897276
0.363012 0.302312 0.892424
0.640864 0.225895 0.883085
0.846983 0.000000 0.873808
1.000000 0.000000 0.872282
0.000000 0.540826 0.901030
0.000000 0.537621 0.900969
0.000000 0.522698 0.898772
0.000000 0.450935 0.899229
0.380652 0.395209 0.893736
0.645808 0.337957 0.885801
0.856535 0.270756 0.881956
1.000000 0.295872 0.883299
0.000000 0.654261 0.909606
0.000000 0.651057 0.908141
0.000000 0.641871 0.905150
0.350683 0.629999 0.902953
0.465187 0.556481 0.901396
0.673640 0.512139 0.895842
0.870207 0.465248 0.891844
1.000000 0.488289 0.886717
0.000000 0.743771 0.912169
0.106691 0.742061 0.909728
0.305394 0.743343 0.904936
0.475044 0.749508 0.899474
0.613642 0.730678 0.893858
0.703456 0.667781 0.889342
0.867338 0.619226 0.882658
1.000000 0.651728 0.883482
0.456184 0.835935 0.923827
0.473060 0.836912 0.923644
0.529808 0.839322 0.921965
0.615076 0.842985 0.918486
0.706111 0.844938 0.911101
0.792142 0.833219 0.901366
0.886015 0.785916 0.893126
1.000000 0.795468 0.889494
0.664240 0.927703 0.945495
0.674372 0.928679 0.945983
0.700893 0.928954 0.944854
0.747890 0.929686 0.942901
0.801236 0.928191 0.937835
0.854368 0.922118 0.927489
0.898528 0.898528 0.898528
0.996429 0.945434 0.944030
0.825040 1.000000 0.982879
0.828702 1.000000 0.982330
0.845548 1.000000 0.980285
0.867582 0.997986 0.975219
0.892515 0.994324 0.966583
0.916289 0.988373 0.951324
0.960235 0.973144 0.927398
1.000000 0.995758 0.990173
0.000000 0.542657 0.980438
0.000000 0.543664 0.980957
0.000000 0.518273 0.980652
0.000000 0.463142 0.983520
0.229068 0.422950 0.983703
0.550378 0.390021 0.981476
0.764187 0.331701 0.979522
0.948150 0.267948 0.976715
0.000000 0.549859 0.976715
0.000000 0.550805 0.977417
0.000000 0.532830 0.977600
0.000000 0.478553 0.979980
0.232059 0.433448 0.980438
0.548394 0.399847 0.978180
0.759762 0.338262 0.975311
0.943389 0.269291 0.971710
0.000000 0.597375 0.974762
0.000000 0.597681 0.974823
0.000000 0.596124 0.973480
0.000000 0.564630 0.977386
0.316655 0.505974 0.978180
0.563622 0.469612 0.975036
0.762387 0.414740 0.972625
0.942657 0.358373 0.969574
0.000000 0.674464 0.972778
0.000000 0.675807 0.972992
0.000000 0.676875 0.972015
0.402899 0.685023 0.970916
0.463050 0.630762 0.973816
0.612421 0.593591 0.972717
0.777371 0.545647 0.971313
0.945830 0.498634 0.969421
0.000000 0.764248 0.970397
0.170779 0.766720 0.970459
0.304692 0.765713 0.969055
0.478340 0.768521 0.967926
0.626398 0.771023 0.965026
0.674525 0.717952 0.966583
0.797971 0.678767 0.965820
0.947692 0.642267 0.966033
0.445624 0.839200 0.973938
0.453010 0.838682 0.973144
0.494209 0.839200 0.970794
0.574548 0.844144 0.967834
0.674220 0.853758 0.964508
0.785367 0.855192 0.964935
0.847227 0.822904 0.968383
0.958282 0.796689 0.969268
0.654536 0.917937 0.981689
0.660060 0.918151 0.981445
0.683680 0.919310 0.980407
0.730770 0.922942 0.979126
0.790433 0.928069 0.977264
0.853727 0.934203 0.974914
0.911650 0.933928 0.972564
0.964050 0.901152 0.968688
0.810910 0.976806 0.989105
0.813657 0.976837 0.988952
0.827573 0.977447 0.988708
0.855100 0.979004 0.988495
0.889036 0.980774 0.988006
0.923400 0.982269 0.986999
0.952941 0.982208 0.984649
0.971649 0.971649 0.971649
