20 Preset/Travel Style 2/【3】LUT video cho PR-AE-FCPX/Travel 2 LUT (4).cube
# Created by Adobe Lightroom plugin Export LUT (1.24.0)
# www.johnrellis.com/lightroom/exportlut.htm
# Preset: 04素材江湖 - COUNTRY II
# Color profile: E:\lut插件\exportlut.1.24\exportlut.lrplugin\color profiles\Rec709gamma2.4.icc
LUT_3D_SIZE 8
DOMAIN_MIN 0.000000 0.000000 0.000000
DOMAIN_MAX 0.903226 0.903226 0.903226
0.126223 0.126223 0.126223
0.132479 0.126802 0.126833
0.171206 0.127443 0.127626
0.233951 0.128176 0.128328
0.321508 0.129366 0.129610
0.458686 0.130312 0.130251
0.722866 0.117830 0.117372
0.946136 0.097993 0.096956
0.126040 0.131594 0.127077
0.131319 0.131014 0.127840
0.160616 0.134127 0.126955
0.215488 0.136507 0.127382
0.292241 0.140047 0.128939
0.414405 0.145754 0.129854
0.636011 0.151431 0.120607
0.879118 0.148501 0.093050
0.119539 0.163241 0.128481
0.129519 0.159640 0.129732
0.163699 0.159915 0.133425
0.207034 0.161563 0.130007
0.261753 0.165530 0.127047
0.390784 0.186831 0.126192
0.633967 0.226352 0.105684
0.891905 0.255711 0.007324
0.108003 0.214084 0.135714
0.122194 0.208927 0.136568
0.161685 0.205539 0.141451
0.237461 0.228916 0.157168
0.323674 0.242496 0.154177
0.348333 0.223026 0.123903
0.516197 0.266789 0.099397
0.793149 0.334966 0.000000
0.000000 0.293004 0.138949
0.062348 0.286473 0.140627
0.145968 0.265080 0.145785
0.225956 0.287663 0.155001
0.348455 0.332189 0.173312
0.475929 0.355779 0.179446
0.514000 0.331090 0.111086
0.595514 0.338415 0.000000
0.000000 0.409644 0.115389
0.000000 0.415534 0.114839
0.000000 0.385962 0.129702
0.199619 0.370886 0.142550
0.341955 0.426795 0.150423
0.542412 0.513359 0.180392
0.751156 0.572412 0.271397
0.834195 0.549493 0.000000
0.000000 0.615503 0.000000
0.000000 0.613855 0.000000
0.000000 0.582849 0.000000
0.009277 0.526909 0.000732
0.318944 0.559228 0.028016
0.528313 0.635187 0.112734
0.755245 0.714778 0.248966
0.914916 0.745144 0.491005
0.000000 0.879606 0.000000
0.000000 0.876829 0.000000
0.000000 0.868040 0.000000
0.000000 0.853147 0.000000
0.264256 0.788479 0.000000
0.548394 0.833555 0.162997
0.767086 0.870390 0.363043
0.929442 0.889433 0.519371
0.126680 0.128115 0.131411
0.132143 0.127199 0.131930
0.166934 0.126589 0.135378
0.229038 0.127779 0.138888
0.312108 0.129580 0.142824
0.437110 0.126284 0.144747
0.641413 0.103975 0.140352
0.863706 0.011444 0.125307
0.126375 0.132631 0.132815
0.133120 0.133120 0.133120
0.166751 0.134676 0.134585
0.220890 0.137148 0.137057
0.298100 0.140566 0.140658
0.418677 0.143069 0.142763
0.596735 0.138430 0.138430
0.813687 0.122499 0.122072
0.119051 0.167575 0.137545
0.130526 0.164401 0.137209
0.165225 0.162478 0.143008
0.206485 0.162234 0.136324
0.265202 0.166201 0.135286
0.376471 0.181003 0.137209
0.556329 0.201572 0.129793
0.803342 0.224796 0.100099
0.107668 0.213352 0.142611
0.122591 0.209018 0.143435
0.160281 0.202701 0.147585
0.222110 0.215488 0.160952
0.283513 0.218509 0.156283
0.309270 0.203525 0.130892
0.448463 0.236149 0.121920
0.694484 0.293339 0.054078
0.000000 0.294316 0.145510
0.049287 0.286595 0.146822
0.144747 0.263951 0.151034
0.216434 0.273716 0.159945
0.318944 0.305180 0.177798
0.427649 0.323339 0.182223
0.465003 0.302434 0.126680
0.545312 0.310460 0.043732
0.000000 0.397589 0.126864
0.000000 0.392035 0.129702
0.000458 0.366583 0.139681
0.190738 0.348608 0.150423
0.322210 0.401923 0.160281
0.518547 0.491493 0.190097
0.719753 0.548302 0.264561
0.792508 0.521080 0.000000
0.000000 0.584558 0.000000
0.000000 0.572625 0.000000
0.000000 0.541131 0.000000
0.030182 0.490639 0.088106
0.299016 0.525780 0.095857
0.499519 0.602136 0.126802
0.718959 0.680232 0.230594
0.887358 0.714076 0.446357
0.000000 0.852811 0.000000
0.000000 0.854917 0.000000
0.000000 0.843900 0.000000
0.000000 0.827573 0.000000
0.271702 0.813077 0.000000
0.551141 0.839506 0.191501
0.761379 0.865812 0.360388
0.925444 0.885557 0.516228
0.121736 0.135683 0.167147
0.129854 0.133089 0.168704
0.170626 0.129152 0.170871
0.234318 0.132937 0.180880
0.348211 0.126009 0.198703
0.557977 0.000000 0.212253
0.783200 0.000000 0.212039
0.965606 0.000000 0.213596
0.132845 0.150668 0.168734
0.135592 0.145724 0.169802
0.171664 0.139803 0.171572
0.233066 0.143709 0.180240
0.343084 0.138827 0.194064
0.540276 0.016632 0.201572
0.734798 0.000000 0.201053
0.929259 0.000000 0.199832
0.126467 0.177127 0.178592
0.138796 0.177340 0.178744
0.178439 0.178439 0.178439
0.240116 0.180056 0.180117
0.336278 0.182986 0.183017
0.486366 0.185092 0.185153
0.679042 0.181643 0.181460
0.890898 0.175601 0.175479
0.090455 0.251530 0.197757
0.118044 0.249882 0.195712
0.167788 0.233371 0.181888
0.245548 0.240024 0.198703
0.307866 0.234134 0.180117
0.378149 0.230991 0.159976
0.559503 0.264378 0.152163
0.800626 0.302800 0.127535
0.000000 0.346227 0.186069
0.000000 0.339147 0.178164
0.123812 0.311315 0.179294
0.224918 0.297551 0.188296
0.355322 0.341192 0.217472
0.457588 0.344701 0.210391
0.472938 0.303319 0.144900
0.626856 0.338842 0.078737
0.000000 0.449989 0.150881
0.000000 0.444526 0.153201
0.000000 0.414405 0.161685
0.178378 0.360357 0.172305
0.322515 0.411078 0.190127
0.529747 0.503777 0.239231
0.721920 0.553307 0.302739
0.793942 0.517754 0.108919
0.000000 0.638514 0.000000
0.000000 0.627405 0.000000
0.000000 0.591119 0.013153
0.000000 0.532830 0.109773
0.282902 0.529900 0.136904
0.502495 0.613458 0.182528
0.740719 0.703151 0.304906
0.903044 0.739040 0.507713
0.000000 0.868742 0.000000
0.000000 0.863401 0.000000
0.000000 0.851469 0.000000
0.000000 0.840696 0.000000
0.207858 0.809293 0.000000
0.544152 0.844358 0.247105
0.766659 0.872984 0.413794
0.929381 0.892576 0.566674
0.109682 0.157565 0.234989
0.116609 0.153079 0.239017
0.173129 0.148623 0.240299
0.242466 0.139559 0.242496
0.338018 0.132845 0.264378
0.538354 0.000000 0.321050
0.783291 0.000000 0.360052
0.994018 0.000000 0.374212
0.127291 0.178470 0.243778
0.132052 0.172763 0.244846
0.176638 0.162387 0.245426
0.247440 0.151247 0.247501
0.346105 0.143832 0.268864
0.547356 0.012879 0.321935
0.784360 0.000000 0.354284
0.993072 0.000000 0.368200
0.155917 0.222507 0.246128
0.164187 0.221256 0.247654
0.184176 0.205142 0.250797
0.250797 0.188754 0.250828
0.379675 0.189517 0.284611
0.605676 0.150301 0.330175
0.859342 0.000000 0.362371
1.000000 0.102632 0.371771
0.000000 0.283848 0.288548
0.087709 0.282506 0.286900
0.176791 0.280797 0.284001
0.279088 0.279088 0.279088
0.404334 0.276371 0.276280
0.558526 0.274388 0.274266
0.741848 0.274144 0.273991
0.930114 0.278965 0.279057
0.000000 0.477882 0.369207
0.000000 0.468177 0.358404
0.000000 0.439643 0.324102
0.236851 0.380865 0.270268
0.418158 0.406683 0.317510
0.493935 0.367163 0.260746
0.538537 0.323369 0.187930
0.787716 0.378363 0.172580
0.000000 0.598016 0.344518
0.000000 0.604028 0.339635
0.000000 0.565911 0.281834
0.059602 0.494423 0.244602
0.344640 0.468513 0.261692
0.583581 0.560266 0.352605
0.740566 0.572930 0.371405
0.790127 0.502983 0.165469
0.000000 0.731868 0.250919
0.000000 0.728176 0.235172
0.000000 0.703822 0.192752
0.000000 0.647547 0.192935
0.243015 0.564446 0.198886
0.517723 0.649348 0.276707
0.765225 0.732235 0.425330
0.911009 0.759762 0.572503
0.000000 0.913878 0.254002
0.000000 0.910979 0.251072
0.000000 0.899718 0.242313
0.000000 0.879149 0.233890
0.000000 0.841794 0.219425
0.519982 0.848569 0.318791
0.768978 0.880064 0.487617
0.935180 0.903990 0.646571
0.000000 0.202396 0.378729
0.000000 0.195010 0.384131
0.148440 0.181155 0.384588
0.277897 0.161471 0.385229
0.387152 0.127047 0.387182
0.535485 0.000000 0.428046
0.766781 0.000000 0.497841
0.979583 0.000000 0.536034
0.000000 0.226078 0.391882
0.000000 0.219242 0.397833
0.144472 0.196933 0.397498
0.279576 0.174624 0.390723
0.394049 0.140322 0.394079
0.544427 0.035584 0.433509
0.772274 0.000000 0.498634
0.980804 0.000000 0.534325
0.080049 0.299260 0.410010
0.099275 0.292729 0.410590
0.146944 0.256626 0.407599
0.277714 0.224674 0.405280
0.400153 0.192203 0.400153
0.546990 0.162814 0.429419
0.774868 0.022339 0.488533
0.973144 0.000000 0.518578
0.000000 0.386175 0.437720
0.101381 0.385626 0.436225
0.225834 0.386236 0.435523
0.293278 0.341283 0.440314
0.430152 0.295842 0.430243
0.607019 0.295720 0.461280
0.820768 0.302129 0.498787
0.990539 0.348974 0.526299
0.000000 0.491218 0.501671
0.000000 0.491493 0.501579
0.000000 0.487282 0.496071
0.280430 0.478096 0.483803
0.455940 0.455940 0.455940
0.612055 0.436439 0.436347
0.778775 0.423865 0.423743
0.939086 0.421088 0.420935
0.000000 0.694148 0.576349
0.000000 0.690211 0.570092
0.000000 0.662318 0.534539
0.000000 0.615656 0.474311
0.333745 0.525139 0.377874
0.599390 0.585412 0.479316
0.703029 0.534600 0.392340
0.743038 0.440284 0.206210
0.000000 0.819730 0.549554
0.000000 0.813352 0.541009
0.000000 0.792294 0.511131
0.000000 0.756130 0.433570
0.127077 0.672114 0.337102
0.483070 0.644800 0.364050
0.763210 0.737881 0.529961
0.892668 0.738827 0.573938
0.000000 0.926879 0.522332
0.000000 0.924346 0.511864
0.000000 0.914702 0.468544
0.000000 0.906615 0.398688
0.000000 0.870054 0.362951
0.414466 0.824430 0.343755
0.738491 0.866361 0.524498
0.923552 0.896910 0.686885
0.000000 0.288518 0.632502
0.000000 0.277440 0.636103
0.000000 0.241703 0.630243
0.281804 0.212772 0.625208
0.478798 0.146456 0.630640
0.627405 0.000000 0.627558
0.786313 0.000000 0.649683
0.979828 0.000000 0.691768
0.000000 0.302525 0.613855
0.000000 0.291600 0.613275
0.000000 0.251133 0.611261
0.270878 0.224979 0.609979
0.459968 0.166323 0.608179
0.606806 0.000000 0.606836
0.766323 0.000000 0.632227
0.966644 0.000000 0.679835
0.000000 0.403326 0.649714
0.000000 0.394018 0.649165
0.000000 0.354009 0.650965
0.261143 0.297307 0.635431
0.463233 0.244816 0.624994
0.619867 0.174228 0.619928
0.789548 0.106661 0.647608
0.974121 0.185275 0.683955
0.184787 0.551904 0.683803
0.209751 0.545922 0.681147
0.300145 0.531609 0.682185
0.343877 0.474098 0.692531
0.501366 0.411872 0.684688
0.669093 0.348394 0.669062
0.839750 0.355169 0.687282
0.990967 0.423316 0.707424
0.000000 0.620020 0.688869
0.145754 0.619532 0.687404
0.305516 0.620508 0.683986
0.460029 0.626703 0.679591
0.516014 0.564324 0.673976
0.653407 0.493538 0.653468
0.828275 0.510338 0.673365
0.976287 0.558068 0.697536
0.000000 0.711116 0.725093
0.000000 0.716274 0.730037
0.000000 0.712917 0.725368
0.321080 0.706722 0.716640
0.512016 0.693050 0.699001
0.677150 0.677150 0.677150
0.823911 0.660365 0.660243
0.956176 0.645136 0.645106
0.000000 0.915831 0.822171
0.000000 0.915679 0.821378
0.000000 0.906493 0.807034
0.178470 0.886015 0.776608
0.476326 0.845853 0.721889
0.541253 0.748653 0.585473
0.797971 0.785611 0.697505
0.891936 0.721309 0.589197
0.000000 0.970092 0.756893
0.000000 0.967681 0.752407
0.000000 0.960357 0.740505
0.242649 0.947906 0.722438
0.363012 0.922637 0.659022
0.407202 0.872374 0.534264
0.699123 0.857115 0.589868
0.919585 0.900664 0.760708
0.000000 0.388281 0.809689
0.000000 0.381872 0.813046
0.000000 0.342199 0.813169
0.216434 0.321843 0.813657
0.463691 0.276036 0.809659
0.646723 0.173739 0.801297
0.796475 0.000000 0.796628
0.937652 0.000000 0.799802
0.000000 0.399512 0.797574
0.000000 0.394537 0.801816
0.000000 0.353063 0.802670
0.199802 0.326390 0.800168
0.450507 0.280644 0.794919
0.630030 0.181491 0.783474
0.775265 0.000000 0.775418
0.913176 0.000000 0.777249
0.000000 0.493904 0.811856
0.000000 0.486793 0.812039
0.000000 0.451881 0.810330
0.230167 0.400610 0.808225
0.452430 0.354284 0.799954
0.631708 0.275731 0.790158
0.789395 0.193454 0.789395
0.938750 0.156924 0.799039
0.380529 0.641199 0.827390
0.374640 0.632593 0.824949
0.372534 0.605921 0.822110
0.389014 0.554681 0.823117
0.490730 0.495979 0.817563
0.649134 0.432715 0.810849
0.808988 0.377752 0.809049
0.953704 0.382940 0.814206
0.480781 0.736080 0.822507
0.481544 0.731411 0.820035
0.505699 0.722194 0.818296
0.557946 0.708461 0.820249
0.563317 0.645594 0.819181
0.654566 0.577905 0.810697
0.804257 0.519738 0.804257
0.953765 0.555993 0.820249
0.437171 0.786526 0.844602
0.453590 0.787503 0.844755
0.509728 0.789944 0.843961
0.596277 0.794553 0.842283
0.692287 0.799985 0.837522
0.729549 0.760342 0.837095
0.826230 0.705287 0.826169
0.951110 0.725612 0.835813
0.347845 0.868833 0.881590
0.375708 0.870146 0.882658
0.443610 0.869963 0.881529
0.545800 0.870237 0.879942
0.651148 0.867460 0.874693
0.751492 0.860258 0.864256
0.838437 0.838437 0.838437
0.938872 0.814481 0.814481
0.047517 1.000000 0.941375
0.183810 1.000000 0.940246
0.362524 0.997284 0.936095
0.503410 0.990082 0.924926
0.622644 0.977478 0.904692
0.716487 0.954711 0.868070
0.719783 0.892180 0.754269
0.924712 0.915587 0.852567
0.125673 0.536950 0.923827
0.154543 0.534112 0.925017
0.176913 0.505974 0.924254
0.334020 0.486336 0.925536
0.484260 0.459174 0.925353
0.630457 0.409155 0.923766
0.785519 0.324193 0.922728
0.921141 0.259678 0.921294
0.156893 0.544427 0.918517
0.178439 0.541405 0.919921
0.205631 0.516655 0.920409
0.331670 0.491524 0.921202
0.480018 0.463630 0.920989
0.625452 0.413245 0.919280
0.778653 0.324163 0.916625
0.913878 0.252445 0.914000
0.332036 0.606867 0.916503
0.335058 0.602777 0.916930
0.338842 0.580072 0.916777
0.392462 0.551263 0.921935
0.503563 0.520165 0.920195
0.629877 0.467506 0.916838
0.776730 0.387366 0.914641
0.912444 0.326513 0.912535
0.503044 0.706691 0.914946
0.505852 0.704555 0.915770
0.504784 0.688136 0.916106
0.512291 0.656825 0.919066
0.556146 0.615686 0.920409
0.653346 0.570855 0.918883
0.782620 0.501915 0.917510
0.916320 0.450233 0.916381
0.618128 0.797604 0.913909
0.624506 0.798032 0.914855
0.636988 0.792264 0.914794
0.642664 0.772702 0.916381
0.637720 0.727413 0.917845
0.683803 0.679316 0.916930
0.786984 0.621637 0.915892
0.917235 0.578058 0.917235
0.664546 0.858244 0.918425
0.667109 0.857389 0.917266
0.684504 0.856687 0.914397
0.710079 0.852537 0.914519
0.743801 0.842557 0.918425
0.758297 0.807401 0.924956
0.821897 0.771237 0.928161
0.929473 0.736477 0.929534
0.649866 0.899870 0.942748
0.654719 0.899840 0.942412
0.676875 0.900206 0.941283
0.722255 0.903044 0.940642
0.782254 0.907774 0.939849
0.849393 0.915526 0.939483
0.876280 0.894682 0.942870
0.936248 0.853574 0.936309
0.621668 0.955138 0.965362
0.627253 0.955047 0.965118
0.654871 0.955413 0.964904
0.708064 0.957031 0.965240
0.772519 0.958740 0.965179
0.838743 0.959930 0.964385
0.899626 0.959442 0.961730
0.945647 0.945647 0.945647
