20 Preset/Travel Style 2/【3】LUT video cho PR-AE-FCPX/Travel 2 LUT (23).cube
# Created by Adobe Lightroom plugin Export LUT (1.24.0)
# www.johnrellis.com/lightroom/exportlut.htm
# Preset: 23素材江湖 - DRONE
# Color profile: E:\lut插件\exportlut.1.24\exportlut.lrplugin\color profiles\Rec709gamma2.4.icc
LUT_3D_SIZE 32
DOMAIN_MIN 0.0 0.0 0.0
DOMAIN_MAX 1.0 1.0 1.0
0.111482 0.111482 0.111482
0.111482 0.111482 0.111482
0.111482 0.111482 0.111482
0.111482 0.111482 0.111482
0.112612 0.111360 0.111482
0.117922 0.110719 0.111452
0.124117 0.110231 0.111696
0.133486 0.109255 0.111604
0.147402 0.107301 0.111788
0.163943 0.105470 0.111849
0.181796 0.104860 0.111574
0.201419 0.104189 0.111177
0.222354 0.104036 0.110506
0.245853 0.104128 0.109834
0.272007 0.104311 0.108431
0.301518 0.105104 0.106691
0.334905 0.106844 0.104128
0.372992 0.107637 0.100832
0.415961 0.107240 0.096956
0.464851 0.106355 0.091676
0.523186 0.105104 0.079896
0.589990 0.103853 0.049866
0.657618 0.101961 0.013031
0.728145 0.100435 0.000000
0.798123 0.098116 0.000000
0.862882 0.096284 0.000000
0.922881 0.094514 0.000000
0.978576 0.097200 0.000000
1.000000 0.097017 0.000000
1.000000 0.102937 0.000000
1.000000 0.108705 0.000000
1.000000 0.118807 0.000000
0.111482 0.111482 0.111482
0.111482 0.111482 0.111482
0.111482 0.111482 0.111482
0.111482 0.111482 0.111482
0.112612 0.111360 0.111482
0.117922 0.110719 0.111452
0.124117 0.110231 0.111696
0.133486 0.109255 0.111604
0.147158 0.107027 0.111849
0.163485 0.105898 0.111788
0.181125 0.105348 0.111543
0.200351 0.104799 0.111147
0.221500 0.104311 0.110506
0.244480 0.104952 0.109804
0.270512 0.105257 0.108400
0.299840 0.105928 0.106722
0.333104 0.107851 0.104158
0.370794 0.108400 0.100984
0.413581 0.108034 0.097200
0.461982 0.107881 0.091524
0.519158 0.107301 0.080079
0.584039 0.105776 0.052094
0.650080 0.104128 0.017212
0.719173 0.103304 0.000000
0.789059 0.099794 0.000000
0.854093 0.099580 0.000000
0.914733 0.099031 0.000000
0.971252 0.098543 0.000000
1.000000 0.100954 0.000000
1.000000 0.103914 0.000000
1.000000 0.109773 0.000000
1.000000 0.119234 0.000000
0.111482 0.111482 0.111482
0.111482 0.111482 0.111482
0.111482 0.111482 0.111482
0.111482 0.111482 0.111482
0.113161 0.111299 0.111482
0.118410 0.110658 0.111452
0.124575 0.110170 0.111696
0.133913 0.109194 0.111604
0.147219 0.108675 0.111635
0.163455 0.107912 0.111543
0.181186 0.107027 0.111330
0.200320 0.106844 0.110872
0.221195 0.106752 0.110201
0.244205 0.107393 0.109499
0.269963 0.108492 0.108339
0.299199 0.109529 0.106294
0.332189 0.111543 0.103700
0.369879 0.112123 0.100893
0.412329 0.112428 0.097047
0.460578 0.112886 0.091341
0.517937 0.112673 0.079652
0.581750 0.112703 0.051606
0.647028 0.112215 0.015930
0.715419 0.112276 0.000000
0.784909 0.111269 0.000000
0.849790 0.111269 0.000000
0.910674 0.112337 0.000000
0.967376 0.113863 0.000000
1.000000 0.113497 0.000000
1.000000 0.117372 0.000000
1.000000 0.122988 0.000000
1.000000 0.129732 0.000000
0.111482 0.111482 0.111482
0.111482 0.111482 0.111482
0.111482 0.111482 0.111482
0.111269 0.111818 0.111421
0.114382 0.111788 0.111391
0.119142 0.111818 0.111604
0.125643 0.111635 0.111482
0.134768 0.111604 0.111574
0.148226 0.111360 0.111543
0.164401 0.111269 0.111391
0.181704 0.111421 0.111055
0.200687 0.111604 0.110536
0.221347 0.112184 0.109804
0.244297 0.113130 0.108705
0.269841 0.114504 0.107485
0.298833 0.116182 0.105653
0.331670 0.117830 0.103090
0.368811 0.119265 0.100557
0.410956 0.120150 0.096284
0.458625 0.121950 0.090761
0.514916 0.123445 0.078614
0.576928 0.124575 0.049775
0.640864 0.126406 0.015595
0.708675 0.128145 0.000000
0.778988 0.129152 0.000000
0.845396 0.131044 0.000000
0.907530 0.132753 0.000000
0.965423 0.133700 0.000000
1.000000 0.136660 0.000000
1.000000 0.139345 0.000000
1.000000 0.143282 0.000000
1.000000 0.149172 0.000000
0.111177 0.114290 0.111727
0.111177 0.114290 0.111727
0.110994 0.114595 0.111696
0.112581 0.114412 0.112001
0.115846 0.114961 0.111543
0.119966 0.114504 0.111513
0.126192 0.115511 0.111238
0.135836 0.116030 0.111238
0.149477 0.116640 0.111086
0.165255 0.117189 0.110842
0.182406 0.117647 0.110140
0.201083 0.118410 0.109865
0.221775 0.119509 0.109041
0.244480 0.121309 0.107790
0.269963 0.123354 0.106386
0.299199 0.125582 0.104463
0.332128 0.127504 0.102419
0.369574 0.129641 0.099336
0.411688 0.131899 0.095003
0.459571 0.134493 0.089113
0.515953 0.138003 0.074037
0.576715 0.141207 0.045258
0.640040 0.144656 0.010254
0.707851 0.148348 0.000000
0.778042 0.152316 0.000000
0.844602 0.155947 0.000000
0.906737 0.158145 0.000000
0.964385 0.160678 0.000000
1.000000 0.163668 0.000000
1.000000 0.166659 0.000000
1.000000 0.170962 0.000000
1.000000 0.174777 0.000000
0.110842 0.118441 0.112398
0.110842 0.118441 0.112398
0.111971 0.118318 0.112398
0.114076 0.118074 0.112703
0.116701 0.118654 0.112581
0.121859 0.118959 0.111788
0.129305 0.118349 0.111391
0.138857 0.120790 0.111086
0.151980 0.124147 0.110201
0.167117 0.125521 0.109804
0.184329 0.126375 0.109346
0.202914 0.128115 0.108583
0.223362 0.129885 0.107546
0.246494 0.132265 0.106416
0.272251 0.134432 0.104952
0.301579 0.136965 0.103120
0.334874 0.139803 0.100771
0.372656 0.142733 0.097627
0.415137 0.146456 0.093080
0.464515 0.150942 0.085542
0.520775 0.156161 0.064942
0.581323 0.161929 0.034485
0.687709 0.174655 0.000000
0.758907 0.180941 0.000000
0.826200 0.186160 0.000000
0.888487 0.191135 0.000000
0.945892 0.194186 0.000000
0.998596 0.197391 0.000000
1.000000 0.200443 0.000000
1.000000 0.203189 0.000000
1.000000 0.206851 0.000000
1.000000 0.210819 0.000000
0.113252 0.125124 0.112917
0.113252 0.125124 0.112917
0.114229 0.125002 0.113222
0.116609 0.125032 0.113497
0.119661 0.125490 0.113344
0.125704 0.126955 0.112337
0.134188 0.127047 0.111482
0.145510 0.125856 0.110750
0.158450 0.129213 0.109804
0.172915 0.133700 0.108858
0.189303 0.138796 0.107546
0.208347 0.141024 0.106538
0.229618 0.143099 0.105989
0.253117 0.145785 0.104677
0.279698 0.148501 0.103182
0.309789 0.151797 0.101228
0.343786 0.155642 0.098299
0.382055 0.160555 0.094514
0.426734 0.165896 0.088869
0.480323 0.172976 0.074983
0.540795 0.181338 0.044282
0.605859 0.189792 0.008148
0.675105 0.198306 0.000000
0.748440 0.207675 0.000000
0.818753 0.214969 0.000000
0.882597 0.220829 0.000000
0.940673 0.225437 0.000000
0.993622 0.229099 0.000000
1.000000 0.232425 0.000000
1.000000 0.234867 0.000000
1.000000 0.238224 0.000000
1.000000 0.241032 0.000000
0.116121 0.135164 0.113069
0.116670 0.135134 0.113069
0.117952 0.135225 0.113313
0.120058 0.135500 0.113527
0.124178 0.136049 0.113649
0.130678 0.137514 0.112612
0.140475 0.139284 0.111086
0.150454 0.138338 0.110353
0.163607 0.134646 0.109957
0.177462 0.138888 0.109010
0.193637 0.144106 0.107973
0.211704 0.150301 0.106447
0.232334 0.156863 0.104494
0.256046 0.160037 0.103243
0.282597 0.163638 0.101717
0.312566 0.167880 0.099367
0.346777 0.172946 0.096101
0.385840 0.178927 0.091829
0.432166 0.186587 0.083131
0.484382 0.195041 0.063630
0.543267 0.204776 0.031739
0.606775 0.215061 0.000000
0.674708 0.225498 0.000000
0.746853 0.236301 0.000000
0.816281 0.245304 0.000000
0.879728 0.252445 0.000000
0.937591 0.257877 0.000000
0.990570 0.262455 0.000000
1.000000 0.265782 0.000000
1.000000 0.268284 0.000000
1.000000 0.271061 0.000000
1.000000 0.273930 0.000000
0.120577 0.148806 0.114107
0.121096 0.148775 0.114107
0.122286 0.148867 0.114351
0.125002 0.149264 0.114839
0.129305 0.149691 0.115267
0.135897 0.150942 0.114260
0.145602 0.152438 0.112764
0.157900 0.154116 0.111086
0.168643 0.152010 0.110231
0.182315 0.146761 0.109529
0.198917 0.150423 0.108400
0.216770 0.156771 0.107057
0.237125 0.164004 0.105196
0.260197 0.172946 0.102327
0.287022 0.181216 0.099580
0.317510 0.186191 0.096956
0.352819 0.192905 0.092927
0.393256 0.200656 0.087251
0.439094 0.209415 0.073976
0.490883 0.219516 0.048737
0.548974 0.230961 0.014801
0.611109 0.242527 0.000000
0.678248 0.254520 0.000000
0.749264 0.266850 0.000000
0.817411 0.276951 0.000000
0.879973 0.285130 0.000000
0.937194 0.291630 0.000000
0.989685 0.296422 0.000000
1.000000 0.299992 0.000000
1.000000 0.302861 0.000000
1.000000 0.305211 0.000000
1.000000 0.307347 0.000000
0.126345 0.164645 0.116701
0.126619 0.164797 0.116670
0.128237 0.164858 0.116915
0.131502 0.165286 0.117342
0.136233 0.165591 0.118318
0.142794 0.166476 0.117983
0.151614 0.167788 0.116274
0.163607 0.169436 0.114015
0.177829 0.170993 0.111574
0.189181 0.167483 0.110414
0.203006 0.160922 0.109743
0.221927 0.164157 0.108064
0.242161 0.171542 0.106325
0.265324 0.180453 0.104036
0.292485 0.191501 0.100160
0.324498 0.204898 0.094789
0.360845 0.215793 0.089357
0.401801 0.224765 0.079713
0.447913 0.235111 0.058412
0.500008 0.246738 0.030213
0.557092 0.259464 0.000000
0.617639 0.271824 0.000000
0.682551 0.284886 0.000000
0.750851 0.297642 0.000000
0.816342 0.308690 0.000000
0.877348 0.317632 0.000000
0.934081 0.324590 0.000000
0.986450 0.330053 0.000000
1.000000 0.334142 0.000000
1.000000 0.337316 0.000000
1.000000 0.339574 0.000000
1.000000 0.341497 0.000000
0.134371 0.182498 0.121370
0.134798 0.182467 0.121370
0.136904 0.182589 0.121828
0.139834 0.182986 0.122499
0.145205 0.183627 0.123873
0.151797 0.184634 0.124849
0.160220 0.185916 0.122652
0.171450 0.187320 0.120302
0.184939 0.189151 0.117037
0.201236 0.190738 0.113252
0.212741 0.185977 0.111513
0.226627 0.178134 0.110414
0.249210 0.180667 0.108095
0.272953 0.190066 0.105715
0.300664 0.201602 0.102113
0.332372 0.215244 0.096742
0.368872 0.231296 0.089235
0.410590 0.250126 0.067445
0.457099 0.262547 0.041199
0.509087 0.275578 0.006073
0.565423 0.288853 0.000000
0.625177 0.302678 0.000000
0.689326 0.316899 0.000000
0.756435 0.330877 0.000000
0.820401 0.342840 0.000000
0.880095 0.352422 0.000000
0.935729 0.359747 0.000000
0.987366 0.365484 0.000000
1.000000 0.369726 0.000000
1.000000 0.372808 0.000000
1.000000 0.374884 0.000000
1.000000 0.376501 0.000000
0.145022 0.203555 0.127993
0.145602 0.203647 0.128237
0.147097 0.203799 0.128695
0.150607 0.204349 0.129213
0.155917 0.205142 0.130404
0.162814 0.206394 0.132448
0.171481 0.207797 0.131594
0.182162 0.209384 0.128573
0.195102 0.211032 0.125307
0.211002 0.213077 0.121340
0.229557 0.215000 0.116396
0.241733 0.208988 0.114076
0.264561 0.205753 0.112490
0.293034 0.208042 0.108431
0.322972 0.220951 0.104555
0.357519 0.236240 0.098390
0.396887 0.253941 0.088594
0.442084 0.274571 0.057893
0.493172 0.298497 0.007202
0.549310 0.322576 0.000000
0.606928 0.337255 0.000000
0.667567 0.351965 0.000000
0.731655 0.366766 0.000000
0.793942 0.379644 0.000000
0.852659 0.390173 0.000000
0.907713 0.397955 0.000000
0.958648 0.404181 0.000000
1.000000 0.408637 0.000000
1.000000 0.411566 0.000000
1.000000 0.413519 0.000000
1.000000 0.414496 0.000000
1.000000 0.415137 0.000000
0.159121 0.232273 0.136263
0.159335 0.232364 0.136233
0.161379 0.232670 0.136812
0.164828 0.233310 0.137484
0.170230 0.234348 0.138918
0.178042 0.235935 0.140810
0.187533 0.237797 0.142061
0.198611 0.239506 0.138949
0.211948 0.241459 0.135317
0.228244 0.243839 0.130709
0.247349 0.246525 0.125277
0.269169 0.249210 0.118868
0.282719 0.241947 0.116060
0.297154 0.230838 0.114351
0.330114 0.232120 0.107942
0.364538 0.247562 0.102174
0.403754 0.265354 0.092134
0.448066 0.285710 0.065888
0.498268 0.309209 0.013672
0.552850 0.334936 0.000000
0.610956 0.362371 0.000000
0.671839 0.384955 0.000000
0.734615 0.400610 0.000000
0.795407 0.414008 0.000000
0.852995 0.424750 0.000000
0.907225 0.433234 0.000000
0.957733 0.439612 0.000000
1.000000 0.444312 0.000000
1.000000 0.447272 0.000000
1.000000 0.449317 0.000000
1.000000 0.450233 0.000000
1.000000 0.450629 0.000000
0.173953 0.264775 0.143740
0.174105 0.264866 0.143923
0.176272 0.264805 0.144320
0.179660 0.265507 0.145113
0.185672 0.266484 0.146151
0.193729 0.268101 0.148226
0.203983 0.270603 0.150942
0.215274 0.272282 0.148592
0.229068 0.273930 0.144533
0.245457 0.276127 0.139528
0.264347 0.278843 0.133852
0.286076 0.281712 0.126925
0.310185 0.284489 0.118563
0.323461 0.274876 0.115755
0.337194 0.261448 0.113893
0.372869 0.259831 0.105196
0.411658 0.277745 0.095552
0.455421 0.298009 0.074281
0.504875 0.321386 0.020752
0.558404 0.346685 0.000000
0.615503 0.373754 0.000000
0.677089 0.403143 0.000000
0.740658 0.433478 0.000000
0.800473 0.450538 0.000000
0.856718 0.461585 0.000000
0.909789 0.470039 0.000000
0.959228 0.476448 0.000000
1.000000 0.480995 0.000000
1.000000 0.483894 0.000000
1.000000 0.485725 0.000000
1.000000 0.486458 0.000000
1.000000 0.486519 0.000000
0.190066 0.302251 0.150698
0.190646 0.302373 0.150668
0.192447 0.302403 0.151217
0.196414 0.303014 0.151705
0.202823 0.303990 0.153231
0.211185 0.305638 0.155001
0.222171 0.308415 0.157839
0.235355 0.311315 0.158511
0.249271 0.312871 0.154116
0.266056 0.315099 0.148653
0.285557 0.317601 0.142153
0.307897 0.320714 0.134371
0.332464 0.323522 0.125460
0.357305 0.324926 0.115175
0.370916 0.313329 0.111574
0.384497 0.297185 0.109895
0.420996 0.291783 0.098634
0.464668 0.311864 0.079622
0.513451 0.335088 0.024018
0.566094 0.360113 0.000000
0.622370 0.386908 0.000000
0.683436 0.416205 0.000000
0.746029 0.446143 0.000000
0.805600 0.474220 0.000000
0.861570 0.499397 0.000000
0.913207 0.507866 0.000000
0.961700 0.514275 0.000000
1.000000 0.518608 0.000000
1.000000 0.521447 0.000000
1.000000 0.523033 0.000000
1.000000 0.523674 0.000000
1.000000 0.523491 0.000000
0.208438 0.345190 0.156435
0.208774 0.345434 0.156527
0.211124 0.345678 0.157137
0.215274 0.346777 0.157931
0.222049 0.348333 0.159213
0.231693 0.350835 0.161318
0.243839 0.354589 0.164279
0.259403 0.359747 0.167819
0.274937 0.362188 0.164065
0.292790 0.364080 0.157778
0.312993 0.366400 0.150484
0.335698 0.368658 0.141299
0.360357 0.370733 0.130678
0.386328 0.372320 0.118135
0.411200 0.371038 0.104799
0.423987 0.356298 0.100954
0.437140 0.337530 0.099916
0.474403 0.330663 0.082429
0.521904 0.348974 0.028382
0.573877 0.373938 0.000000
0.630182 0.401068 0.000000
0.691341 0.430579 0.000000
0.752987 0.460151 0.000000
0.811704 0.487892 0.000000
0.866911 0.513603 0.000000
0.918517 0.537346 0.000000
0.966033 0.553491 0.000000
1.000000 0.557549 0.000000
1.000000 0.559899 0.000000
1.000000 0.560906 0.000000
1.000000 0.560876 0.000000
1.000000 0.560143 0.000000
0.229007 0.394751 0.160800
0.229648 0.394812 0.160952
0.231846 0.395331 0.161563
0.236332 0.396582 0.162325
0.243626 0.398596 0.163912
0.254002 0.401709 0.166140
0.267643 0.406012 0.169162
0.284398 0.411963 0.173098
0.302861 0.417090 0.173709
0.321386 0.418830 0.166629
0.342687 0.420813 0.157748
0.366369 0.422889 0.147311
0.391882 0.424872 0.134981
0.419013 0.426154 0.120150
0.447181 0.426642 0.100954
0.472145 0.423163 0.076295
0.484810 0.405646 0.067536
0.497993 0.384466 0.067506
0.534752 0.374853 0.023072
0.584161 0.389685 0.000000
0.640314 0.416938 0.000000
0.700954 0.446571 0.000000
0.761196 0.475471 0.000000
0.818723 0.502678 0.000000
0.873106 0.527886 0.000000
0.923735 0.551049 0.000000
0.970581 0.572290 0.000000
1.000000 0.591302 0.000000
1.000000 0.598718 0.000000
1.000000 0.599207 0.000000
1.000000 0.598688 0.000000
1.000000 0.597375 0.000000
0.253025 0.453590 0.164279
0.254063 0.454108 0.164492
0.263981 0.472724 0.166384
0.269657 0.474128 0.167483
0.278019 0.476570 0.169497
0.289982 0.480018 0.172091
0.305211 0.484749 0.175906
0.324163 0.490822 0.180728
0.346380 0.498634 0.187106
0.367376 0.500725 0.179690
0.390265 0.501976 0.169192
0.415473 0.503044 0.155917
0.442267 0.503532 0.140047
0.470527 0.503319 0.120272
0.499367 0.502190 0.093904
0.529015 0.500359 0.021942
0.552880 0.492226 0.000000
0.564538 0.470344 0.000000
0.576318 0.444800 0.000000
0.611292 0.430671 0.000000
0.663020 0.441230 0.000000
0.721950 0.469947 0.000000
0.779171 0.497261 0.000000
0.833982 0.522911 0.000000
0.885405 0.546441 0.000000
0.933440 0.568078 0.000000
0.977905 0.587793 0.000000
1.000000 0.605768 0.000000
1.000000 0.622034 0.000000
1.000000 0.636744 0.000000
1.000000 0.636378 0.000000
1.000000 0.634455 0.000000
0.282872 0.523125 0.169070
0.284154 0.525078 0.169497
0.288212 0.527825 0.170321
0.294469 0.530999 0.171786
0.304112 0.534966 0.174258
0.316625 0.538872 0.177340
0.332677 0.543816 0.181796
0.351720 0.549828 0.187472
0.374762 0.557641 0.194614
0.398993 0.563287 0.195224
0.422065 0.564233 0.183841
0.447578 0.565026 0.169741
0.475044 0.565148 0.152010
0.503777 0.564935 0.130892
0.533867 0.563867 0.101228
0.564782 0.562127 0.019379
0.596063 0.559594 0.000000
0.620142 0.549432 0.000000
0.632746 0.526085 0.000000
0.645594 0.498939 0.000000
0.679866 0.482185 0.000000
0.731746 0.486915 0.000000
0.787716 0.513695 0.000000
0.841306 0.538750 0.000000
0.891600 0.561730 0.000000
0.938628 0.582788 0.000000
0.982116 0.601923 0.000000
1.000000 0.619318 0.000000
1.000000 0.635096 0.000000
1.000000 0.649470 0.000000
1.000000 0.662440 0.000000
1.000000 0.670863 0.000000
0.312261 0.588495 0.175753
0.314153 0.590661 0.176394
0.318151 0.593622 0.177371
0.324620 0.597040 0.179477
0.334722 0.601007 0.182254
0.347662 0.604974 0.186343
0.364538 0.609979 0.191714
0.384161 0.615747 0.198734
0.407630 0.622797 0.207218
0.434638 0.631220 0.218326
0.458076 0.632166 0.207767
0.483558 0.632380 0.192752
0.510979 0.632288 0.174960
0.540154 0.631739 0.153048
0.570916 0.630610 0.123507
0.602533 0.628779 0.067659
0.635035 0.626154 0.000000
0.668025 0.622980 0.000000
0.691737 0.610529 0.000000
0.704952 0.585351 0.000000
0.718441 0.556451 0.000000
0.748714 0.534813 0.000000
0.797330 0.531060 0.000000
0.849699 0.555535 0.000000
0.898863 0.577935 0.000000
0.944762 0.598383 0.000000
0.987152 0.616907 0.000000
1.000000 0.633722 0.000000
1.000000 0.649042 0.000000
1.000000 0.662959 0.000000
1.000000 0.675624 0.000000
1.000000 0.687190 0.000000
0.346288 0.655726 0.191379
0.347662 0.657527 0.192325
0.351507 0.659815 0.194064
0.358282 0.662745 0.197055
0.368261 0.666011 0.200809
0.381170 0.669337 0.206271
0.397803 0.673640 0.212863
0.417548 0.678492 0.221286
0.440955 0.684535 0.232029
0.467750 0.691493 0.245029
0.493874 0.695888 0.247959
0.518151 0.695796 0.233524
0.544762 0.695399 0.216220
0.573297 0.694514 0.195865
0.603540 0.693477 0.170596
0.635279 0.691798 0.137362
0.668605 0.689845 0.082246
0.702968 0.687587 0.000000
0.738216 0.684962 0.000000
0.762753 0.671290 0.000000
0.777951 0.645899 0.000000
0.793393 0.616449 0.000000
0.820706 0.590723 0.000000
0.866789 0.578485 0.000000
0.915038 0.600519 0.000000
0.959655 0.620325 0.000000
1.000000 0.638117 0.000000
1.000000 0.654078 0.000000
1.000000 0.668605 0.000000
1.000000 0.681819 0.000000
1.000000 0.693812 0.000000
1.000000 0.704952 0.000000
0.390112 0.727047 0.230808
0.391333 0.727840 0.231601
0.394507 0.728756 0.233341
0.400732 0.730190 0.236027
0.409979 0.731991 0.240299
0.422370 0.734249 0.245975
0.437690 0.737179 0.253758
0.457404 0.741054 0.263310
0.479927 0.745724 0.275486
0.506004 0.751461 0.290837
0.535058 0.757992 0.308782
0.557488 0.758083 0.296483
0.581811 0.757595 0.280125
0.608484 0.756802 0.260990
0.637049 0.755489 0.239200
0.667659 0.753780 0.212406
0.699794 0.751736 0.180301
0.733547 0.749203 0.136080
0.768399 0.746304 0.013825
0.804318 0.743038 0.000000
0.827146 0.726802 0.000000
0.842069 0.699886 0.000000
0.857115 0.668788 0.000000
0.880461 0.639033 0.000000
0.923003 0.619867 0.000000
0.966308 0.637140 0.000000
1.000000 0.654444 0.000000
1.000000 0.670069 0.000000
1.000000 0.684108 0.000000
1.000000 0.696895 0.000000
1.000000 0.708644 0.000000
1.000000 0.719692 0.130007
0.433265 0.781552 0.281315
0.434119 0.782101 0.282170
0.437171 0.782986 0.284001
0.442969 0.783993 0.287358
0.451728 0.785580 0.291844
0.463355 0.787381 0.298161
0.478584 0.789792 0.306371
0.497139 0.792874 0.316716
0.518578 0.796567 0.329717
0.543389 0.801083 0.345617
0.570764 0.806180 0.363561
0.595514 0.809140 0.368902
0.616632 0.808652 0.354284
0.640192 0.808103 0.337499
0.666102 0.807126 0.318059
0.694209 0.805875 0.295323
0.724422 0.804288 0.269657
0.756497 0.802304 0.238560
0.790341 0.799924 0.201419
0.825559 0.797177 0.151003
0.862028 0.794064 0.016083
0.884092 0.776333 0.000000
0.899565 0.749172 0.000000
0.915373 0.718074 0.000000
0.932097 0.682429 0.000000
0.971954 0.661128 0.000000
1.000000 0.670253 0.000000
1.000000 0.685512 0.000000
1.000000 0.699306 0.000000
1.000000 0.711910 0.000000
1.000000 0.723598 0.097566
1.000000 0.734890 0.188266
0.486702 0.833860 0.351568
0.488167 0.834623 0.353033
0.490822 0.835172 0.354833
0.495796 0.835782 0.357580
0.503319 0.836423 0.361303
0.513390 0.837217 0.366735
0.526421 0.838407 0.373785
0.542473 0.840024 0.382971
0.561852 0.842252 0.394751
0.584039 0.845060 0.409064
0.608453 0.848295 0.426001
0.635523 0.852140 0.445686
0.652857 0.851713 0.433448
0.672053 0.850858 0.417395
0.693477 0.849607 0.398932
0.717372 0.848203 0.378637
0.743923 0.846494 0.355657
0.772793 0.844785 0.330358
0.804044 0.842832 0.301213
0.837339 0.840787 0.268223
0.872465 0.838437 0.228489
0.908904 0.835599 0.175479
0.929564 0.816709 0.124788
0.945190 0.789639 0.019440
0.961059 0.758145 0.000000
0.979889 0.724453 0.000000
1.000000 0.701015 0.000000
1.000000 0.702235 0.000000
1.000000 0.715480 0.000000
1.000000 0.727718 0.033936
1.000000 0.739376 0.164920
1.000000 0.749935 0.231998
0.536431 0.872557 0.418372
0.537957 0.873106 0.419715
0.540826 0.873686 0.421881
0.545281 0.874205 0.424903
0.552300 0.874876 0.429053
0.561944 0.875792 0.434821
0.574334 0.876982 0.442603
0.589776 0.878538 0.452735
0.607874 0.880491 0.465217
0.628687 0.882780 0.480079
0.651514 0.885313 0.497200
0.676204 0.888212 0.516625
0.696376 0.889769 0.522759
0.711086 0.889281 0.508934
0.727871 0.888548 0.492531
0.747036 0.887541 0.473976
0.768948 0.886351 0.453498
0.793423 0.885039 0.431098
0.820706 0.883635 0.407111
0.850553 0.882048 0.380011
0.882567 0.880247 0.350439
0.916655 0.878080 0.316350
0.952422 0.875456 0.275700
0.971771 0.855985 0.241398
0.988037 0.829709 0.205447
1.000000 0.799496 0.164981
1.000000 0.765591 0.115206
1.000000 0.740719 0.000000
1.000000 0.735042 0.041535
1.000000 0.746975 0.160891
1.000000 0.757382 0.223209
1.000000 0.767544 0.282078
0.596246 0.907836 0.497871
0.597223 0.908080 0.498817
0.599329 0.908324 0.500420
0.603357 0.908629 0.502983
0.609308 0.908995 0.506828
0.617639 0.909545 0.512139
0.628382 0.910277 0.519188
0.641535 0.911223 0.528252
0.657130 0.912444 0.539147
0.674922 0.913939 0.552026
0.694484 0.915679 0.566644
0.715694 0.917632 0.582940
0.737911 0.919768 0.600610
0.750118 0.919738 0.592035
0.763027 0.919341 0.579431
0.778073 0.918761 0.564721
0.795224 0.918059 0.548516
0.814939 0.917235 0.529992
0.837339 0.916381 0.510094
0.862425 0.915435 0.487709
0.890074 0.914305 0.462928
0.920195 0.912871 0.435462
0.952575 0.910979 0.404395
0.987030 0.908721 0.369024
1.000000 0.889158 0.338872
1.000000 0.864256 0.307195
1.000000 0.835630 0.273899
1.000000 0.802640 0.237339
1.000000 0.776516 0.205875
1.000000 0.763577 0.208286
1.000000 0.773739 0.265293
1.000000 0.783902 0.322393
0.654078 0.935882 0.573083
0.654871 0.936065 0.573785
0.656641 0.936278 0.575097
0.660090 0.936522 0.577600
0.665492 0.936889 0.581201
0.672816 0.937438 0.586481
0.682795 0.938293 0.593896
0.694911 0.939361 0.602869
0.709163 0.940673 0.613794
0.725307 0.942168 0.626398
0.743038 0.943816 0.640558
0.761685 0.945525 0.655695
0.781186 0.947234 0.671839
0.796628 0.948363 0.678676
0.806699 0.948577 0.670192
0.818051 0.948516 0.660029
0.831022 0.948363 0.648615
0.846036 0.948089 0.635492
0.863279 0.947753 0.621210
0.882933 0.947356 0.605371
0.904845 0.946868 0.588190
0.929229 0.946136 0.568688
0.956054 0.945098 0.546471
0.985382 0.943725 0.520958
1.000000 0.941985 0.491615
1.000000 0.923033 0.461585
1.000000 0.900053 0.429969
1.000000 0.872984 0.395758
1.000000 0.841825 0.360449
1.000000 0.814664 0.333379
1.000000 0.795956 0.329808
1.000000 0.805936 0.385138
0.719875 0.962402 0.656306
0.720150 0.962432 0.656550
0.721401 0.962432 0.657343
0.723690 0.962463 0.658808
0.727657 0.962554 0.661402
0.733120 0.962707 0.665064
0.740383 0.962951 0.670100
0.749233 0.963256 0.676356
0.759976 0.963714 0.684199
0.772122 0.964233 0.693172
0.785580 0.964874 0.703517
0.800198 0.965606 0.714961
0.815640 0.966339 0.727291
0.831479 0.967132 0.740291
