20 Preset/Travel Style 2/【3】LUT video cho PR-AE-FCPX/Travel 2 LUT (8).cube
# Created by Adobe Lightroom plugin Export LUT (1.24.0)
# www.johnrellis.com/lightroom/exportlut.htm
# Preset: 08素材江湖 - LANDSCAPE
# Color profile: E:\lut插件\exportlut.1.24\exportlut.lrplugin\color profiles\Rec709gamma2.4.icc
LUT_3D_SIZE 32
DOMAIN_MIN 0.0 0.0 0.0
DOMAIN_MAX 1.0 1.0 1.0
0.126223 0.126223 0.126223
0.126467 0.126467 0.126467
0.127871 0.126314 0.126467
0.130404 0.126284 0.126406
0.135103 0.126497 0.126558
0.144625 0.126314 0.126619
0.159670 0.126223 0.126802
0.177066 0.125643 0.126619
0.195224 0.125032 0.126619
0.214603 0.124392 0.126497
0.235843 0.123201 0.126253
0.259190 0.121950 0.126070
0.285863 0.119875 0.125612
0.316258 0.117067 0.125002
0.350805 0.113375 0.123873
0.390021 0.108156 0.122560
0.433356 0.100679 0.120699
0.481392 0.089723 0.117952
0.534081 0.057862 0.114321
0.591974 0.003021 0.109346
0.650355 0.000000 0.103365
0.735103 0.000000 0.091524
0.810636 0.000000 0.066285
0.877012 0.000000 0.031403
0.932219 0.000000 0.001740
0.979736 0.000000 0.000000
1.000000 0.000000 0.000000
1.000000 0.000000 0.000000
1.000000 0.000000 0.000000
1.000000 0.000000 0.000000
1.000000 0.000000 0.000000
1.000000 0.000000 0.000000
0.126467 0.126467 0.126467
0.126467 0.126467 0.126467
0.127687 0.126589 0.126436
0.130190 0.126558 0.126650
0.134890 0.126772 0.126772
0.143618 0.126711 0.126864
0.157992 0.126467 0.126802
0.174960 0.126009 0.126894
0.192264 0.125887 0.126894
0.211093 0.124971 0.126558
0.231937 0.123995 0.126589
0.254704 0.122560 0.126223
0.280278 0.121126 0.125765
0.309361 0.118929 0.125277
0.342870 0.115419 0.124269
0.381048 0.110780 0.122835
0.423957 0.103975 0.121157
0.470985 0.094057 0.118654
0.522576 0.073854 0.115297
0.578912 0.022797 0.110872
0.637049 0.000000 0.104768
0.717494 0.000000 0.094087
0.789487 0.000000 0.077119
0.854490 0.000000 0.043519
0.910277 0.000000 0.013642
0.958404 0.000000 0.000000
1.000000 0.000000 0.000000
1.000000 0.000000 0.000000
1.000000 0.000000 0.000000
1.000000 0.000000 0.000000
1.000000 0.000000 0.000000
1.000000 0.000000 0.000000
0.126741 0.127199 0.126894
0.126741 0.127199 0.126894
0.127230 0.127138 0.126894
0.128969 0.127718 0.127047
0.133303 0.127993 0.127169
0.141085 0.128603 0.127199
0.154360 0.128573 0.127138
0.170504 0.128603 0.127199
0.188052 0.128023 0.127016
0.206577 0.127565 0.126925
0.226871 0.126650 0.126741
0.248783 0.125948 0.126345
0.273960 0.124422 0.125978
0.302251 0.122683 0.125521
0.334752 0.119997 0.124880
0.371527 0.116182 0.123629
0.413092 0.111116 0.122072
0.459968 0.103334 0.119692
0.510918 0.091585 0.116365
0.566522 0.060609 0.112154
0.626001 0.007355 0.106325
0.705470 0.000000 0.096376
0.775814 0.000000 0.081727
0.840452 0.000000 0.051026
0.895995 0.000000 0.020569
0.944976 0.000000 0.000000
0.990173 0.000000 0.000000
1.000000 0.000000 0.000000
1.000000 0.000000 0.000000
1.000000 0.000000 0.000000
1.000000 0.000000 0.000000
1.000000 0.000000 0.000000
0.127352 0.128664 0.127718
0.127810 0.128634 0.127718
0.128084 0.128847 0.127687
0.129458 0.128695 0.127687
0.132540 0.129610 0.128023
0.137942 0.130465 0.128054
0.149477 0.131228 0.127932
0.164950 0.131746 0.127718
0.181857 0.131930 0.127718
0.200259 0.131685 0.127382
0.219974 0.131380 0.127169
0.241459 0.130800 0.127077
0.265446 0.130007 0.126741
0.292638 0.128939 0.126345
0.323705 0.127047 0.125582
0.358465 0.125063 0.124727
0.398138 0.121645 0.123110
0.442237 0.116732 0.121157
0.491066 0.109712 0.118502
0.545006 0.099153 0.114534
0.606317 0.079347 0.109163
0.680598 0.011597 0.100557
0.748318 0.000000 0.089845
0.812985 0.000000 0.065827
0.873045 0.000000 0.032685
0.926940 0.000000 0.003143
0.976501 0.000000 0.000000
1.000000 0.000000 0.000000
1.000000 0.000000 0.000000
1.000000 0.000000 0.000000
1.000000 0.000000 0.000000
1.000000 0.000000 0.000000
0.128969 0.130983 0.128939
0.128817 0.131258 0.128908
0.129549 0.131411 0.128878
0.130709 0.131533 0.128847
0.133425 0.131716 0.129000
0.138827 0.133059 0.129213
0.144289 0.133852 0.129244
0.156558 0.135134 0.129030
0.172946 0.136049 0.128695
0.190188 0.136690 0.128573
0.209415 0.136782 0.128115
0.230045 0.136751 0.128054
0.253056 0.136660 0.127749
0.278996 0.136568 0.127413
0.308598 0.136049 0.126925
0.342168 0.135348 0.126162
0.380713 0.133730 0.125002
0.424414 0.131411 0.123354
0.473182 0.127138 0.120912
0.526024 0.121401 0.117281
0.590997 0.112612 0.112062
0.661738 0.098177 0.103792
0.728176 0.064240 0.093690
0.793362 0.000000 0.076417
0.855650 0.000000 0.041535
0.912535 0.000000 0.008423
0.964263 0.000000 0.000000
1.000000 0.000000 0.000000
1.000000 0.000000 0.000000
1.000000 0.000000 0.000000
1.000000 0.000000 0.000000
1.000000 0.000000 0.000000
0.130159 0.135439 0.130831
0.130159 0.135439 0.130831
0.130953 0.135592 0.130556
0.132631 0.136141 0.130678
0.135744 0.136965 0.130495
0.141329 0.137026 0.130892
0.149905 0.138766 0.130953
0.155947 0.139376 0.130709
0.163790 0.139925 0.130678
0.180575 0.141482 0.130220
0.199069 0.142611 0.129946
0.219150 0.143404 0.129824
0.241184 0.144320 0.129732
0.266423 0.144839 0.129427
0.294804 0.145693 0.129183
0.327489 0.146059 0.128511
0.365209 0.146242 0.127596
0.408057 0.146120 0.126009
0.455573 0.145205 0.123873
0.508232 0.143160 0.120577
0.577722 0.139742 0.114961
0.647913 0.133639 0.106844
0.827451 0.119265 0.059266
0.895415 0.098024 0.021668
0.951995 0.053193 0.000000
1.000000 0.000000 0.000000
1.000000 0.000000 0.000000
1.000000 0.000000 0.000000
1.000000 0.000000 0.000000
1.000000 0.000000 0.000000
1.000000 0.000000 0.008362
1.000000 0.000000 0.067323
0.133150 0.145235 0.134554
0.132998 0.145480 0.134524
0.134127 0.145571 0.134463
0.136355 0.146426 0.134310
0.140993 0.147433 0.134279
0.148501 0.149142 0.134340
0.158145 0.149447 0.134798
0.169467 0.151095 0.135470
0.174838 0.149752 0.134554
0.178622 0.148409 0.133700
0.192813 0.149569 0.133547
0.213596 0.151797 0.133211
0.236362 0.153628 0.133211
0.261784 0.155581 0.132937
0.289982 0.157351 0.132845
0.322881 0.159152 0.132204
0.360113 0.161044 0.131350
0.403021 0.162905 0.129793
0.451972 0.164370 0.127230
0.516747 0.166476 0.122988
0.596582 0.168368 0.115480
0.679042 0.168185 0.104829
0.760983 0.164950 0.090242
0.840116 0.159579 0.053895
0.909697 0.150240 0.013062
0.967193 0.138491 0.000000
1.000000 0.123995 0.000000
1.000000 0.108736 0.000000
1.000000 0.088716 0.000000
1.000000 0.044495 0.000000
1.000000 0.010773 0.000000
1.000000 0.000000 0.044892
0.137514 0.155764 0.139681
0.137514 0.155764 0.139681
0.138277 0.155917 0.139437
0.140200 0.156527 0.139071
0.144656 0.157809 0.139467
0.151919 0.159365 0.139528
0.162356 0.161410 0.139864
0.173953 0.161837 0.141543
0.186618 0.163485 0.142519
0.191318 0.161227 0.140475
0.194186 0.158389 0.138796
0.198367 0.156435 0.137331
0.219272 0.159335 0.137301
0.242435 0.162295 0.137270
0.269017 0.165133 0.137209
0.298283 0.168032 0.136751
0.332891 0.171145 0.135927
0.372595 0.174319 0.134768
0.422705 0.178683 0.132601
0.486732 0.184360 0.128786
0.559075 0.189517 0.122560
0.637995 0.194095 0.113436
0.717708 0.196994 0.100649
0.797299 0.197391 0.081666
0.871489 0.195254 0.038270
0.933471 0.190890 0.002014
0.986542 0.183963 0.000000
1.000000 0.176425 0.000000
1.000000 0.168124 0.000000
1.000000 0.159487 0.000000
1.000000 0.153017 0.000000
1.000000 0.149996 0.036744
0.144594 0.167758 0.147402
0.144594 0.167758 0.147402
0.145174 0.168063 0.147127
0.146914 0.168246 0.146639
0.150942 0.169284 0.146822
0.157076 0.171084 0.147250
0.166171 0.173373 0.147738
0.178775 0.176303 0.148409
0.192294 0.177096 0.150851
0.207309 0.179477 0.151858
0.211063 0.175906 0.148836
0.212894 0.171664 0.146059
0.212192 0.166781 0.143191
0.224674 0.167269 0.142000
0.248966 0.171084 0.141939
0.276097 0.174777 0.141604
0.307652 0.178958 0.141176
0.347204 0.184176 0.140139
0.396918 0.191104 0.138369
0.455146 0.198398 0.135225
0.521477 0.206332 0.129976
0.597192 0.214237 0.122042
0.676478 0.221347 0.110780
0.755306 0.226688 0.096193
0.832456 0.229953 0.065949
0.899931 0.229648 0.024384
0.957366 0.227420 0.000000
1.000000 0.223423 0.000000
1.000000 0.219059 0.000000
1.000000 0.214115 0.000000
1.000000 0.210330 0.000000
1.000000 0.208286 0.039979
0.152743 0.181643 0.156222
0.152926 0.181491 0.156069
0.153201 0.181613 0.155825
0.154482 0.181827 0.155367
0.157687 0.182345 0.155215
0.163363 0.184146 0.155612
0.171542 0.186404 0.156222
0.183017 0.189578 0.156985
0.198184 0.193423 0.158053
0.213840 0.194888 0.161166
0.231968 0.198093 0.162478
0.234318 0.192721 0.158236
0.234348 0.186557 0.154025
0.231540 0.180056 0.150149
0.228824 0.174044 0.146609
0.253819 0.178744 0.146304
0.285496 0.185031 0.146517
0.323522 0.191989 0.145907
0.369207 0.200107 0.144503
0.422919 0.208896 0.141756
0.484047 0.218631 0.137789
0.553216 0.228580 0.131228
0.627527 0.238407 0.121675
0.703853 0.246647 0.109712
0.778408 0.253269 0.094026
0.849699 0.257694 0.059663
0.913359 0.259464 0.018738
0.970428 0.259190 0.000000
1.000000 0.257725 0.000000
1.000000 0.256168 0.000000
1.000000 0.254032 0.000000
1.000000 0.253544 0.043793
0.160922 0.195865 0.165225
0.160800 0.196017 0.165194
0.161410 0.196109 0.164981
0.162905 0.196262 0.164584
0.165011 0.196811 0.164065
0.170626 0.198825 0.164523
0.178592 0.201511 0.165316
0.189578 0.205142 0.166415
0.203769 0.209659 0.167758
0.222721 0.215366 0.169192
0.242100 0.217807 0.173159
0.265019 0.222721 0.174868
0.265293 0.214664 0.168826
0.262608 0.205905 0.163149
0.258824 0.197635 0.158389
0.252659 0.189181 0.153658
0.263767 0.188510 0.151492
0.297124 0.196017 0.151431
0.337285 0.204562 0.150393
0.385107 0.214328 0.148623
0.441077 0.225193 0.145480
0.505241 0.237095 0.140322
0.577752 0.249851 0.132418
0.654108 0.261845 0.121645
0.730678 0.272190 0.108034
0.805539 0.280827 0.090181
0.875761 0.286900 0.050721
0.938567 0.290501 0.012909
0.995422 0.292210 0.000000
1.000000 0.292851 0.000000
1.000000 0.293400 0.008484
1.000000 0.294163 0.061280
0.170230 0.214420 0.176089
0.170413 0.214542 0.176059
0.171267 0.214603 0.175845
0.172549 0.214878 0.175448
0.174807 0.215335 0.174990
0.179507 0.217166 0.175051
0.187716 0.220432 0.175967
0.198856 0.224613 0.177249
0.213199 0.230106 0.178836
0.232090 0.236881 0.180575
0.256382 0.245121 0.182498
0.282841 0.250584 0.188113
0.362890 0.292973 0.203189
0.360571 0.279118 0.193301
0.350164 0.261875 0.183719
0.333989 0.243595 0.175204
0.314336 0.225315 0.167147
0.293370 0.208408 0.159884
0.335332 0.219577 0.159121
0.388251 0.233463 0.157168
0.450446 0.248997 0.153567
0.521599 0.265721 0.147616
0.600305 0.283146 0.138491
0.680323 0.299168 0.126497
0.759121 0.312902 0.112398
0.835172 0.324041 0.094423
0.901701 0.331304 0.070253
0.960052 0.335790 0.043214
1.000000 0.338201 0.038361
1.000000 0.340032 0.054475
1.000000 0.341375 0.091371
1.000000 0.343755 0.119051
0.185275 0.247013 0.193606
0.185397 0.246921 0.193454
0.186007 0.246677 0.193057
0.187259 0.246403 0.192203
0.189487 0.246128 0.191196
0.193210 0.246586 0.190280
0.201999 0.250126 0.191196
0.213993 0.254978 0.192325
0.231296 0.263462 0.194705
0.255528 0.275761 0.198337
0.289097 0.292424 0.202670
0.334234 0.314031 0.208011
0.385443 0.332128 0.219730
0.444190 0.352819 0.226261
0.436286 0.332128 0.211521
0.416693 0.306401 0.197879
0.390967 0.279881 0.186007
0.362158 0.254704 0.176150
0.333715 0.232303 0.167575
0.337224 0.226352 0.162844
0.390051 0.241489 0.160891
0.452766 0.258549 0.157321
0.524437 0.277317 0.151217
0.604639 0.297124 0.141787
0.686000 0.315465 0.129793
0.766445 0.331701 0.115053
0.843839 0.345373 0.098024
0.912352 0.355261 0.080232
0.973571 0.362249 0.064393
1.000000 0.367468 0.076020
1.000000 0.371801 0.098695
1.000000 0.376074 0.125582
0.198123 0.279271 0.209384
0.198093 0.278935 0.209049
0.198703 0.278477 0.208469
0.200259 0.278477 0.207919
0.202762 0.278477 0.206943
0.206729 0.278660 0.205478
0.216098 0.282933 0.206271
0.229862 0.290074 0.208316
0.248569 0.299931 0.210941
0.274357 0.313298 0.214420
0.308263 0.331182 0.219150
0.353735 0.354131 0.224887
0.410651 0.381018 0.231968
0.471687 0.402045 0.247959
0.537774 0.423865 0.257115
0.519371 0.392096 0.233707
0.489265 0.356207 0.213687
0.454536 0.321660 0.197940
0.418067 0.289738 0.185580
0.382208 0.261387 0.175479
0.349035 0.237156 0.166995
0.393194 0.249363 0.164584
0.457771 0.268833 0.160983
0.533715 0.290867 0.154543
0.616663 0.313664 0.144656
0.701137 0.334905 0.132235
0.784756 0.354040 0.117372
0.863401 0.370062 0.101686
0.933440 0.382208 0.091829
0.995911 0.391669 0.093568
1.000000 0.399420 0.108736
1.000000 0.406592 0.135714
0.214267 0.325475 0.230442
0.214298 0.325261 0.230381
0.214969 0.324315 0.229526
0.216373 0.323217 0.228244
0.219089 0.322057 0.226596
0.223392 0.320958 0.224521
0.231235 0.322850 0.223697
0.246189 0.330175 0.225498
0.266545 0.340490 0.228092
0.293034 0.354620 0.232029
0.328405 0.373541 0.237308
0.373877 0.397589 0.244236
0.430426 0.426062 0.252476
0.494850 0.455177 0.262516
0.559930 0.475105 0.283848
0.624445 0.493019 0.297429
0.601129 0.453864 0.263096
0.566766 0.411627 0.234257
0.526543 0.370336 0.212314
0.483345 0.331640 0.196292
0.441596 0.297704 0.184024
0.402686 0.268528 0.174380
0.397925 0.257816 0.167971
0.466499 0.280339 0.164462
0.546166 0.305577 0.157504
0.633356 0.331701 0.147524
0.721523 0.356451 0.134707
0.810666 0.379675 0.119875
0.892760 0.398962 0.109010
0.965301 0.414374 0.109895
1.000000 0.427375 0.126375
1.000000 0.439124 0.156161
0.230991 0.372992 0.252567
0.231174 0.373266 0.252689
0.232151 0.372930 0.252049
0.234257 0.372381 0.250919
0.237552 0.371557 0.249119
0.242527 0.371527 0.247288
0.250034 0.372412 0.245457
0.267277 0.381445 0.247990
0.290288 0.393713 0.251743
0.319463 0.409247 0.256596
0.355749 0.428168 0.262669
0.400092 0.450507 0.269718
0.452430 0.475685 0.278141
0.512383 0.502037 0.287419
0.573571 0.524468 0.299474
0.632136 0.536980 0.323735
0.693812 0.551812 0.341772
0.669795 0.509209 0.298314
0.636103 0.464057 0.260777
0.597284 0.420417 0.231113
0.555047 0.379278 0.209476
0.510826 0.341161 0.193698
0.469001 0.307927 0.181827
0.430243 0.279118 0.172732
0.480507 0.294194 0.167727
0.568353 0.324529 0.160433
0.662257 0.355566 0.149966
0.757778 0.385138 0.137636
0.850645 0.411933 0.126345
0.931792 0.433448 0.126009
1.000000 0.450752 0.141176
1.000000 0.465888 0.170901
0.249943 0.422889 0.277287
0.250248 0.422736 0.276951
0.251438 0.422583 0.276432
0.253666 0.422248 0.275425
0.257450 0.421912 0.273808
0.263005 0.421973 0.271885
0.270756 0.422858 0.269780
0.285954 0.429145 0.270695
0.309911 0.441505 0.274815
0.339300 0.456733 0.280125
0.375677 0.475227 0.286778
0.418524 0.496284 0.294926
0.468452 0.519554 0.304601
0.524071 0.543572 0.315465
0.584802 0.568017 0.327703
0.642786 0.586175 0.343145
0.698848 0.596368 0.371435
0.758053 0.610437 0.396796
0.738033 0.567590 0.345129
0.706630 0.520531 0.298283
0.671077 0.475380 0.259617
0.632441 0.432929 0.229313
0.591547 0.393378 0.207004
0.549584 0.357092 0.190890
0.509483 0.325170 0.179477
0.501671 0.311589 0.171298
0.598535 0.347967 0.163607
0.700221 0.384466 0.153475
0.803494 0.419471 0.143618
0.896330 0.448890 0.142794
0.975463 0.472633 0.158572
1.000000 0.492897 0.190616
0.276036 0.482582 0.309422
0.276738 0.483375 0.309636
0.309239 0.537499 0.343908
0.311925 0.537255 0.342748
0.316258 0.536675 0.340581
0.322179 0.536187 0.337865
0.330632 0.535973 0.334447
0.343908 0.538048 0.332189
0.371374 0.549889 0.338262
0.405219 0.564599 0.346319
0.443977 0.581323 0.355993
0.487892 0.599939 0.367590
0.536065 0.619226 0.379919
0.588098 0.638880 0.393439
0.642817 0.658106 0.407660
0.699336 0.676051 0.422492
0.747555 0.684627 0.440162
0.790585 0.685786 0.469673
0.835752 0.692012 0.497414
0.820981 0.647944 0.433478
0.798306 0.600214 0.370245
0.770016 0.553765 0.316014
0.735073 0.508049 0.271183
0.696681 0.465064 0.235752
0.657008 0.425544 0.208682
0.618921 0.390723 0.189853
0.584710 0.361273 0.176730
0.645747 0.381018 0.168185
0.753048 0.422034 0.160616
0.856901 0.459937 0.159640
0.945464 0.490822 0.175937
1.000000 0.516716 0.209995
0.320775 0.558373 0.358862
0.324651 0.563378 0.362676
0.329717 0.568444 0.365850
0.335637 0.573083 0.368566
0.342321 0.576257 0.369482
0.348730 0.577386 0.368139
0.356359 0.577447 0.364935
0.366064 0.577417 0.360876
0.388800 0.585382 0.364630
0.419593 0.597833 0.372290
0.455512 0.612634 0.382025
0.496010 0.629053 0.393256
0.540185 0.646326 0.405707
0.587335 0.663935 0.419135
0.636988 0.680934 0.433722
0.688380 0.697353 0.448951
0.740658 0.712978 0.464515
0.784085 0.719387 0.484138
0.823850 0.721126 0.516075
0.866514 0.729671 0.549920
0.857816 0.690578 0.489387
0.843992 0.648310 0.427619
0.825162 0.604974 0.367681
0.801205 0.562615 0.314763
0.772091 0.521599 0.270207
0.739712 0.483131 0.234775
0.709438 0.449653 0.207889
0.684932 0.422614 0.188235
0.686549 0.411933 0.175113
0.802213 0.459541 0.173342
0.904326 0.500053 0.188022
0.988220 0.533562 0.223178
0.355322 0.604120 0.394659
0.360082 0.609186 0.398810
0.365637 0.614435 0.403113
0.372198 0.619257 0.406500
0.378698 0.622736 0.407874
0.384924 0.624079 0.407019
0.391333 0.624262 0.403723
0.399725 0.624079 0.399878
0.415534 0.627680 0.399603
0.443915 0.638422 0.407355
0.476875 0.651331 0.416632
0.514000 0.665583 0.427832
0.554223 0.680354 0.440223
0.597040 0.695369 0.453925
0.641779 0.710170 0.468208
0.688014 0.724544 0.483131
0.735225 0.738491 0.498939
0.783322 0.752132 0.515435
0.820920 0.756130 0.536126
0.855985 0.757717 0.568414
0.894102 0.767391 0.606470
0.890013 0.732174 0.548425
0.882353 0.694240 0.489143
0.871153 0.654688 0.429023
0.856107 0.614801 0.370672
0.837461 0.576745 0.318822
0.817502 0.542229 0.275425
0.799405 0.512718 0.240970
0.788540 0.490852 0.215396
0.789242 0.478065 0.196689
0.859037 0.504479 0.200626
0.954589 0.546899 0.236698
0.397833 0.652216 0.436957
0.402350 0.656733 0.441260
0.407904 0.661402 0.445228
0.413855 0.665614 0.448402
0.419562 0.668605 0.449744
0.425116 0.669734 0.448890
0.430457 0.670039 0.446082
0.437690 0.669917 0.442451
0.447059 0.670344 0.438483
0.472450 0.679011 0.445533
0.502403 0.689784 0.454902
0.535943 0.701442 0.465675
0.572137 0.713771 0.477760
0.610712 0.726375 0.490761
0.650965 0.739254 0.505150
0.692958 0.752285 0.520317
0.736629 0.765743 0.537499
0.781186 0.779355 0.556390
0.826108 0.793332 0.577356
0.859556 0.797818 0.602960
0.890806 0.801755 0.638025
0.924804 0.813504 0.678126
0.924743 0.784909 0.630457
0.924437 0.753231 0.576837
0.922148 0.719753 0.521691
0.917937 0.685695 0.466316
0.912932 0.653132 0.413428
0.908965 0.624537 0.366796
0.909117 0.602838 0.330571
0.916197 0.589136 0.305486
0.933074 0.585168 0.293065
0.961669 0.591760 0.296941
0.475563 0.723720 0.511986
0.477729 0.725277 0.513634
0.480018 0.726467 0.514855
0.482124 0.727108 0.514611
0.484627 0.727230 0.513451
0.486946 0.726711 0.510857
0.490455 0.726070 0.507622
0.495399 0.725612 0.503655
0.502556 0.725643 0.499702
0.520104 0.730159 0.502434
0.546990 0.738766 0.511803
0.576623 0.748196 0.522545
0.608423 0.758022 0.534142
0.642237 0.768246 0.546807
0.677333 0.778531 0.560388
0.713802 0.789029 0.574792
0.750912 0.799619 0.590448
0.788998 0.810422 0.607355
0.826993 0.821317 0.624994
0.865019 0.832334 0.643244
0.891264 0.833890 0.664210
0.916716 0.835874 0.692287
0.944945 0.845457 0.727352
0.945220 0.819333 0.683925
0.946410 0.791501 0.637049
0.948150 0.761715 0.585748
0.949615 0.732143 0.535241
0.951629 0.705074 0.489021
0.955962 0.682490 0.449683
0.964263 0.666102 0.419806
0.978210 0.657771 0.402777
0.998566 0.658686 0.401709
0.525994 0.762081 0.559442
0.527916 0.763210 0.561089
0.529931 0.764187 0.562005
0.531975 0.764889 0.562249
0.533806 0.765103 0.561151
0.535729 0.764858 0.558984
0.538537 0.764462 0.556085
0.542473 0.764248 0.552819
0.548150 0.764340 0.549523
0.557916 0.765774 0.547845
0.581567 0.772824 0.556634
0.607721 0.780667 0.566827
0.635950 0.788907 0.578180
0.665919 0.797635 0.590509
0.697292 0.806607 0.603937
0.729458 0.815793 0.618097
0.762478 0.825254 0.632898
0.795773 0.834806 0.648096
0.829282 0.844450 0.663966
0.862791 0.854154 0.680293
0.895811 0.863859 0.697139
0.917296 0.864225 0.715908
0.938537 0.865812 0.740261
0.962341 0.874357 0.772183
0.959808 0.844846 0.723079
0.962280 0.821042 0.682826
0.966186 0.796597 0.640803
0.971374 0.772152 0.597925
0.978302 0.750210 0.558770
0.987457 0.733120 0.528069
1.000000 0.722957 0.509117
1.000000 0.720851 0.504509
0.598352 0.807797 0.626673
0.601404 0.809476 0.629297
0.603021 0.810208 0.630243
0.603265 0.809995 0.629175
0.602472 0.808927 0.626215
0.601343 0.807431 0.622126
0.600305 0.805570 0.616999
0.600275 0.803799 0.611444
0.601343 0.802213 0.605493
0.604364 0.801114 0.599756
0.618738 0.803861 0.602380
0.639582 0.809018 0.609674
0.662165 0.814725 0.617945
0.686519 0.820798 0.627008
0.711574 0.826993 0.636133
0.738125 0.833707 0.646235
0.765988 0.840848 0.657374
0.795071 0.848692 0.669856
0.825132 0.857145 0.683833
0.855741 0.866148 0.699153
0.886168 0.875212 0.714992
0.915770 0.883879 0.730556
0.933471 0.882994 0.747250
0.951446 0.883482 0.767819
0.971252 0.889342 0.794034
0.973510 0.870329 0.762661
0.976837 0.849729 0.727596
0.981903 0.829404 0.692592
0.988708 0.809903 0.658503
0.997742 0.793301 0.628870
1.000000 0.781582 0.607538
1.000000 0.776699 0.598474
0.636561 0.831937 0.662470
0.639246 0.833402 0.664820
0.641169 0.834287 0.666011
0.642023 0.834531 0.665797
0.642451 0.834348 0.664454
0.643183 0.834012 0.662654
0.644282 0.833707 0.660334
0.646174 0.833433 0.657557
0.649042 0.833494 0.654932
0.652979 0.833707 0.652033
0.661982 0.835294 0.652155
0.679835 0.840024 0.659144
0.699062 0.844968 0.666590
0.719265 0.849973 0.674189
0.740261 0.855070 0.682002
0.762325 0.860380 0.690211
0.785458 0.866056 0.699214
0.809751 0.872221 0.709285
0.835233 0.879026 0.720760
0.861418 0.886320 0.733364
0.887663 0.893797 0.746822
0.913451 0.901152 0.760281
0.938354 0.908080 0.773373
0.952117 0.906157 0.787625
0.966888 0.906157 0.804959
0.982605 0.910338 0.826658
0.986267 0.895903 0.803189
0.990600 0.879698 0.775235
0.997070 0.864744 0.749081
1.000000 0.851408 0.725673
1.000000 0.841276 0.707759
1.000000 0.835599 0.697871
0.685786 0.861845 0.708431
0.686976 0.862486 0.709468
0.687770 0.862791 0.709773
0.688197 0.862791 0.709285
0.688350 0.862547 0.708034
0.688472 0.862119 0.706203
0.689021 0.861692 0.704005
0.690120 0.861387 0.701625
0.692042 0.861204 0.699062
0.694881 0.861265 0.696345
0.698695 0.861387 0.693507
0.712856 0.864958 0.698787
0.728939 0.868956 0.705013
0.745907 0.873136 0.711513
0.763546 0.877226 0.718013
0.782101 0.881498 0.724697
0.801633 0.886046 0.732143
0.822354 0.891051 0.740505
0.844205 0.896605 0.750057
0.866758 0.902647 0.760861
0.889525 0.908843 0.772152
0.912016 0.914916 0.783658
0.933837 0.920623 0.794736
0.954437 0.925628 0.805539
0.965515 0.922972 0.817105
0.977600 0.922210 0.831296
0.990265 0.924834 0.849027
0.994507 0.913359 0.830747
0.999268 0.900114 0.807553
1.000000 0.889097 0.787900
1.000000 0.879942 0.771695
1.000000 0.873930 0.761074
0.723995 0.885008 0.744381
0.724849 0.885466 0.745083
0.725734 0.885863 0.745571
0.726497 0.886107 0.745632
0.727565 0.886381 0.745449
0.729183 0.886900 0.745388
0.732479 0.888090 0.746304
0.736660 0.889616 0.747524
0.741878 0.891569 0.749172
0.748074 0.893797 0.751064
0.755123 0.896239 0.753048
0.766415 0.899809 0.758022
0.781796 0.904448 0.766110
0.797055 0.908782 0.773587
0.812253 0.912749 0.780575
0.827085 0.916228 0.786587
0.842222 0.919677 0.792660
0.858122 0.923278 0.799130
0.874846 0.927245 0.806485
0.892119 0.931426 0.814542
0.909483 0.935729 0.822965
0.926726 0.939940 0.831479
0.943511 0.943847 0.839597
0.959777 0.947478 0.847379
0.974487 0.949981 0.854887
0.982330 0.947112 0.862943
0.990845 0.945586 0.873106
0.999512 0.946288 0.885344
1.000000 0.938323 0.872892
1.000000 0.928954 0.856016
1.000000 0.921996 0.843290
1.000000 0.917082 0.834409
0.785153 0.918883 0.801633
0.785153 0.918914 0.801541
0.785214 0.918822 0.801297
0.785031 0.918639 0.800656
0.785092 0.918517 0.799832
0.785336 0.918395 0.798856
0.786069 0.918425 0.797971
0.787320 0.918608 0.797055
0.789181 0.918975 0.796201
0.791745 0.919554 0.795529
0.794919 0.920226 0.794797
0.799466 0.921263 0.794705
0.810239 0.923919 0.799405
0.821500 0.926574 0.804105
