20 Preset/Travel Style 2/【3】LUT video cho PR-AE-FCPX/Travel 2 LUT (25).cube
# Created by Adobe Lightroom plugin Export LUT (1.24.0)
# www.johnrellis.com/lightroom/exportlut.htm
# Preset: 25素材江湖 - DRONE
# Color profile: E:\lut插件\exportlut.1.24\exportlut.lrplugin\color profiles\Rec709gamma2.4.icc
LUT_3D_SIZE 8
DOMAIN_MIN 0.000000 0.000000 0.000000
DOMAIN_MAX 0.903226 0.903226 0.903226
0.000000 0.000000 0.000000
0.110445 0.000000 0.000000
0.388495 0.000000 0.000000
0.755001 0.005463 0.000000
1.000000 0.104280 0.000000
1.000000 0.156252 0.000000
1.000000 0.187411 0.000000
1.000000 0.210147 0.000000
0.120516 0.144381 0.000000
0.140047 0.092317 0.000000
0.411841 0.190433 0.000000
0.771817 0.244053 0.000000
1.000000 0.266697 0.000000
1.000000 0.263279 0.000000
1.000000 0.260014 0.000000
1.000000 0.260685 0.000000
0.553246 0.628809 0.000000
0.558099 0.555901 0.000000
0.352239 0.230564 0.000000
0.769436 0.441993 0.000000
1.000000 0.507744 0.000000
1.000000 0.465126 0.000000
1.000000 0.424140 0.000000
1.000000 0.393011 0.000000
0.846830 0.938293 0.000000
0.873045 0.922393 0.000000
0.927367 0.830442 0.000000
0.582300 0.378912 0.000000
0.973571 0.570214 0.000000
1.000000 0.663783 0.000000
1.000000 0.598016 0.000000
1.000000 0.545220 0.000000
0.922850 1.000000 0.448066
0.935882 0.998108 0.415229
0.992126 0.980591 0.239384
1.000000 0.892638 0.000000
0.871489 0.566552 0.000000
1.000000 0.649165 0.000000
1.000000 0.701930 0.000000
1.000000 0.693599 0.111299
0.956390 1.000000 0.729702
0.960662 1.000000 0.717922
0.982361 1.000000 0.661341
1.000000 0.992737 0.500938
1.000000 0.911711 0.000000
1.000000 0.704097 0.000000
1.000000 0.705837 0.000000
1.000000 0.731899 0.000000
0.973510 1.000000 0.859861
0.974945 1.000000 0.855406
0.982208 1.000000 0.834257
1.000000 1.000000 0.781430
1.000000 0.997650 0.657679
1.000000 0.925933 0.358251
1.000000 0.777096 0.000000
1.000000 0.737545 0.000000
0.983673 1.000000 0.928771
0.984405 1.000000 0.927977
0.986542 1.000000 0.919585
0.992889 1.000000 0.899748
1.000000 1.000000 0.857969
1.000000 0.996643 0.767910
1.000000 0.937957 0.549981
1.000000 0.801419 0.000000
0.000214 0.007507 0.044099
0.117281 0.000000 0.077638
0.396643 0.000000 0.024445
0.757931 0.000000 0.000000
1.000000 0.128206 0.000000
1.000000 0.176486 0.000000
1.000000 0.205539 0.000000
1.000000 0.226627 0.000000
0.000000 0.127321 0.056001
0.153384 0.106661 0.049470
0.415534 0.182467 0.000000
0.773983 0.241917 0.000000
1.000000 0.270420 0.000000
1.000000 0.271733 0.000000
1.000000 0.270634 0.000000
1.000000 0.273228 0.000000
0.534783 0.601312 0.000000
0.539971 0.533288 0.000000
0.353735 0.228580 0.000000
0.784268 0.453712 0.000000
1.000000 0.506371 0.000000
1.000000 0.466835 0.000000
1.000000 0.428534 0.000000
1.000000 0.399878 0.000000
0.846494 0.935393 0.000000
0.871336 0.919524 0.000000
0.922454 0.826108 0.000000
0.578363 0.374151 0.000000
0.980285 0.576104 0.000000
1.000000 0.664057 0.000000
1.000000 0.600488 0.000000
1.000000 0.549859 0.000000
0.927031 1.000000 0.530632
0.938323 0.996948 0.500450
0.990234 0.980102 0.350256
1.000000 0.892149 0.000000
0.868009 0.562402 0.000000
1.000000 0.651789 0.000000
1.000000 0.705867 0.000000
1.000000 0.697414 0.200137
0.959319 1.000000 0.759335
0.963195 1.000000 0.748409
0.982666 1.000000 0.696407
1.000000 0.992584 0.548730
1.000000 0.912444 0.137819
1.000000 0.702571 0.000000
1.000000 0.707393 0.000000
1.000000 0.735714 0.108492
0.975128 1.000000 0.872251
0.976410 1.000000 0.868009
0.982940 1.000000 0.848020
1.000000 1.000000 0.798337
1.000000 0.997650 0.680964
1.000000 0.927489 0.391760
1.000000 0.776852 0.000000
1.000000 0.739040 0.000000
0.984161 1.000000 0.933043
0.985168 1.000000 0.933440
0.987121 1.000000 0.925505
0.992950 1.000000 0.906584
1.000000 1.000000 0.866606
1.000000 0.997070 0.780301
1.000000 0.939940 0.570001
1.000000 0.802090 0.000000
0.048554 0.011536 0.188113
0.145083 0.000000 0.203769
0.375158 0.000000 0.247532
0.774075 0.000000 0.239292
1.000000 0.000000 0.184756
1.000000 0.149569 0.183993
1.000000 0.246738 0.207156
1.000000 0.285283 0.242863
0.116823 0.142123 0.200778
0.179446 0.132418 0.215915
0.419440 0.098024 0.235447
0.792050 0.000000 0.207218
1.000000 0.180240 0.177890
1.000000 0.269383 0.184390
1.000000 0.301427 0.208011
1.000000 0.321630 0.246281
0.338781 0.491951 0.261875
0.482887 0.527581 0.265324
0.414740 0.282292 0.160678
0.835599 0.488685 0.157046
1.000000 0.490242 0.142184
1.000000 0.468147 0.173129
1.000000 0.447059 0.216434
1.000000 0.432715 0.263096
0.830472 0.930510 0.475837
0.856413 0.917296 0.436500
0.906401 0.823362 0.175479
0.560052 0.355413 0.000000
1.000000 0.605158 0.000000
1.000000 0.666865 0.186618
1.000000 0.614282 0.250797
1.000000 0.574640 0.305028
0.939544 0.996063 0.728023
0.946014 0.993500 0.707393
0.980896 0.978790 0.600153
1.000000 0.893645 0.266392
0.852903 0.545647 0.000000
1.000000 0.665217 0.000000
1.000000 0.727382 0.252079
1.000000 0.717861 0.383917
0.968566 1.000000 0.844633
0.970886 1.000000 0.836576
0.983581 1.000000 0.797391
1.000000 0.992126 0.686336
1.000000 0.916838 0.375586
1.000000 0.696376 0.000000
1.000000 0.715419 0.000000
1.000000 0.755215 0.324071
0.980529 1.000000 0.911833
0.981292 1.000000 0.908568
0.985565 1.000000 0.892973
0.999512 1.000000 0.853239
1.000000 0.997742 0.758175
1.000000 0.934661 0.508446
1.000000 0.776364 0.000000
1.000000 0.746456 0.000000
0.985901 1.000000 0.947387
0.986816 1.000000 0.948028
0.989227 1.000000 0.945708
0.993256 1.000000 0.930297
1.000000 1.000000 0.897215
1.000000 0.998566 0.824033
1.000000 0.947845 0.642359
1.000000 0.805356 0.000000
0.131777 0.036255 0.361883
0.202182 0.000000 0.374273
0.403235 0.000000 0.415900
0.733303 0.000000 0.474769
1.000000 0.000000 0.460853
1.000000 0.000000 0.431403
1.000000 0.330114 0.446418
1.000000 0.425147 0.480140
0.175174 0.171267 0.377050
0.233799 0.160311 0.388373
0.431525 0.062959 0.421546
0.764858 0.000000 0.468910
1.000000 0.000000 0.444678
1.000000 0.241306 0.436011
1.000000 0.380652 0.453254
1.000000 0.451667 0.486122
0.273045 0.377478 0.400397
0.324987 0.385168 0.406043
0.518242 0.396674 0.424628
0.844053 0.419379 0.438911
1.000000 0.458839 0.445624
1.000000 0.494148 0.456855
1.000000 0.521233 0.480323
1.000000 0.536461 0.506676
0.684627 0.863493 0.642725
0.750301 0.875944 0.665217
0.858366 0.833921 0.575280
0.705379 0.473915 0.251774
1.000000 0.692653 0.434516
1.000000 0.696651 0.496010
1.000000 0.669459 0.517784
1.000000 0.650294 0.541283
0.934936 0.989502 0.847959
0.946899 0.989868 0.854063
0.968109 0.979065 0.804990
1.000000 0.902129 0.567498
0.829892 0.520378 0.000000
1.000000 0.707210 0.308843
1.000000 0.795285 0.557855
1.000000 0.770871 0.597803
0.976318 1.000000 0.918120
0.979583 1.000000 0.920073
0.985016 0.999664 0.897093
1.000000 0.992248 0.825528
1.000000 0.929046 0.598657
1.000000 0.683375 0.000000
1.000000 0.740871 0.264561
1.000000 0.809171 0.559045
0.984131 1.000000 0.946807
0.985565 1.000000 0.947692
0.989288 1.000000 0.944335
0.996124 1.000000 0.918334
1.000000 0.998108 0.852445
1.000000 0.949462 0.667597
1.000000 0.776883 0.000000
1.000000 0.768643 0.309422
0.987854 1.000000 0.964752
0.988586 1.000000 0.965301
0.991394 1.000000 0.967376
0.994141 1.000000 0.960784
1.000000 1.000000 0.937926
1.000000 1.000000 0.884581
1.000000 0.961273 0.744106
1.000000 0.814328 0.282414
0.229587 0.108278 0.595361
0.289738 0.073457 0.604669
0.476234 0.000000 0.641749
0.741634 0.000000 0.672541
1.000000 0.000000 0.674464
1.000000 0.000000 0.619409
1.000000 0.430610 0.628931
1.000000 0.640192 0.716732
0.258610 0.209323 0.606989
0.312871 0.196872 0.615259
0.494362 0.094057 0.649897
0.762020 0.000000 0.675776
1.000000 0.000000 0.666835
1.000000 0.225071 0.623774
1.000000 0.500084 0.650385
1.000000 0.653712 0.720302
0.359045 0.437629 0.623590
0.397314 0.437293 0.632593
0.548150 0.404547 0.664790
0.822995 0.380224 0.677089
1.000000 0.442451 0.661585
1.000000 0.572747 0.678248
1.000000 0.661158 0.712093
1.000000 0.700160 0.732418
0.450782 0.692744 0.658137
0.496101 0.697505 0.661311
0.688746 0.751278 0.706081
0.854978 0.742245 0.692531
1.000000 0.753109 0.711604
1.000000 0.759335 0.722957
1.000000 0.763058 0.736049
1.000000 0.764462 0.748898
0.890715 0.968322 0.881956
0.906188 0.970947 0.889036
0.955993 0.979248 0.913756
0.967407 0.921080 0.779385
0.938933 0.646571 0.387304
1.000000 0.823545 0.679774
1.000000 0.854643 0.761410
1.000000 0.834958 0.769039
0.974121 0.998901 0.951354
0.976959 0.998962 0.953094
0.987427 0.999084 0.959747
0.994568 0.993866 0.923827
1.000000 0.949462 0.779721
1.000000 0.680140 0.159976
1.000000 0.815457 0.594263
1.000000 0.890990 0.780209
0.986206 1.000000 0.970459
0.987121 1.000000 0.971008
0.990723 1.000000 0.973114
0.994965 1.000000 0.968475
1.000000 0.998871 0.930968
1.000000 0.968566 0.808377
1.000000 0.781125 0.272953
1.000000 0.826169 0.577966
0.988800 1.000000 0.978058
0.989349 1.000000 0.978454
0.991669 1.000000 0.980072
0.995422 1.000000 0.983062
0.998077 1.000000 0.973022
1.000000 1.000000 0.940917
1.000000 0.977173 0.845304
1.000000 0.835721 0.471015
0.330388 0.191867 0.810147
0.375006 0.177646 0.814206
0.523552 0.038422 0.830381
0.749355 0.000000 0.858518
1.000000 0.000000 0.862089
1.000000 0.000000 0.786465
1.000000 0.419745 0.744350
1.000000 0.631159 0.773709
0.353918 0.271153 0.813748
0.394293 0.262089 0.817533
0.535851 0.209598 0.832975
0.758755 0.000000 0.860044
1.000000 0.000000 0.858824
1.000000 0.196170 0.784482
1.000000 0.487251 0.754421
1.000000 0.664332 0.786526
0.455482 0.493843 0.817594
0.481544 0.488624 0.821164
0.588342 0.464027 0.835447
0.792874 0.394629 0.860990
1.000000 0.429053 0.841215
1.000000 0.542107 0.794400
1.000000 0.672084 0.798947
1.000000 0.765805 0.831785
0.631159 0.726528 0.812619
0.654719 0.731594 0.813993
0.721859 0.745113 0.826627
0.839536 0.725490 0.847990
0.976074 0.747127 0.834531
1.000000 0.795224 0.844480
1.000000 0.837034 0.864866
1.000000 0.861509 0.881285
0.728573 0.890990 0.842222
0.753048 0.896300 0.848905
0.834562 0.916289 0.874693
0.938842 0.939788 0.909117
0.958251 0.874876 0.835294
1.000000 0.901152 0.872892
1.000000 0.898558 0.880613
1.000000 0.897032 0.888426
0.957580 0.992279 0.959411
0.961639 0.992798 0.961517
0.975616 0.994629 0.969177
0.992187 0.996765 0.979034
0.996826 0.970062 0.904265
1.000000 0.800290 0.627283
1.000000 0.923033 0.858549
1.000000 0.934417 0.896086
0.986908 1.000000 0.983154
0.987732 1.000000 0.983642
0.990875 1.000000 0.985595
0.995636 1.000000 0.988952
0.998444 0.999573 0.980560
1.000000 0.986450 0.917296
1.000000 0.806790 0.510887
1.000000 0.913787 0.819364
0.992340 1.000000 0.989746
0.992645 1.000000 0.989868
0.993713 1.000000 0.990448
0.995636 1.000000 0.991455
0.998260 1.000000 0.993317
1.000000 1.000000 0.980713
1.000000 0.991180 0.928923
1.000000 0.878813 0.674220
0.432319 0.324834 0.943816
0.459052 0.318303 0.945342
0.557977 0.286137 0.951629
0.719631 0.178744 0.963195
0.931212 0.000000 0.974426
1.000000 0.000000 0.957275
1.000000 0.417731 0.869047
1.000000 0.625391 0.842802
0.458167 0.385382 0.943328
0.482033 0.379706 0.944854
0.572320 0.351995 0.951080
0.726497 0.275151 0.962554
0.935058 0.010956 0.973480
1.000000 0.252049 0.952911
1.000000 0.478889 0.871122
1.000000 0.657343 0.850004
0.569604 0.579370 0.937560
0.583612 0.575219 0.939086
0.643153 0.557671 0.945281
0.762051 0.515373 0.956756
0.946349 0.468055 0.966918
1.000000 0.543938 0.938201
1.000000 0.650813 0.883116
1.000000 0.757229 0.876982
0.728115 0.782132 0.924773
0.737758 0.783780 0.926329
0.770138 0.783017 0.931945
0.830564 0.765377 0.942626
0.952483 0.745693 0.952361
1.000000 0.773770 0.928313
1.000000 0.819150 0.910155
1.000000 0.863645 0.914855
0.799252 0.887541 0.925963
0.808194 0.888792 0.926360
0.841520 0.893767 0.927886
0.888090 0.901579 0.932372
0.948516 0.892699 0.943450
1.000000 0.902953 0.937011
1.000000 0.921569 0.941314
1.000000 0.936645 0.949523
0.850675 0.965362 0.933501
0.859342 0.966186 0.935393
0.890715 0.969360 0.943023
0.936767 0.975921 0.957153
0.985870 0.988464 0.980835
0.993072 0.959777 0.945220
1.000000 0.965118 0.956146
1.000000 0.964324 0.960235
0.971923 0.999084 0.980133
0.973846 0.999054 0.981140
0.981598 0.998871 0.985443
0.991180 0.999084 0.991028
0.997864 0.999695 0.995575
1.000000 0.995666 0.977295
1.000000 0.929961 0.861936
1.000000 0.977844 0.957977
0.993225 1.000000 0.994171
0.993622 1.000000 0.994415
0.994690 1.000000 0.994965
0.996490 1.000000 0.996002
0.998383 1.000000 0.997345
0.999634 1.000000 0.998016
1.000000 0.999054 0.981567
1.000000 0.933806 0.850340
0.569360 0.508995 1.000000
0.580957 0.504967 1.000000
0.628199 0.485389 1.000000
0.718288 0.439033 1.000000
0.853300 0.337194 1.000000
1.000000 0.302007 1.000000
1.000000 0.460548 1.000000
1.000000 0.632746 0.929046
0.597009 0.553918 1.000000
0.606806 0.549828 1.000000
0.648402 0.531609 1.000000
0.730373 0.489265 1.000000
0.857755 0.401434 1.000000
1.000000 0.377234 1.000000
1.000000 0.513542 0.999207
1.000000 0.661128 0.931212
0.695766 0.696254 1.000000
0.701595 0.693538 1.000000
0.727260 0.681025 1.000000
0.782712 0.653193 1.000000
0.879026 0.598566 1.000000
1.000000 0.587091 1.000000
1.000000 0.664790 0.990661
1.000000 0.751461 0.939879
0.808865 0.839109 0.988220
0.811643 0.837766 0.988769
0.824247 0.831907 0.991089
0.853758 0.818845 0.995514
0.911437 0.794217 1.000000
1.000000 0.782101 1.000000
1.000000 0.813504 0.983062
1.000000 0.852232 0.953796
0.868040 0.913695 0.979492
0.872740 0.914855 0.979492
0.884184 0.916350 0.981476
0.910246 0.921538 0.985138
0.936675 0.910887 0.990631
0.993866 0.899107 0.995117
1.000000 0.910094 0.981811
1.000000 0.927825 0.969665
0.892668 0.961975 0.982238
0.896086 0.962188 0.982300
0.909819 0.963104 0.982574
0.932830 0.965057 0.983185
0.959258 0.968505 0.984192
0.983246 0.963622 0.990173
1.000000 0.966308 0.985443
1.000000 0.974395 0.984527
0.923156 0.997131 0.982086
0.925414 0.996948 0.982300
0.934447 0.996338 0.983215
0.949920 0.995331 0.984924
0.968414 0.994202 0.987243
0.989258 0.995148 0.992187
1.000000 0.993164 0.991760
1.000000 0.993317 0.992920
0.980774 1.000000 0.990814
0.981567 1.000000 0.991119
0.984741 1.000000 0.992279
0.989776 1.000000 0.994324
0.995026 1.000000 0.996674
0.998840 1.000000 0.998779
1.000000 1.000000 0.998718
1.000000 0.995117 0.989899
