20 Preset/Travel Style 2/【3】LUT video cho PR-AE-FCPX/Travel 2 LUT (21).cube
# Created by Adobe Lightroom plugin Export LUT (1.24.0)
# www.johnrellis.com/lightroom/exportlut.htm
# Preset: 21素材江湖 - WARM
# Color profile: E:\lut插件\exportlut.1.24\exportlut.lrplugin\color profiles\Rec709gamma2.4.icc
LUT_3D_SIZE 8
DOMAIN_MIN 0.000000 0.000000 0.000000
DOMAIN_MAX 0.903226 0.903226 0.903226
0.033692 0.093690 0.111177
0.058442 0.094606 0.112551
0.126802 0.096803 0.116304
0.255650 0.075105 0.118105
0.453895 0.000000 0.116579
0.677058 0.000000 0.110658
0.882414 0.000000 0.101747
1.000000 0.000000 0.106355
0.030274 0.105623 0.117800
0.055726 0.106477 0.116396
0.143832 0.108827 0.114199
0.271855 0.097230 0.114931
0.465583 0.000000 0.112520
0.680995 0.000000 0.104799
0.876219 0.000000 0.092592
1.000000 0.000000 0.093751
0.000000 0.184573 0.138094
0.000000 0.185336 0.136965
0.164645 0.187442 0.125704
0.352850 0.185946 0.101076
0.562554 0.143313 0.057984
0.759854 0.000000 0.004822
0.930785 0.000000 0.000000
1.000000 0.107942 0.000000
0.000000 0.368841 0.197177
0.000000 0.368505 0.195010
0.162722 0.373999 0.184054
0.420050 0.375372 0.145663
0.676539 0.369116 0.000000
0.849424 0.355413 0.000000
0.981292 0.365606 0.000000
1.000000 0.386236 0.000000
0.000000 0.602045 0.311528
0.000000 0.601099 0.309239
0.251987 0.601373 0.302800
0.479042 0.605707 0.271641
0.680720 0.591089 0.206210
0.864897 0.592584 0.000000
0.984497 0.582330 0.000000
1.000000 0.584863 0.000000
0.297337 0.794553 0.473121
0.335546 0.798001 0.477058
0.431556 0.796567 0.472816
0.562066 0.794491 0.463539
0.712184 0.791806 0.417762
0.852995 0.777707 0.354894
0.971557 0.765286 0.253056
1.000000 0.746548 0.027497
0.590448 0.902464 0.677577
0.599634 0.902617 0.678248
0.629511 0.901274 0.675166
0.684108 0.899351 0.670466
0.756069 0.896361 0.651820
0.848264 0.893431 0.612360
0.941253 0.881926 0.558679
1.000000 0.859770 0.490669
0.784360 0.951995 0.839963
0.786404 0.951934 0.839750
0.795834 0.951690 0.839536
0.814542 0.951385 0.839567
0.834592 0.948699 0.830564
0.871214 0.948363 0.820615
0.920592 0.947387 0.801816
0.975708 0.940185 0.771664
0.031769 0.095705 0.120577
0.050416 0.096162 0.119600
0.123812 0.099001 0.121065
0.256229 0.092653 0.119295
0.455146 0.000000 0.113100
0.671595 0.000000 0.105806
0.863981 0.000000 0.096162
1.000000 0.000000 0.096925
0.026795 0.106416 0.126345
0.052705 0.107851 0.126864
0.139254 0.110750 0.124971
0.274357 0.105257 0.119783
0.474464 0.000000 0.108431
0.684169 0.000000 0.099275
0.866819 0.000000 0.085695
1.000000 0.000000 0.082704
0.000000 0.183566 0.158328
0.000000 0.185245 0.154116
0.166629 0.187472 0.143832
0.346105 0.182040 0.120668
0.552270 0.143679 0.093385
0.749386 0.000000 0.000000
0.910094 0.000000 0.000000
1.000000 0.081453 0.000000
0.000000 0.359808 0.214786
0.000000 0.360296 0.213169
0.166842 0.364721 0.204654
0.401709 0.360906 0.170657
0.643091 0.347448 0.082795
0.817960 0.330175 0.000000
0.959625 0.347051 0.000000
1.000000 0.371283 0.000000
0.000000 0.593896 0.326513
0.000000 0.592401 0.323766
0.252842 0.590631 0.316136
0.467170 0.591241 0.286839
0.665064 0.574640 0.227085
0.851133 0.576684 0.000000
0.975067 0.569207 0.000000
1.000000 0.576654 0.000000
0.290288 0.786404 0.477302
0.321324 0.786282 0.476722
0.419440 0.785550 0.473091
0.552300 0.784787 0.466194
0.703761 0.783902 0.423896
0.846860 0.771603 0.367163
0.967407 0.760616 0.270115
1.000000 0.742184 0.116213
0.581201 0.898466 0.674311
0.587121 0.897734 0.672328
0.617762 0.896330 0.668757
0.675441 0.894804 0.665400
0.750912 0.892943 0.651179
0.844053 0.890166 0.612146
0.937224 0.877775 0.556817
1.000000 0.856016 0.487831
0.779294 0.950591 0.837339
0.782528 0.950713 0.837980
0.791928 0.950439 0.837613
0.811124 0.950164 0.837736
0.838163 0.949493 0.836576
0.872068 0.948577 0.824826
0.919982 0.947082 0.804074
0.974823 0.939818 0.774105
0.021027 0.100679 0.154940
0.050172 0.101472 0.154208
0.117952 0.102876 0.153811
0.267918 0.074495 0.160525
0.450446 0.000000 0.161746
0.682612 0.000000 0.147341
0.885008 0.000000 0.107851
1.000000 0.000000 0.066987
0.003510 0.113680 0.169558
0.047974 0.115084 0.168582
0.132265 0.118318 0.166812
0.277806 0.102693 0.167605
0.464454 0.000000 0.166659
0.691341 0.000000 0.149966
0.885313 0.000000 0.106325
1.000000 0.000000 0.034760
0.000000 0.186648 0.206821
0.000000 0.189425 0.208072
0.172519 0.197055 0.208957
0.337133 0.192264 0.197879
0.541802 0.160281 0.180667
0.744808 0.073152 0.153872
0.916075 0.010407 0.095979
1.000000 0.177096 0.000000
0.000000 0.365209 0.292515
0.000000 0.367590 0.292210
0.206332 0.372686 0.281498
0.422309 0.369970 0.256199
0.648951 0.349859 0.202090
0.819791 0.338231 0.156649
0.958801 0.352300 0.022065
1.000000 0.390936 0.000000
0.133181 0.589807 0.408972
0.191897 0.589837 0.406653
0.297581 0.591943 0.386877
0.482063 0.594202 0.369116
0.674800 0.582818 0.322698
0.849851 0.578637 0.232578
0.973114 0.569665 0.117952
1.000000 0.577874 0.000000
0.362799 0.781704 0.538109
0.364355 0.782895 0.529839
0.439887 0.782498 0.523278
0.559991 0.781155 0.516808
0.700587 0.780270 0.483467
0.842374 0.769406 0.436561
0.962585 0.759792 0.356115
1.000000 0.742336 0.263218
0.602747 0.897429 0.707210
0.606653 0.896971 0.704768
0.632837 0.895354 0.700771
0.684138 0.893614 0.696284
0.753506 0.891752 0.685664
0.841855 0.889830 0.651820
0.932677 0.878447 0.606348
1.000000 0.859281 0.542687
0.784878 0.950042 0.847135
0.786404 0.949889 0.846616
0.795224 0.949615 0.846098
0.814755 0.949676 0.847196
0.840574 0.949096 0.846098
0.873625 0.948516 0.837644
0.919341 0.947356 0.819364
0.971984 0.940215 0.792416
0.000000 0.107637 0.235416
0.012970 0.108675 0.236606
0.148226 0.112856 0.236576
0.256168 0.108766 0.240330
0.492531 0.000000 0.253605
0.688014 0.000000 0.235111
0.847227 0.000000 0.242069
1.000000 0.000000 0.211490
0.000000 0.126070 0.255436
0.012177 0.127230 0.255344
0.161715 0.132601 0.252995
0.275181 0.130953 0.254582
0.503685 0.000000 0.262730
0.693965 0.000000 0.241764
0.854246 0.000000 0.246952
1.000000 0.000000 0.213779
0.000000 0.202274 0.297063
0.000000 0.203952 0.299657
0.188571 0.212009 0.300542
0.328374 0.219608 0.300175
0.541192 0.193851 0.297459
0.713161 0.179690 0.290990
0.895811 0.167239 0.271794
1.000000 0.211246 0.227207
0.000000 0.359716 0.375006
0.000000 0.361334 0.375158
0.234257 0.369390 0.378302
0.419867 0.376440 0.378332
0.614313 0.363378 0.355901
0.783169 0.354528 0.329198
0.932189 0.363134 0.292790
1.000000 0.393774 0.239658
0.225040 0.592615 0.506126
0.260655 0.591760 0.503990
0.371374 0.591333 0.498482
0.500999 0.595483 0.484504
0.681056 0.591058 0.450050
0.844785 0.576349 0.384833
0.964080 0.573754 0.337957
1.000000 0.578973 0.276799
0.431952 0.782223 0.626978
0.452857 0.784939 0.629725
0.509850 0.782986 0.624170
0.584253 0.784176 0.606226
0.704555 0.783536 0.585107
0.839109 0.771633 0.545037
0.954650 0.760159 0.477119
1.000000 0.741360 0.402594
0.641047 0.894011 0.761349
0.648768 0.893889 0.761776
0.671260 0.893462 0.759030
0.702937 0.893858 0.748898
0.763088 0.892454 0.744320
0.839445 0.890684 0.716854
0.925048 0.879545 0.678706
1.000000 0.862638 0.621057
0.804746 0.949157 0.870542
0.807523 0.949004 0.870878
0.809689 0.949371 0.867002
0.821958 0.949462 0.864286
0.845335 0.948943 0.862974
0.875669 0.948425 0.857786
0.917815 0.947631 0.842557
0.967468 0.940978 0.821042
0.000000 0.123751 0.356390
0.000000 0.124910 0.357916
0.164096 0.128481 0.359045
0.309392 0.134310 0.359899
0.465461 0.097444 0.369024
0.734524 0.000000 0.400855
0.888151 0.000000 0.376928
1.000000 0.000000 0.340398
0.000000 0.145327 0.373754
0.000000 0.146578 0.374945
0.178195 0.150484 0.374823
0.323827 0.157870 0.372564
0.480659 0.133944 0.381170
0.738796 0.000000 0.408942
0.889738 0.000000 0.383032
1.000000 0.000000 0.345281
0.000000 0.222324 0.419837
0.000000 0.224094 0.419867
0.208316 0.229770 0.418524
0.369940 0.241825 0.415900
0.527947 0.240238 0.422248
0.745357 0.218326 0.433173
0.891142 0.152682 0.403235
1.000000 0.193729 0.382391
0.000000 0.358923 0.474250
0.000000 0.360266 0.474922
0.222171 0.367224 0.481727
0.436255 0.384619 0.489143
0.599145 0.401587 0.495949
0.765103 0.387854 0.481819
0.892302 0.377020 0.452735
1.000000 0.400763 0.426246
0.209110 0.556115 0.566583
0.247532 0.557671 0.567437
0.360052 0.562676 0.569848
0.502098 0.572930 0.574640
0.651484 0.577111 0.569085
0.796994 0.566430 0.540124
0.925048 0.562676 0.504295
1.000000 0.566400 0.457801
0.437690 0.768002 0.695613
0.452674 0.767971 0.695094
0.506065 0.765499 0.690120
0.590723 0.763302 0.682368
0.685969 0.765743 0.669734
0.821653 0.763485 0.641993
0.939300 0.748684 0.585931
1.000000 0.734981 0.537072
0.637629 0.890471 0.800992
0.642420 0.889891 0.799985
0.665156 0.888579 0.797604
0.713069 0.887510 0.796902
0.761227 0.887846 0.788357
0.829648 0.886900 0.773831
0.913085 0.876921 0.744778
0.989715 0.861112 0.690486
0.786923 0.948333 0.878874
0.790036 0.948119 0.879057
0.803067 0.947448 0.880064
0.828794 0.947143 0.883970
0.845396 0.947631 0.879332
0.875059 0.947295 0.878050
0.913664 0.946715 0.865049
0.961730 0.940307 0.846738
0.000000 0.151858 0.503685
0.000000 0.152743 0.504784
0.189578 0.154971 0.505058
0.362982 0.155459 0.507958
0.534264 0.149691 0.516594
0.689723 0.108003 0.526238
0.911772 0.102541 0.571832
1.000000 0.128389 0.556634
0.000000 0.171786 0.509819
0.000000 0.172732 0.510033
0.200809 0.175113 0.510491
0.369329 0.177340 0.512139
0.536736 0.176852 0.518914
0.690913 0.153628 0.529442
0.909361 0.163973 0.573297
1.000000 0.172061 0.556451
0.000000 0.247898 0.550530
0.000000 0.248692 0.550347
0.246494 0.252689 0.550500
0.410864 0.258305 0.547692
0.572351 0.272068 0.550500
0.718685 0.276036 0.562707
0.916991 0.312291 0.598871
1.000000 0.302983 0.571832
0.000000 0.374670 0.596887
0.000000 0.375647 0.598749
0.282200 0.381903 0.606683
0.468391 0.395544 0.610040
0.627008 0.422522 0.610681
0.762997 0.442908 0.625666
0.918059 0.470863 0.637720
1.000000 0.448615 0.599542
0.144564 0.544823 0.654414
0.193637 0.545220 0.654597
0.315435 0.547204 0.655482
0.467903 0.553948 0.662623
0.651270 0.579461 0.673060
0.781277 0.609552 0.683833
0.901091 0.600061 0.664271
0.997223 0.574762 0.619409
0.397925 0.735805 0.739712
0.416632 0.737667 0.741390
0.477058 0.739773 0.742245
0.571405 0.744381 0.744503
0.679744 0.752346 0.748287
0.793606 0.757290 0.745510
0.900481 0.746029 0.717952
0.993103 0.733516 0.679316
0.647761 0.887449 0.847501
0.656275 0.888029 0.848478
0.682582 0.888243 0.849058
0.720943 0.887114 0.846616
0.770596 0.885435 0.842191
0.824186 0.884916 0.833982
0.901579 0.877928 0.812375
0.977356 0.861662 0.771084
0.788235 0.947509 0.901122
0.789975 0.947326 0.900816
0.799313 0.946990 0.900389
0.818326 0.946838 0.900389
0.846281 0.946258 0.900664
0.873930 0.946288 0.898070
0.909575 0.946227 0.891997
0.955718 0.940612 0.877775
0.000000 0.188235 0.662806
0.111574 0.188663 0.664393
0.276768 0.187472 0.664851
0.442542 0.183383 0.666743
0.605768 0.185306 0.667628
0.749813 0.188846 0.682185
0.870085 0.204288 0.686976
1.000000 0.307042 0.712490
0.000000 0.205417 0.663355
0.129244 0.205997 0.665095
0.281834 0.205264 0.665675
0.442695 0.202365 0.666072
0.603540 0.206668 0.666194
0.744961 0.212528 0.678950
0.864103 0.226230 0.682948
1.000000 0.316258 0.707790
0.114229 0.273747 0.690150
0.176730 0.274144 0.690181
0.312016 0.274876 0.689418
0.468910 0.277104 0.689082
0.623133 0.288548 0.687678
0.759152 0.308202 0.698695
0.876249 0.333806 0.705928
1.000000 0.418463 0.727749
0.059419 0.387121 0.729793
0.168246 0.387091 0.728817
0.325719 0.389258 0.727596
0.493721 0.397162 0.727932
0.647852 0.415442 0.727291
0.778866 0.448463 0.734829
0.887388 0.482582 0.742672
0.997589 0.555444 0.756283
0.000000 0.536034 0.747738
0.000000 0.534844 0.748135
0.272923 0.534539 0.753079
0.463508 0.537591 0.765591
0.642908 0.556054 0.765530
0.778927 0.594720 0.766140
0.881041 0.630518 0.776516
0.977661 0.678157 0.785336
0.307713 0.717922 0.806119
0.326421 0.717922 0.806119
0.391363 0.717098 0.805661
0.489113 0.715145 0.804471
0.609674 0.713252 0.803433
0.777432 0.743984 0.815579
0.876799 0.777584 0.826322
0.956878 0.771939 0.811368
0.571710 0.858244 0.862089
0.580407 0.858824 0.862547
0.610559 0.859342 0.862760
0.664332 0.860960 0.863584
0.732601 0.863554 0.864622
0.806912 0.868467 0.866972
0.878477 0.869963 0.864378
0.949584 0.858213 0.843748
0.776974 0.943572 0.920256
0.780453 0.943664 0.920500
0.795529 0.944305 0.921813
0.820523 0.945068 0.923705
0.847929 0.945434 0.924285
0.875792 0.945251 0.922698
0.906401 0.945373 0.919249
0.949645 0.941619 0.909239
0.334997 0.245335 0.833829
0.360906 0.245365 0.834379
0.443885 0.242557 0.832731
0.567926 0.241825 0.832395
0.699184 0.252903 0.831022
0.818875 0.292058 0.828153
0.924559 0.315740 0.840757
0.997528 0.361791 0.827634
0.331456 0.260075 0.832761
0.357885 0.259892 0.833341
0.442390 0.258030 0.832517
0.565454 0.257816 0.831754
0.696773 0.268681 0.830350
0.816464 0.306249 0.827543
0.921294 0.329229 0.839170
0.994476 0.372198 0.826047
0.329595 0.318517 0.839902
0.354437 0.318669 0.840024
0.440528 0.317998 0.838743
0.567163 0.323339 0.839963
0.697078 0.336126 0.837491
0.815061 0.370092 0.833738
0.918273 0.397803 0.843809
0.990143 0.439216 0.831785
0.277409 0.412177 0.852567
0.311498 0.412879 0.852811
0.414801 0.414588 0.852018
0.551598 0.421668 0.851682
0.689448 0.437903 0.850126
0.811093 0.471687 0.847166
0.911620 0.507408 0.854154
0.980835 0.548943 0.844358
0.000000 0.542779 0.861936
0.137942 0.541741 0.862852
0.302617 0.534813 0.864286
0.484657 0.535363 0.865660
0.653864 0.551202 0.863676
0.791165 0.583215 0.860838
0.894194 0.627649 0.863584
0.963073 0.669032 0.859434
0.000000 0.704097 0.876829
0.039643 0.701991 0.875975
0.218540 0.693935 0.873381
0.370550 0.681117 0.871305
0.578119 0.681178 0.877623
0.757443 0.708461 0.879149
0.875395 0.755123 0.879759
0.944244 0.790066 0.883452
0.501762 0.847440 0.906889
0.507744 0.847044 0.906645
0.534081 0.845487 0.905730
0.583642 0.843046 0.904265
0.649928 0.838590 0.901640
0.726040 0.830320 0.897002
0.860746 0.852323 0.903075
0.932616 0.878782 0.909087
0.728176 0.929076 0.932036
0.731044 0.929046 0.931975
0.743832 0.929168 0.931975
0.769284 0.929839 0.932341
0.804044 0.930816 0.932769
0.845823 0.932433 0.933410
0.892088 0.935424 0.934966
0.936339 0.937896 0.935332
