20 Preset/Travel Style 2/【3】LUT video cho PR-AE-FCPX/Travel 2 LUT (12).cube
# Created by Adobe Lightroom plugin Export LUT (1.24.0)
# www.johnrellis.com/lightroom/exportlut.htm
# Preset: 12素材江湖 - PORTRAIT I
# Color profile: E:\lut插件\exportlut.1.24\exportlut.lrplugin\color profiles\Rec709gamma2.4.icc
LUT_3D_SIZE 32
DOMAIN_MIN 0.0 0.0 0.0
DOMAIN_MAX 1.0 1.0 1.0
0.017914 0.073701 0.095186
0.019196 0.074678 0.095155
0.025818 0.074983 0.095857
0.038697 0.076783 0.096864
0.061463 0.079072 0.098512
0.088746 0.081392 0.100679
0.106020 0.083955 0.102724
0.129946 0.083589 0.104982
0.160372 0.080110 0.106325
0.197665 0.069917 0.107973
0.243107 0.043580 0.109255
0.297826 0.000000 0.110475
0.363043 0.000000 0.110933
0.439979 0.000000 0.111330
0.524590 0.000000 0.111147
0.612848 0.000000 0.110323
0.698909 0.000000 0.108492
0.779019 0.000000 0.106600
0.853971 0.000000 0.104250
0.920867 0.000000 0.101656
0.978027 0.000000 0.099825
1.000000 0.000000 0.099855
1.000000 0.000000 0.104067
1.000000 0.000000 0.114015
1.000000 0.000000 0.128664
1.000000 0.000000 0.147890
1.000000 0.000000 0.170962
1.000000 0.168643 0.197696
1.000000 0.243565 0.228305
1.000000 0.302068 0.262577
1.000000 0.355016 0.302037
1.000000 0.405798 0.346105
0.018189 0.075868 0.095491
0.019196 0.074678 0.095155
0.025116 0.076173 0.095796
0.037995 0.078004 0.096803
0.062745 0.079683 0.098451
0.087648 0.082277 0.100649
0.105348 0.084077 0.103090
0.128511 0.084749 0.104616
0.158175 0.081697 0.106630
0.194888 0.072389 0.108003
0.239658 0.048798 0.109255
0.293584 0.004303 0.110231
0.357916 0.000000 0.111086
0.433143 0.000000 0.111208
0.517540 0.000000 0.111116
0.605493 0.000000 0.110201
0.691981 0.000000 0.108766
0.772549 0.000000 0.106386
0.847990 0.000000 0.103700
0.915404 0.000000 0.100984
0.973114 0.000000 0.099184
1.000000 0.000000 0.099580
1.000000 0.000000 0.102358
1.000000 0.000000 0.111666
1.000000 0.000000 0.125978
1.000000 0.000000 0.143801
1.000000 0.000000 0.166201
1.000000 0.153353 0.192691
1.000000 0.233249 0.222416
1.000000 0.293797 0.257115
1.000000 0.347631 0.296361
1.000000 0.399115 0.340093
0.017121 0.080171 0.097169
0.017121 0.080171 0.097169
0.026673 0.078889 0.096040
0.035828 0.081636 0.097322
0.058595 0.083436 0.098970
0.086305 0.085878 0.101137
0.104189 0.087831 0.103212
0.126680 0.088411 0.104738
0.156069 0.086763 0.106355
0.192264 0.080171 0.108095
0.236088 0.060822 0.109010
0.289097 0.020172 0.109957
0.352331 0.000000 0.110750
0.426825 0.000000 0.110994
0.510124 0.000000 0.110933
0.597925 0.000000 0.109987
0.684718 0.000000 0.108522
0.766079 0.000000 0.106111
0.842008 0.000000 0.103395
0.910216 0.000000 0.100557
0.968780 0.000000 0.098085
1.000000 0.000000 0.097261
1.000000 0.000000 0.101076
1.000000 0.000000 0.108949
1.000000 0.000000 0.123507
1.000000 0.000000 0.141115
1.000000 0.000000 0.163394
1.000000 0.155673 0.189578
1.000000 0.234318 0.219638
1.000000 0.293889 0.253819
1.000000 0.346929 0.292699
1.000000 0.397559 0.336339
0.016602 0.088136 0.101411
0.016907 0.088136 0.101045
0.018097 0.088136 0.099611
0.042451 0.086061 0.097322
0.057954 0.088563 0.099672
0.083009 0.090639 0.101778
0.101961 0.091890 0.103487
0.124331 0.092988 0.105287
0.152804 0.092561 0.106569
0.188357 0.089906 0.107881
0.231662 0.080201 0.109071
0.283757 0.046113 0.110018
0.345800 0.000000 0.110719
0.418860 0.000000 0.110903
0.501122 0.000000 0.110475
0.587396 0.000000 0.109468
0.673793 0.000000 0.107668
0.755184 0.000000 0.104891
0.831418 0.000000 0.101656
0.900389 0.000000 0.098268
0.960204 0.000000 0.095674
1.000000 0.000000 0.094331
1.000000 0.000000 0.096956
1.000000 0.000000 0.104646
1.000000 0.000000 0.118257
1.000000 0.000000 0.136294
1.000000 0.000000 0.159609
1.000000 0.173220 0.186557
1.000000 0.244205 0.217197
1.000000 0.301122 0.251774
1.000000 0.352178 0.290776
1.000000 0.400732 0.333989
0.014740 0.094972 0.107240
0.014740 0.094972 0.107240
0.016632 0.094575 0.105928
0.023163 0.095583 0.102663
0.064057 0.092897 0.099123
0.084565 0.094636 0.101656
0.097658 0.097902 0.104280
0.119478 0.099519 0.105653
0.147494 0.100191 0.106844
0.181979 0.099275 0.108064
0.223850 0.095491 0.108858
0.274601 0.083894 0.109712
0.334936 0.037446 0.109957
0.406500 0.000000 0.110048
0.487068 0.000000 0.109499
0.574029 0.000000 0.108278
0.661280 0.000000 0.106081
0.744503 0.000000 0.103517
0.821653 0.000000 0.099825
0.891722 0.000000 0.095674
0.952361 0.000000 0.091066
1.000000 0.000000 0.089326
1.000000 0.000000 0.090517
1.000000 0.000000 0.098939
1.000000 0.000000 0.112520
1.000000 0.000000 0.132021
1.000000 0.106844 0.155520
1.000000 0.199893 0.182773
1.000000 0.261418 0.214237
1.000000 0.313176 0.249454
1.000000 0.360967 0.288518
1.000000 0.407233 0.331365
0.011383 0.102663 0.113161
0.013367 0.102602 0.113161
0.013001 0.102296 0.112245
0.013123 0.102358 0.109987
0.032868 0.104616 0.105623
0.088106 0.100435 0.101595
0.103670 0.102358 0.102846
0.117342 0.106416 0.105806
0.142153 0.109010 0.107179
0.175174 0.110414 0.108217
0.216556 0.109224 0.108858
0.266148 0.104677 0.109438
0.325322 0.092226 0.109499
0.395575 0.032288 0.109316
0.475502 0.000000 0.108736
0.562097 0.000000 0.107027
0.650111 0.000000 0.104219
0.734310 0.000000 0.100496
0.812345 0.000000 0.095888
0.883635 0.000000 0.090303
0.945983 0.000000 0.083314
1.000000 0.000000 0.076692
1.000000 0.000000 0.082338
1.000000 0.000000 0.098299
1.000000 0.012757 0.119356
1.000000 0.171115 0.144503
1.000000 0.232822 0.172213
1.000000 0.281926 0.203220
1.000000 0.326390 0.237064
1.000000 0.367620 0.273930
1.000000 0.408545 0.314855
1.000000 0.449042 0.358495
0.001373 0.114137 0.120668
0.002075 0.113802 0.120699
0.003693 0.113497 0.119875
0.005646 0.112551 0.118257
0.007172 0.114199 0.112917
0.048066 0.118166 0.108614
0.106996 0.112184 0.104555
0.130678 0.113619 0.104799
0.149233 0.118288 0.106264
0.173312 0.123384 0.108309
0.215030 0.125124 0.108492
0.265629 0.124483 0.108553
0.325566 0.118532 0.108675
0.396399 0.102785 0.108034
0.476844 0.034699 0.106630
0.563073 0.000000 0.103883
0.651148 0.000000 0.100496
0.734401 0.000000 0.095460
0.812680 0.000000 0.089448
0.884428 0.000000 0.078614
0.951934 0.000000 0.058503
1.000000 0.000000 0.045899
1.000000 0.000000 0.049287
1.000000 0.000000 0.079286
1.000000 0.153536 0.105501
1.000000 0.216800 0.132174
1.000000 0.264012 0.162875
1.000000 0.305577 0.194553
1.000000 0.344121 0.229160
1.000000 0.380987 0.266331
1.000000 0.418677 0.307561
1.000000 0.456611 0.351446
0.000000 0.126955 0.128817
0.000000 0.126955 0.128542
0.000000 0.126406 0.127565
0.000000 0.125338 0.126101
0.000000 0.123659 0.123598
0.003571 0.128908 0.116548
0.078187 0.134371 0.111238
0.131258 0.125948 0.107210
0.161349 0.127291 0.106722
0.184512 0.132021 0.106996
0.211276 0.137881 0.107362
0.252384 0.142184 0.108156
0.310307 0.142153 0.107485
0.378698 0.136629 0.106416
0.457252 0.121523 0.104463
0.542138 0.087800 0.101442
0.629725 0.000000 0.096864
0.714595 0.000000 0.090791
0.793851 0.000000 0.078889
0.870115 0.000000 0.053956
0.939025 0.000000 0.029358
0.996582 0.000000 0.009949
1.000000 0.068025 0.008057
1.000000 0.164004 0.032258
1.000000 0.218967 0.087800
1.000000 0.262486 0.119051
1.000000 0.299962 0.151247
1.000000 0.334325 0.185794
1.000000 0.367681 0.221836
1.000000 0.400977 0.260441
1.000000 0.434760 0.302403
1.000000 0.469551 0.346929
0.000000 0.143313 0.138186
0.000000 0.143313 0.137942
0.000000 0.142428 0.136904
0.000000 0.141207 0.135378
0.000000 0.139620 0.133150
0.000000 0.141024 0.125765
0.005951 0.147768 0.120027
0.103456 0.155550 0.113680
0.161624 0.143648 0.109285
0.199863 0.144106 0.108675
0.227420 0.149508 0.108461
0.259800 0.155642 0.107454
0.296269 0.162325 0.106172
0.361852 0.163241 0.104799
0.438575 0.158602 0.101991
0.522271 0.146273 0.098085
0.609796 0.124849 0.092042
0.695430 0.092744 0.082033
0.777615 0.033448 0.058228
0.856321 0.028229 0.025483
0.925017 0.098878 0.000000
0.983246 0.146639 0.000000
1.000000 0.193637 0.000000
1.000000 0.236149 0.000000
1.000000 0.274052 0.033295
1.000000 0.307408 0.101411
1.000000 0.338048 0.140200
1.000000 0.366888 0.177462
1.000000 0.395697 0.215183
1.000000 0.424933 0.255650
1.000000 0.454994 0.298558
1.000000 0.486793 0.343877
0.000000 0.163210 0.149325
0.000000 0.163027 0.148928
0.000000 0.162081 0.148013
0.000000 0.160922 0.146456
0.000000 0.158572 0.143740
0.000000 0.155795 0.140322
0.000000 0.162020 0.129305
0.019684 0.171145 0.123415
0.132509 0.181308 0.114992
0.200107 0.164492 0.110964
0.246128 0.163851 0.109377
0.278996 0.169375 0.108431
0.316197 0.175875 0.106661
0.358343 0.182650 0.104005
0.417975 0.187198 0.099306
0.500999 0.184421 0.094026
0.588617 0.177707 0.086244
0.678431 0.170108 0.064240
0.763149 0.168978 0.032441
0.841459 0.178408 0.000000
0.910094 0.199130 0.000000
0.968383 0.226535 0.000000
1.000000 0.258122 0.000000
1.000000 0.289982 0.000000
1.000000 0.319615 0.000000
1.000000 0.346471 0.060029
1.000000 0.372595 0.122286
1.000000 0.397681 0.163851
1.000000 0.423041 0.205966
1.000000 0.449134 0.248356
1.000000 0.476326 0.293095
1.000000 0.505608 0.340703
0.000000 0.185519 0.161257
0.000000 0.185519 0.161257
0.000000 0.184726 0.160433
0.000000 0.183291 0.158541
0.000000 0.180880 0.155795
0.000000 0.177707 0.152041
0.000000 0.177554 0.144442
0.000000 0.187991 0.133944
0.058656 0.199680 0.126223
0.170993 0.212497 0.114565
0.248386 0.189395 0.111177
0.303716 0.187198 0.108553
0.342168 0.192996 0.106630
0.385260 0.199557 0.103517
0.432532 0.206699 0.099153
0.484230 0.214969 0.092622
0.571160 0.217044 0.074403
0.660395 0.219211 0.041169
0.744350 0.224918 0.004639
0.822263 0.238102 0.000000
0.891844 0.257755 0.000000
0.951354 0.282170 0.000000
1.000000 0.309911 0.000000
1.000000 0.337804 0.000000
1.000000 0.363989 0.000000
1.000000 0.387976 0.000000
1.000000 0.410498 0.103243
1.000000 0.432441 0.152407
1.000000 0.454231 0.197787
1.000000 0.477302 0.243748
1.000000 0.501305 0.290013
1.000000 0.527642 0.339574
0.000000 0.212131 0.175540
0.000000 0.211978 0.175235
0.000000 0.211063 0.174228
0.000000 0.209506 0.172427
0.000000 0.206943 0.169375
0.000000 0.203647 0.165621
0.000000 0.199130 0.160830
0.000000 0.206394 0.145052
0.000000 0.219059 0.138064
0.108492 0.233890 0.127535
0.220920 0.249546 0.111177
0.308080 0.219181 0.108553
0.393927 0.221592 0.103090
0.444953 0.229465 0.098299
0.497475 0.237888 0.091768
0.552148 0.247898 0.077943
0.606897 0.260136 0.045808
0.674464 0.272648 0.000000
0.757870 0.287419 0.000000
0.834958 0.307347 0.000000
0.902220 0.330846 0.000000
0.959350 0.356146 0.000000
1.000000 0.381872 0.000000
1.000000 0.406012 0.000000
1.000000 0.427771 0.000000
1.000000 0.447028 0.000000
1.000000 0.464851 0.103090
1.000000 0.482155 0.159670
1.000000 0.499550 0.207523
1.000000 0.518090 0.254978
1.000000 0.538293 0.302770
1.000000 0.560723 0.352422
0.000000 0.246738 0.193820
0.000000 0.246555 0.193576
0.000000 0.245396 0.192294
0.000000 0.243259 0.190158
0.000000 0.240299 0.187045
0.000000 0.236057 0.182681
0.000000 0.230686 0.177188
0.000000 0.227298 0.169131
0.000000 0.242008 0.151339
0.000000 0.258518 0.141909
0.157809 0.278752 0.127047
0.292302 0.299931 0.101106
0.398688 0.261997 0.100557
0.482795 0.256077 0.093172
0.536339 0.265202 0.082307
0.587823 0.275090 0.056428
0.638270 0.287205 0.020569
0.686519 0.301976 0.000000
0.732662 0.319799 0.000000
0.806271 0.339818 0.000000
0.875029 0.363470 0.000000
0.934783 0.388952 0.000000
0.985840 0.414862 0.000000
1.000000 0.439063 0.000000
1.000000 0.460548 0.000000
1.000000 0.479438 0.000000
1.000000 0.496315 0.047181
1.000000 0.512200 0.141970
1.000000 0.527947 0.197635
1.000000 0.544732 0.247898
1.000000 0.562737 0.298466
1.000000 0.582849 0.351019
0.000000 0.279850 0.211612
0.000000 0.279423 0.211185
0.000000 0.278080 0.209720
0.000000 0.276188 0.207858
0.000000 0.273014 0.204318
0.000000 0.268467 0.199680
0.000000 0.263127 0.194156
0.000000 0.256535 0.187564
0.000000 0.263188 0.170687
0.000000 0.281590 0.156954
0.000000 0.302983 0.144411
0.217014 0.327184 0.123598
0.366735 0.346838 0.084321
0.485451 0.304143 0.083833
0.573388 0.295872 0.057160
0.624048 0.306462 0.024353
0.669947 0.318303 0.000000
0.713771 0.332372 0.000000
0.756039 0.349493 0.000000
0.796963 0.369451 0.000000
0.848020 0.392370 0.000000
0.910735 0.418860 0.000000
0.964569 0.445655 0.000000
1.000000 0.470802 0.000000
1.000000 0.492805 0.000000
1.000000 0.511467 0.000000
1.000000 0.527855 0.000000
1.000000 0.542535 0.124666
1.000000 0.556970 0.187289
1.000000 0.571923 0.243107
1.000000 0.587976 0.296666
1.000000 0.605921 0.350652
0.000000 0.319158 0.232761
0.000000 0.319097 0.232547
0.000000 0.317327 0.231083
0.000000 0.315007 0.228672
0.000000 0.311009 0.224704
0.000000 0.305821 0.219608
0.000000 0.299565 0.213382
0.000000 0.292119 0.206058
0.000000 0.283940 0.197879
0.000000 0.303838 0.171633
0.000000 0.325872 0.161074
0.113558 0.351568 0.144228
0.288731 0.378943 0.114199
0.445991 0.395544 0.026520
0.572168 0.349981 0.022919
0.657465 0.341161 0.000000
0.702419 0.354040 0.000000
0.742580 0.367559 0.000000
0.781430 0.383734 0.000000
0.818601 0.402136 0.000000
0.853910 0.422797 0.000000
0.888182 0.445899 0.000000
0.942687 0.473701 0.000000
0.990570 0.499977 0.000000
1.000000 0.522698 0.000000
1.000000 0.541772 0.000000
1.000000 0.558007 0.000000
1.000000 0.572381 0.105867
1.000000 0.585931 0.180301
1.000000 0.599878 0.240879
1.000000 0.614710 0.297795
1.000000 0.631373 0.356146
0.000000 0.358587 0.254520
0.000000 0.358465 0.254246
0.000000 0.357122 0.252995
0.000000 0.354864 0.250645
0.000000 0.350713 0.246372
0.000000 0.345586 0.241215
0.000000 0.339361 0.234867
0.000000 0.331762 0.227176
0.000000 0.322728 0.218357
0.000000 0.326513 0.201724
0.000000 0.349950 0.178225
0.000000 0.375891 0.164523
0.192294 0.404364 0.141360
0.368963 0.433021 0.096651
0.524590 0.444770 0.000000
0.648707 0.399084 0.000000
0.729549 0.390387 0.000000
0.769741 0.404944 0.000000
0.805447 0.419806 0.000000
0.839414 0.436622 0.000000
0.872251 0.456062 0.000000
0.903899 0.477455 0.000000
0.933959 0.500603 0.000000
0.971649 0.526970 0.000000
1.000000 0.551202 0.000000
1.000000 0.571252 0.000000
1.000000 0.587732 0.000000
1.000000 0.601740 0.083894
1.000000 0.614374 0.175051
1.000000 0.626886 0.239658
1.000000 0.640070 0.299626
1.000000 0.654749 0.359533
0.000000 0.399145 0.277684
0.000000 0.398901 0.277470
0.000000 0.397467 0.276005
0.000000 0.395026 0.273289
0.000000 0.391302 0.269566
0.000000 0.386053 0.264164
0.000000 0.379522 0.257237
0.000000 0.371283 0.248844
0.000000 0.362005 0.239658
0.000000 0.350866 0.229038
0.000000 0.370550 0.199985
0.000000 0.396918 0.183200
0.000000 0.426215 0.165316
0.272892 0.456733 0.134798
0.451118 0.486732 0.037903
0.598077 0.495033 0.000000
0.718044 0.452033 0.000000
0.795102 0.444800 0.000000
0.830716 0.460365 0.000000
0.861357 0.475135 0.000000
0.891295 0.492317 0.000000
0.920256 0.511559 0.000000
0.947692 0.532464 0.000000
0.973236 0.554070 0.000000
0.996460 0.577081 0.000000
1.000000 0.598352 0.000000
1.000000 0.615351 0.000000
1.000000 0.629206 0.028443
1.000000 0.641505 0.170474
1.000000 0.653101 0.240452
1.000000 0.665095 0.303685
1.000000 0.678523 0.366064
0.000000 0.442512 0.303899
0.000000 0.442512 0.303746
0.000000 0.456947 0.312200
0.000000 0.454170 0.309209
0.000000 0.450172 0.304814
0.000000 0.444343 0.298589
0.000000 0.436805 0.290623
0.000000 0.427710 0.281041
0.000000 0.417243 0.270329
0.000000 0.405097 0.258427
0.000000 0.403326 0.240574
0.000000 0.432288 0.205417
0.000000 0.462409 0.190860
0.158358 0.494514 0.167117
0.374029 0.526513 0.123781
0.549554 0.557977 0.000000
0.681086 0.562036 0.000000
0.795560 0.522881 0.000000
0.864256 0.513817 0.000000
0.892973 0.527520 0.000000
0.918334 0.540856 0.000000
0.943206 0.556481 0.000000
0.966796 0.573114 0.000000
0.988617 0.590356 0.000000
1.000000 0.607294 0.000000
1.000000 0.625910 0.000000
1.000000 0.642634 0.000000
1.000000 0.655818 0.000000
1.000000 0.667292 0.168612
1.000000 0.678065 0.242222
1.000000 0.689052 0.308293
1.000000 0.701228 0.373266
0.000000 0.491890 0.334813
0.000000 0.493202 0.335668
0.000000 0.493599 0.335302
0.000000 0.492714 0.333715
0.000000 0.489754 0.329778
0.000000 0.484596 0.324010
0.000000 0.477424 0.316106
0.000000 0.468177 0.306096
0.000000 0.457710 0.295079
0.000000 0.445258 0.282322
0.000000 0.431373 0.268559
0.000000 0.447974 0.239353
0.000000 0.479103 0.210788
0.000000 0.510948 0.193393
0.260288 0.544152 0.163851
0.454292 0.577081 0.108003
0.618921 0.609979 0.000000
0.737575 0.611444 0.000000
0.845823 0.575555 0.000000
0.909148 0.565484 0.000000
0.934264 0.578424 0.000000
0.956878 0.591302 0.000000
0.978180 0.604974 0.000000
0.997986 0.619104 0.000000
1.000000 0.633021 0.000000
1.000000 0.646723 0.000000
1.000000 0.662867 0.000000
1.000000 0.678370 0.000000
1.000000 0.689815 0.162539
1.000000 0.700252 0.242283
1.000000 0.710719 0.311406
1.000000 0.722011 0.378882
0.000000 0.535058 0.363165
0.000000 0.536248 0.363806
0.000000 0.536980 0.363928
0.000000 0.536248 0.362158
0.000000 0.533684 0.358618
0.000000 0.528496 0.352453
0.000000 0.521233 0.344121
0.000000 0.512413 0.334295
0.000000 0.502007 0.322850
0.000000 0.489601 0.309697
0.000000 0.475624 0.295140
0.000000 0.466468 0.277195
0.000000 0.498390 0.234165
0.000000 0.530968 0.216587
0.000000 0.564569 0.195926
0.354101 0.598383 0.160433
0.533654 0.632197 0.082765
0.686854 0.665766 0.000000
0.792416 0.662165 0.000000
0.891875 0.627985 0.000000
0.948699 0.615473 0.000000
0.969726 0.625910 0.000000
0.989014 0.636500 0.000000
1.000000 0.647547 0.000000
1.000000 0.658534 0.000000
1.000000 0.669642 0.000000
1.000000 0.680903 0.000000
1.000000 0.695583 0.000000
1.000000 0.711086 0.159670
1.000000 0.721492 0.243839
1.000000 0.731411 0.315709
1.000000 0.741970 0.385595
0.000000 0.581079 0.394598
0.000000 0.582422 0.395453
0.000000 0.582727 0.394873
0.000000 0.581872 0.393286
0.000000 0.579614 0.389929
0.000000 0.574426 0.383551
0.000000 0.567712 0.375402
0.000000 0.559319 0.365667
0.000000 0.548669 0.353613
0.000000 0.536584 0.339940
0.000000 0.522728 0.324681
0.000000 0.506828 0.307866
0.000000 0.518181 0.279576
0.000000 0.552361 0.239261
0.000000 0.586297 0.223484
0.229129 0.620905 0.199191
0.446357 0.655909 0.157717
0.610986 0.689540 0.033570
0.752865 0.720974 0.000000
0.845792 0.713100 0.000000
0.935149 0.680781 0.000000
0.985687 0.665187 0.000000
1.000000 0.672816 0.000000
1.000000 0.681300 0.000000
1.000000 0.689876 0.000000
1.000000 0.698512 0.000000
1.000000 0.707332 0.000000
1.000000 0.717525 0.000000
1.000000 0.731014 0.169955
1.000000 0.745602 0.264195
1.000000 0.757046 0.341039
1.000000 0.766995 0.412634
0.000000 0.639582 0.436896
0.000000 0.639948 0.436957
0.000000 0.639429 0.436042
0.000000 0.637476 0.433387
0.000000 0.633997 0.428962
0.000000 0.628656 0.422339
0.000000 0.621973 0.414160
0.000000 0.613489 0.403693
0.000000 0.603204 0.391180
0.000000 0.591272 0.376898
0.000000 0.577752 0.361059
0.000000 0.562127 0.343481
0.000000 0.544762 0.324407
0.000000 0.579736 0.281712
0.000000 0.615015 0.251835
0.000000 0.650080 0.234012
0.351354 0.684382 0.206973
0.536675 0.716457 0.165072
0.686366 0.745602 0.064607
0.814359 0.772122 0.000000
0.892393 0.757992 0.000000
0.969696 0.723140 0.000000
1.000000 0.703304 0.000000
1.000000 0.707515 0.000000
1.000000 0.713375 0.000000
1.000000 0.719814 0.000000
1.000000 0.726741 0.000000
1.000000 0.734005 0.000000
1.000000 0.744564 0.159182
1.000000 0.757504 0.261540
1.000000 0.771878 0.345861
1.000000 0.785245 0.423896
0.000000 0.689357 0.474830
0.000000 0.689845 0.475349
0.000000 0.689143 0.474037
0.000000 0.687312 0.471321
0.000000 0.684443 0.467445
0.000000 0.679622 0.460883
0.000000 0.673121 0.452277
0.000000 0.665156 0.441871
0.000000 0.655818 0.429847
0.000000 0.644373 0.415290
0.000000 0.631373 0.399176
0.000000 0.616602 0.381048
0.000000 0.599207 0.360601
0.000000 0.604211 0.332982
0.000000 0.641840 0.277928
0.000000 0.676783 0.265446
0.215946 0.710536 0.247745
0.453956 0.741207 0.222934
0.617365 0.768887 0.185946
0.752499 0.793454 0.123262
0.866056 0.814664 0.000000
0.931182 0.794766 0.000000
0.997253 0.758633 0.000000
1.000000 0.736110 0.000000
1.000000 0.735317 0.000000
1.000000 0.739437 0.000000
1.000000 0.744656 0.000000
1.000000 0.750362 0.090578
1.000000 0.756893 0.141665
1.000000 0.768399 0.256168
1.000000 0.781521 0.344610
1.000000 0.796445 0.428016
0.000000 0.743435 0.521080
0.000000 0.744137 0.521813
0.000000 0.743862 0.520989
0.000000 0.741939 0.517967
0.000000 0.738674 0.513237
0.000000 0.733791 0.506340
0.000000 0.727565 0.497230
0.000000 0.719814 0.486244
0.000000 0.710567 0.473213
0.000000 0.699855 0.458442
0.000000 0.687221 0.441444
0.000000 0.672419 0.421973
0.000000 0.655756 0.400946
0.000000 0.636683 0.378119
0.000000 0.665064 0.338018
0.000000 0.700862 0.293706
0.000000 0.732509 0.281621
0.352941 0.761532 0.265049
0.540093 0.787594 0.243778
0.685512 0.810636 0.214481
0.805966 0.830167 0.170504
0.906401 0.846372 0.078187
0.959747 0.821622 0.000000
1.000000 0.784573 0.000000
1.000000 0.759762 0.055421
1.000000 0.760372 0.104768
1.000000 0.762966 0.131594
1.000000 0.766873 0.156191
1.000000 0.771450 0.181247
1.000000 0.779324 0.250889
1.000000 0.791135 0.343847
1.000000 0.804929 0.430426
0.000000 0.785153 0.561364
0.000000 0.785885 0.562097
0.000000 0.785702 0.561517
0.000000 0.784421 0.559075
0.000000 0.782040 0.554864
0.000000 0.778653 0.548943
0.000000 0.774197 0.541192
0.000000 0.768276 0.530907
0.000000 0.761471 0.519219
0.000000 0.753109 0.505394
0.000000 0.743069 0.489204
0.000000 0.731258 0.470741
0.000000 0.717098 0.449561
0.000000 0.700465 0.426093
0.000000 0.697444 0.397650
0.000000 0.732509 0.344640
0.000000 0.762997 0.320409
0.223301 0.789395 0.310918
0.467384 0.813107 0.298802
0.624781 0.833463 0.283421
0.751064 0.850309 0.263249
0.855619 0.864134 0.235233
0.942626 0.875242 0.192599
0.985595 0.846891 0.177737
1.000000 0.809689 0.175509
1.000000 0.783841 0.182773
1.000000 0.783566 0.198154
1.000000 0.785183 0.215824
1.000000 0.788479 0.235294
1.000000 0.792660 0.261021
1.000000 0.803250 0.355840
1.000000 0.815976 0.444343
0.000000 0.828000 0.609277
0.000000 0.828153 0.609400
0.000000 0.827878 0.608637
0.000000 0.826719 0.606195
0.000000 0.824826 0.602289
0.000000 0.822110 0.596582
0.000000 0.818540 0.589410
0.000000 0.813931 0.580011
0.000000 0.808347 0.568688
0.000000 0.801816 0.555718
0.000000 0.793759 0.540002
0.000000 0.784329 0.522484
0.000000 0.773190 0.502281
0.000000 0.759884 0.479286
0.000000 0.744259 0.453712
0.000000 0.762539 0.416236
0.000000 0.793301 0.359533
0.000000 0.817044 0.355200
0.386328 0.837888 0.349798
0.563531 0.855375 0.342565
0.696407 0.869688 0.332982
0.804593 0.881132 0.318883
0.894804 0.890288 0.298039
0.968566 0.895476 0.268864
1.000000 0.866423 0.252842
1.000000 0.829465 0.244724
1.000000 0.803037 0.246311
1.000000 0.802121 0.258732
1.000000 0.803037 0.274327
1.000000 0.805966 0.294163
1.000000 0.813413 0.361761
1.000000 0.824887 0.451575
0.000000 0.863615 0.656489
0.000000 0.863767 0.656519
0.000000 0.863554 0.655726
0.000000 0.862974 0.654078
0.000000 0.861814 0.650874
0.000000 0.860349 0.646601
0.000000 0.858610 0.641230
0.000000 0.856321 0.634394
0.000000 0.853574 0.626032
0.000000 0.850187 0.616052
0.000000 0.846098 0.604181
0.000000 0.840787 0.589746
0.000000 0.834195 0.572595
0.000000 0.825986 0.552636
0.000000 0.815640 0.529198
0.000000 0.809354 0.501610
0.000000 0.835935 0.456550
0.000000 0.857908 0.422400
0.335454 0.873716 0.423163
0.526116 0.886595 0.422889
0.660060 0.896941 0.420966
0.767391 0.905089 0.415625
0.856046 0.911498 0.406134
0.931579 0.916503 0.389990
0.992462 0.916228 0.367285
1.000000 0.887572 0.348455
1.000000 0.851591 0.335790
1.000000 0.824918 0.330663
1.000000 0.823667 0.341802
1.000000 0.824002 0.357336
1.000000 0.827756 0.392981
1.000000 0.838224 0.482460
0.331731 0.899809 0.718013
0.330938 0.899718 0.717739
0.328161 0.899443 0.716732
0.323857 0.898894 0.714961
0.316411 0.898100 0.711940
0.305638 0.896941 0.707729
0.291966 0.895476 0.702449
0.274693 0.893736 0.695918
0.251102 0.891569 0.687770
0.221622 0.888975 0.678096
0.178073 0.885801 0.666529
0.098817 0.882078 0.653010
0.000000 0.877470 0.637232
0.000000 0.871885 0.619074
