20 Preset/Travel Style 2/【3】LUT video cho PR-AE-FCPX/Travel 2 LUT (11).cube
# Created by Adobe Lightroom plugin Export LUT (1.24.0)
# www.johnrellis.com/lightroom/exportlut.htm
# Preset: 11素材江湖 - PINETREE
# Color profile: E:\lut插件\exportlut.1.24\exportlut.lrplugin\color profiles\Rec709gamma2.4.icc
LUT_3D_SIZE 5
DOMAIN_MIN 0.000000 0.000000 0.000000
DOMAIN_MAX 0.903226 0.903226 0.903226
0.115206 0.115206 0.115206
0.172671 0.118532 0.115633
0.496407 0.152316 0.095155
1.000000 0.262577 0.000000
1.000000 0.389319 0.262821
0.135439 0.150149 0.124208
0.182071 0.170687 0.126772
0.474861 0.249332 0.156649
1.000000 0.383398 0.148867
1.000000 0.503960 0.387366
0.274907 0.354772 0.196963
0.329259 0.375463 0.206058
0.669520 0.601648 0.232242
0.930724 0.708736 0.601282
1.000000 0.796750 0.725460
0.610193 0.776364 0.452705
0.662470 0.774533 0.479683
0.801144 0.843229 0.579187
0.974884 0.927031 0.752132
1.000000 0.940581 0.898283
0.887816 0.965789 0.831205
0.901030 0.964965 0.838865
0.935149 0.971160 0.864164
0.979034 0.985504 0.909606
1.000000 0.993744 0.951629
0.113283 0.126741 0.149416
0.159030 0.115541 0.163699
0.430640 0.000000 0.175387
1.000000 0.159792 0.198001
1.000000 0.414343 0.375128
0.119875 0.163058 0.167391
0.169314 0.169314 0.169314
0.474647 0.221469 0.199619
1.000000 0.347234 0.256626
1.000000 0.530816 0.471656
0.215488 0.374701 0.230900
0.306035 0.371405 0.249485
0.617670 0.564538 0.322545
0.923095 0.704768 0.615015
1.000000 0.807950 0.751888
0.584314 0.784237 0.496529
0.643122 0.782864 0.521508
0.793179 0.836393 0.622431
0.966125 0.925658 0.782315
1.000000 0.944549 0.910033
0.883970 0.967559 0.840513
0.897307 0.966674 0.847593
0.936858 0.971527 0.876280
0.979065 0.985840 0.918791
1.000000 0.994263 0.958038
0.000000 0.236393 0.389929
0.092622 0.211063 0.403052
0.385595 0.097322 0.405493
0.803861 0.000000 0.480720
1.000000 0.260777 0.535607
0.126619 0.309331 0.418524
0.196139 0.301213 0.422919
0.395880 0.180179 0.414008
0.860777 0.000000 0.487282
1.000000 0.471748 0.594354
0.000000 0.435309 0.460975
0.067750 0.435279 0.456886
0.432136 0.432136 0.432136
0.924407 0.652308 0.637140
1.000000 0.815671 0.802182
0.338231 0.808499 0.612177
0.461616 0.804135 0.616663
0.735164 0.799680 0.688472
0.936858 0.914672 0.841337
0.995239 0.953918 0.938384
0.854734 0.974090 0.863188
0.871855 0.973236 0.869963
0.925933 0.970733 0.894957
0.975708 0.984497 0.936706
1.000000 0.995178 0.972290
0.173220 0.546044 0.843015
0.288487 0.540612 0.846250
0.453376 0.429877 0.846281
0.774594 0.000000 0.817288
1.000000 0.000000 0.777646
0.423682 0.634333 0.844999
0.453132 0.626490 0.846372
0.514946 0.530358 0.844724
0.775570 0.204257 0.815854
1.000000 0.166293 0.773495
0.531456 0.728206 0.848692
0.586725 0.736995 0.844846
0.702754 0.752773 0.839109
0.769223 0.515862 0.795163
1.000000 0.577478 0.789364
0.469123 0.823972 0.854856
0.520775 0.824735 0.852720
0.665126 0.827207 0.844388
0.809049 0.809049 0.809049
1.000000 0.940185 0.937072
0.722591 0.989929 0.906523
0.754513 0.988373 0.907805
0.856687 0.983459 0.917510
0.960723 0.978912 0.948577
0.999359 0.996460 0.987457
0.726619 0.822324 0.974578
0.741238 0.824704 0.975006
0.774655 0.818479 0.978393
0.787411 0.723659 0.984558
0.947509 0.447364 0.990570
0.753567 0.841428 0.971130
0.765408 0.843229 0.971893
0.798154 0.840635 0.974792
0.799161 0.751064 0.979950
0.945281 0.495247 0.985809
0.808896 0.886839 0.969787
0.828214 0.893767 0.968963
0.856565 0.897429 0.970703
0.850828 0.844755 0.972076
0.948363 0.670375 0.977783
0.814939 0.918120 0.976928
0.826932 0.920226 0.976165
0.878782 0.933715 0.975830
0.938689 0.952422 0.978515
0.967590 0.871153 0.979522
0.810391 0.968566 0.985840
0.821653 0.969299 0.985565
0.870085 0.973968 0.985840
0.931518 0.979797 0.985565
0.976623 0.976623 0.976623
