20 Preset/Travel Style 2/【3】LUT video cho PR-AE-FCPX/Travel 2 LUT (1).cube
# Created by Adobe Lightroom plugin Export LUT (1.24.0)
# www.johnrellis.com/lightroom/exportlut.htm
# Preset: 01素材江湖 - COMPASS
# Color profile: E:\lut插件\exportlut.1.24\exportlut.lrplugin\color profiles\Rec709gamma2.4.icc
LUT_3D_SIZE 5
DOMAIN_MIN 0.000000 0.000000 0.000000
DOMAIN_MAX 0.903226 0.903226 0.903226
0.000000 0.000000 0.000000
0.112032 0.000000 0.000549
0.316197 0.000000 0.000000
0.629603 0.000000 0.000000
1.000000 0.000000 0.000000
0.070039 0.094148 0.032105
0.128267 0.104891 0.010956
0.320836 0.141695 0.000000
0.643427 0.166232 0.000000
1.000000 0.152773 0.000000
0.233005 0.284245 0.164248
0.252720 0.272374 0.165652
0.405982 0.329137 0.087221
0.709346 0.417670 0.000000
1.000000 0.450355 0.000000
0.482246 0.592920 0.330968
0.501213 0.578088 0.338201
0.595300 0.603174 0.298039
0.788479 0.637903 0.149020
1.000000 0.674311 0.106447
0.792477 0.895048 0.676905
0.803586 0.890715 0.679927
0.823911 0.868070 0.648768
0.923857 0.902953 0.602258
1.000000 0.879026 0.495521
0.001678 0.026368 0.077638
0.103243 0.000000 0.106081
0.295781 0.000000 0.130190
0.589776 0.000000 0.132052
0.963653 0.000000 0.126467
0.008148 0.114473 0.113191
0.117800 0.117800 0.117800
0.310704 0.119234 0.124575
0.601007 0.096284 0.129549
0.970397 0.000000 0.119936
0.210971 0.302007 0.196780
0.247654 0.285222 0.203586
0.368719 0.308598 0.164462
0.655085 0.386633 0.115724
1.000000 0.429084 0.114382
0.474891 0.613336 0.364996
0.500328 0.600214 0.372137
0.585687 0.601953 0.350713
0.777615 0.636042 0.237400
1.000000 0.674098 0.225650
0.790127 0.900175 0.694179
0.800504 0.895354 0.695460
0.840177 0.882536 0.703639
0.925505 0.910826 0.653956
1.000000 0.890349 0.560784
0.000000 0.140383 0.245182
0.012268 0.117433 0.263371
0.303319 0.000000 0.310979
0.585870 0.000000 0.366003
0.960449 0.000000 0.408484
0.137819 0.209781 0.261662
0.148318 0.201419 0.277531
0.313573 0.126802 0.320317
0.599390 0.000000 0.364874
0.974212 0.000000 0.398749
0.000000 0.370123 0.364935
0.163119 0.366186 0.362097
0.351324 0.351324 0.351324
0.656245 0.356756 0.363043
0.995056 0.367926 0.386542
0.268101 0.715114 0.473762
0.387213 0.689418 0.481300
0.564965 0.625238 0.499336
0.750301 0.649226 0.439765
1.000000 0.682399 0.440406
0.766629 0.919005 0.746304
0.781430 0.915526 0.748867
0.828275 0.898466 0.754482
0.898589 0.903166 0.729702
1.000000 0.894804 0.654475
0.000000 0.297917 0.523613
0.000000 0.273686 0.538384
0.285771 0.203037 0.580316
0.609888 0.000000 0.625330
0.940154 0.000000 0.677180
0.123323 0.361547 0.535393
0.135866 0.345922 0.546258
0.292271 0.267216 0.580499
0.604211 0.000000 0.619043
0.936980 0.000000 0.669215
0.319768 0.494057 0.568994
0.360967 0.492988 0.562463
0.405493 0.474006 0.590967
0.609369 0.339940 0.620233
0.960784 0.335332 0.667475
0.243534 0.758358 0.748989
0.315282 0.751766 0.743008
0.505821 0.737453 0.731655
0.688075 0.688075 0.688075
0.972717 0.701595 0.705989
0.711543 0.970397 0.850675
0.729183 0.967651 0.850126
0.792721 0.955932 0.849241
0.882780 0.917174 0.848966
0.982757 0.914916 0.800595
0.213169 0.536370 0.846403
0.199039 0.515557 0.849973
0.291020 0.442786 0.868040
0.569970 0.311437 0.889433
0.885985 0.000000 0.908171
0.333806 0.580682 0.840208
0.323186 0.563195 0.844480
0.332708 0.485481 0.862150
0.567468 0.359686 0.883055
0.881804 0.000000 0.903441
0.523674 0.696834 0.836057
0.528466 0.691981 0.838590
0.548089 0.664912 0.854978
0.592432 0.535119 0.876493
0.886412 0.343664 0.905486
0.648554 0.823697 0.886290
0.661433 0.821714 0.883116
0.723842 0.823087 0.876310
0.768917 0.809201 0.890318
0.913939 0.700038 0.924285
0.742000 0.964202 0.958282
0.753719 0.963684 0.958007
0.806973 0.963836 0.959442
0.877958 0.961425 0.958923
0.935088 0.935088 0.935088
