20 Preset/Travel Style 2/【3】LUT video cho PR-AE-FCPX/Travel 2 LUT (9).cube
# Created by Adobe Lightroom plugin Export LUT (1.24.0)
# www.johnrellis.com/lightroom/exportlut.htm
# Preset: 09素材江湖 - LANDSCAPE II
# Color profile: E:\lut插件\exportlut.1.24\exportlut.lrplugin\color profiles\Rec709gamma2.4.icc
LUT_3D_SIZE 8
DOMAIN_MIN 0.000000 0.000000 0.000000
DOMAIN_MAX 0.903226 0.903226 0.903226
0.126223 0.126223 0.126223
0.128786 0.126711 0.126925
0.140108 0.128420 0.128542
0.164736 0.131167 0.131899
0.214542 0.135653 0.137972
0.312291 0.140169 0.146548
0.561730 0.136110 0.164187
0.800290 0.144869 0.200565
0.127565 0.128389 0.127504
0.128969 0.128237 0.127504
0.138735 0.129610 0.128420
0.158816 0.132326 0.131136
0.200351 0.137148 0.136599
0.287724 0.143862 0.144778
0.477729 0.149081 0.157321
0.729824 0.153780 0.182254
0.133639 0.143435 0.134310
0.136782 0.142672 0.134859
0.141695 0.137636 0.132540
0.158236 0.139498 0.131655
0.194980 0.145785 0.136019
0.291875 0.160922 0.144045
0.509483 0.189364 0.155367
0.763577 0.221866 0.183566
0.153841 0.209079 0.158785
0.164279 0.208194 0.162722
0.175875 0.190341 0.155612
0.185092 0.169619 0.147890
0.220768 0.172946 0.141360
0.280308 0.183597 0.140383
0.455848 0.226108 0.144961
0.701900 0.279026 0.156558
0.219821 0.474098 0.251896
0.255772 0.476173 0.264652
0.322850 0.454353 0.267613
0.341497 0.367712 0.215305
0.280217 0.239506 0.172122
0.307652 0.225895 0.151217
0.338445 0.220066 0.137148
0.573327 0.297887 0.126253
0.498970 0.754482 0.523491
0.549279 0.771481 0.562036
0.616846 0.772274 0.598810
0.609308 0.720119 0.514000
0.590143 0.602930 0.360174
0.479377 0.391791 0.222904
0.518975 0.363317 0.165866
0.589837 0.364660 0.111818
0.756497 0.891691 0.767391
0.768368 0.893797 0.775937
0.797238 0.894438 0.794369
0.799191 0.879789 0.773861
0.781857 0.840055 0.699916
0.773495 0.766598 0.559564
0.706447 0.581201 0.346166
0.750118 0.533440 0.239414
0.878935 0.958068 0.884977
0.882078 0.958129 0.886931
0.895567 0.958892 0.895995
0.908324 0.957671 0.901152
0.888609 0.936584 0.861540
0.887816 0.916686 0.822904
0.893462 0.878843 0.746914
0.882231 0.766751 0.585107
0.126711 0.127443 0.128176
0.129061 0.126589 0.129274
0.139895 0.128115 0.130129
0.159762 0.133028 0.135470
0.204898 0.137270 0.141543
0.292485 0.141085 0.150668
0.466987 0.138033 0.165011
0.702174 0.127382 0.189639
0.126986 0.128664 0.129030
0.129397 0.129397 0.129397
0.138735 0.131014 0.131289
0.158877 0.134371 0.135073
0.200076 0.139162 0.140749
0.282841 0.144686 0.149416
0.431708 0.146883 0.160891
0.654017 0.143008 0.179995
0.131685 0.142519 0.134981
0.136294 0.142641 0.136782
0.141512 0.138735 0.135103
0.158083 0.140597 0.134188
0.193118 0.146212 0.139071
0.271824 0.157321 0.146914
0.423743 0.173373 0.157290
0.666835 0.195926 0.176303
0.146120 0.191257 0.154482
0.154574 0.191806 0.157778
0.170687 0.184451 0.157168
0.173892 0.162448 0.146975
0.198886 0.162875 0.141360
0.247776 0.170962 0.142245
0.375036 0.198306 0.148562
0.601251 0.243503 0.156863
0.186984 0.432044 0.236149
0.220340 0.429969 0.244694
0.294652 0.415686 0.259434
0.301915 0.326360 0.207950
0.251408 0.219242 0.168765
0.278904 0.209934 0.151705
0.308476 0.205814 0.139803
0.520897 0.273747 0.136019
0.432746 0.716915 0.471839
0.462104 0.720424 0.487465
0.559380 0.731258 0.546929
0.563470 0.679530 0.472755
0.550256 0.565362 0.335943
0.451881 0.371527 0.219913
0.488838 0.344091 0.167849
0.547723 0.340368 0.122347
0.720760 0.875181 0.736294
0.725551 0.873259 0.737575
0.759365 0.873655 0.758358
0.773098 0.862181 0.747982
0.761685 0.824491 0.677699
0.751431 0.745907 0.532891
0.667811 0.547723 0.319127
0.701869 0.497108 0.215854
0.865293 0.952239 0.873045
0.870939 0.953338 0.877256
0.885283 0.954040 0.886656
0.902159 0.953857 0.895659
0.897734 0.942443 0.873991
0.891203 0.919615 0.830381
0.891356 0.877562 0.747280
0.878233 0.762905 0.581323
0.127565 0.130434 0.135286
0.127504 0.129824 0.138216
0.147158 0.127230 0.149020
0.178103 0.126284 0.147372
0.232731 0.132692 0.157107
0.363958 0.136629 0.183597
0.575463 0.118135 0.217716
0.793759 0.140749 0.267460
0.129946 0.132662 0.135195
0.130800 0.133455 0.137667
0.145693 0.131594 0.147280
0.174411 0.131350 0.146242
0.225498 0.139376 0.156619
0.346654 0.148592 0.181552
0.532280 0.136843 0.205905
0.756130 0.144045 0.248569
0.129000 0.140993 0.142245
0.132021 0.141787 0.142763
0.145357 0.145357 0.145357
0.170443 0.149905 0.150362
0.224735 0.158236 0.160098
0.333196 0.169070 0.174746
0.508415 0.179538 0.195010
0.735103 0.201236 0.233402
0.128328 0.187808 0.163607
0.137728 0.190280 0.165286
0.176425 0.201785 0.178439
0.184939 0.175174 0.162905
0.212894 0.172183 0.152285
0.296300 0.189548 0.161318
0.455604 0.219974 0.175570
0.685267 0.261692 0.202304
0.000000 0.393500 0.228916
0.110353 0.398718 0.238499
0.274388 0.425238 0.289067
0.330510 0.370642 0.264378
0.275578 0.242679 0.192447
0.297826 0.222934 0.164767
0.353124 0.225559 0.152560
0.582025 0.293950 0.159762
0.347234 0.691524 0.449989
0.388647 0.697475 0.467659
0.506981 0.710658 0.525505
0.577386 0.691066 0.531609
0.551202 0.576287 0.389380
0.455238 0.380468 0.248173
0.491585 0.347631 0.187015
0.552270 0.341222 0.136843
0.709133 0.874662 0.738888
0.715602 0.873442 0.741207
0.749233 0.872801 0.759091
0.791928 0.871214 0.780758
0.773617 0.833371 0.714961
0.758511 0.759976 0.583215
0.687098 0.572686 0.368353
0.729519 0.520806 0.256107
0.859770 0.952087 0.872740
0.862364 0.951690 0.873899
0.877836 0.952453 0.883482
0.907774 0.956756 0.905303
0.904479 0.946380 0.887388
0.898009 0.925780 0.849149
0.895537 0.885863 0.773068
0.881193 0.775143 0.613519
0.128115 0.136904 0.149905
0.128847 0.137819 0.154696
0.136782 0.136202 0.172854
0.212924 0.122957 0.219669
0.265049 0.111025 0.204807
0.397223 0.022889 0.231083
0.600031 0.000000 0.273930
0.820157 0.000000 0.344701
0.131594 0.140414 0.151095
0.132479 0.141543 0.154818
0.138888 0.140841 0.172854
0.213687 0.129091 0.220127
0.268132 0.115358 0.205112
0.399268 0.059571 0.230289
0.596277 0.000000 0.271733
0.814878 0.133028 0.347784
0.134798 0.147005 0.154482
0.137423 0.148013 0.155123
0.147066 0.153841 0.164553
0.200015 0.151675 0.204410
0.275151 0.137881 0.202121
0.426703 0.140719 0.237644
0.657527 0.182620 0.308293
0.840116 0.299687 0.396216
0.123903 0.172702 0.176425
0.127291 0.173800 0.177218
0.145449 0.179599 0.182376
0.194675 0.194675 0.194675
0.266423 0.207858 0.209384
0.386175 0.226017 0.230961
0.567712 0.253696 0.265660
0.774197 0.302770 0.323247
0.000000 0.328161 0.268223
0.000000 0.329961 0.267399
0.092012 0.348455 0.273228
0.342657 0.417639 0.348882
0.310399 0.284154 0.247410
0.330144 0.245274 0.195377
0.468574 0.275883 0.206058
0.694423 0.335088 0.246311
0.140719 0.644404 0.454749
0.241459 0.666468 0.477638
0.374914 0.686336 0.501213
0.600427 0.724269 0.610590
0.610712 0.651057 0.536553
0.495308 0.428779 0.322759
0.516381 0.367834 0.228428
0.568902 0.345220 0.164584
0.637415 0.861845 0.713222
0.655451 0.863890 0.722286
0.713008 0.869261 0.751736
0.793851 0.879820 0.800473
0.814542 0.864439 0.791989
0.783017 0.794736 0.680262
0.706874 0.608118 0.448310
0.747036 0.540154 0.310399
0.849119 0.954223 0.874540
0.853513 0.954345 0.876799
0.871061 0.955261 0.886625
0.901274 0.958007 0.905516
0.920256 0.956237 0.913512
0.909697 0.936339 0.878782
0.901579 0.898497 0.811093
0.885374 0.795712 0.665980
0.125673 0.149630 0.180117
0.125673 0.151186 0.187015
0.122957 0.149416 0.215427
0.189670 0.141604 0.301061
0.443305 0.000000 0.463111
0.496468 0.000000 0.384710
0.641993 0.000000 0.388556
0.858518 0.000000 0.430365
0.129641 0.153323 0.180972
0.129702 0.155215 0.187961
0.128542 0.156130 0.216709
0.187289 0.148989 0.297459
0.441474 0.000000 0.461128
0.496986 0.000000 0.382727
0.644251 0.000000 0.386664
0.858091 0.000000 0.428473
0.140536 0.159396 0.174533
0.141268 0.161440 0.178592
0.145693 0.169986 0.202365
0.177920 0.174044 0.277989
0.405219 0.114168 0.422004
0.463294 0.000000 0.348211
0.632715 0.000000 0.367224
0.838743 0.000000 0.415045
0.133242 0.179080 0.197604
0.137240 0.180179 0.198703
0.153628 0.186740 0.204746
0.190890 0.211337 0.239994
0.371588 0.223697 0.382910
0.463050 0.153048 0.324498
0.656794 0.190646 0.370611
0.840940 0.326024 0.455451
0.011994 0.236881 0.246036
0.030121 0.239322 0.248386
0.102388 0.248112 0.256657
0.177005 0.268467 0.275212
0.305669 0.305669 0.305669
0.430976 0.326268 0.328771
0.603662 0.360815 0.368017
0.785794 0.416052 0.428199
0.000000 0.454261 0.387488
0.000000 0.459907 0.390173
0.000000 0.474098 0.392798
0.128817 0.515373 0.413855
0.536675 0.606958 0.542260
0.480079 0.439887 0.384192
0.502129 0.361303 0.269413
0.682429 0.400977 0.285191
0.277409 0.803647 0.634791
0.318761 0.802762 0.636164
0.462196 0.805783 0.654871
0.640375 0.828733 0.712306
0.795499 0.859495 0.800290
0.787106 0.810452 0.741512
0.692164 0.616663 0.505028
0.716579 0.519585 0.334661
0.770321 0.936126 0.837919
0.775692 0.936553 0.839628
0.798978 0.939025 0.848508
0.854643 0.947753 0.879026
0.909300 0.954955 0.912688
0.919371 0.945739 0.906126
0.901457 0.906279 0.841703
0.871702 0.794858 0.687007
0.097444 0.177798 0.250156
0.091524 0.180514 0.261540
0.030426 0.184634 0.306584
0.084169 0.175082 0.425635
0.394965 0.093111 0.627100
0.730922 0.000000 0.764645
0.811124 0.000000 0.656672
0.920836 0.000000 0.602930
0.110231 0.176852 0.238987
0.107393 0.178897 0.247227
0.091524 0.185794 0.289647
0.096315 0.177981 0.394965
0.369146 0.121431 0.589197
0.706447 0.000000 0.739040
0.783963 0.000000 0.632471
0.901457 0.000000 0.586908
0.128878 0.187167 0.233219
0.127871 0.189883 0.241001
0.120516 0.203616 0.282231
0.098665 0.204562 0.378912
0.345434 0.194491 0.566735
0.695735 0.000000 0.726406
0.783078 0.000000 0.622889
0.899321 0.000000 0.571466
0.134066 0.204166 0.241520
0.138705 0.204776 0.241733
0.157534 0.211368 0.247471
0.178714 0.258274 0.343175
0.330175 0.304845 0.549126
0.698939 0.317723 0.724392
0.798978 0.009216 0.617975
0.924987 0.000000 0.571466
0.044587 0.244480 0.282933
0.067964 0.245731 0.284398
0.115938 0.252598 0.291844
0.182315 0.270512 0.309789
0.292699 0.334905 0.392096
0.611231 0.423163 0.626947
0.726497 0.268315 0.523339
0.886046 0.395544 0.565301
0.000000 0.346838 0.364691
0.000000 0.353613 0.371679
0.000000 0.362371 0.380102
0.000000 0.382605 0.398962
0.247807 0.419989 0.431769
0.504021 0.504021 0.504021
0.675349 0.546380 0.549462
0.829282 0.593835 0.599786
0.000000 0.680934 0.605829
0.000000 0.689021 0.611414
0.000000 0.706783 0.619409
0.000000 0.737758 0.636774
0.502190 0.777188 0.685023
0.803708 0.839597 0.806394
0.710872 0.669123 0.613916
0.723903 0.527855 0.399573
0.448798 0.912261 0.780026
0.470527 0.911620 0.781033
0.565606 0.912840 0.793179
0.706569 0.919860 0.825162
0.829984 0.933623 0.869413
0.919524 0.952026 0.921935
0.913268 0.925292 0.888334
0.864469 0.808774 0.734371
0.000000 0.226505 0.367163
0.000000 0.231052 0.383185
0.000000 0.241093 0.438392
0.000000 0.223362 0.550378
0.236149 0.215305 0.694118
0.579370 0.162448 0.829496
0.857023 0.000000 0.894835
0.978271 0.000000 0.825315
0.000000 0.222110 0.347631
0.000000 0.226932 0.363104
0.000000 0.237980 0.415564
0.000000 0.227085 0.522484
0.220737 0.216678 0.667781
0.561791 0.161349 0.809720
0.841459 0.000000 0.878599
0.954406 0.000000 0.802731
0.000000 0.230106 0.331853
0.000000 0.233860 0.342718
0.000000 0.247868 0.389380
0.000000 0.263279 0.498939
0.201511 0.258152 0.646235
0.552728 0.259617 0.798642
0.843687 0.223056 0.878538
0.966949 0.000000 0.809689
0.118746 0.230350 0.290532
0.119265 0.232273 0.294743
0.104616 0.250187 0.333104
0.052461 0.294316 0.438849
0.191379 0.324895 0.610529
0.547906 0.391943 0.782986
0.844511 0.440070 0.873564
0.964416 0.189456 0.800565
0.000000 0.266087 0.332586
0.000000 0.265080 0.330877
0.083009 0.267369 0.332403
0.159396 0.277775 0.341436
0.238346 0.359960 0.484901
0.495399 0.464057 0.713802
0.820798 0.550469 0.842802
0.944305 0.383581 0.769192
0.000000 0.344671 0.409674
0.000000 0.346166 0.411688
0.000000 0.351385 0.418067
0.000000 0.363226 0.431647
0.213657 0.387304 0.453681
0.452125 0.506889 0.582940
0.803891 0.675319 0.815946
0.914305 0.505577 0.714626
0.000000 0.511192 0.541711
0.000000 0.515068 0.545647
0.000000 0.522179 0.552331
0.000000 0.539544 0.568261
0.000000 0.567712 0.592340
0.417212 0.618647 0.633509
0.704616 0.704616 0.704616
0.834653 0.732753 0.734920
0.000000 0.825315 0.759304
0.000000 0.828397 0.760616
0.000000 0.842252 0.767544
0.000000 0.860044 0.774533
0.167514 0.878172 0.791348
0.733700 0.901732 0.842008
0.926970 0.945617 0.928313
0.863249 0.834165 0.797421
0.000000 0.323369 0.569024
0.000000 0.327245 0.581689
0.000000 0.333806 0.619104
0.000000 0.335760 0.698329
0.000000 0.325566 0.788663
0.461311 0.351720 0.871214
0.728206 0.395209 0.939818
0.934844 0.393988 0.970245
0.000000 0.317388 0.548821
0.000000 0.321843 0.562005
0.000000 0.331212 0.603479
0.000000 0.336400 0.683436
0.000000 0.325200 0.777829
0.453468 0.352392 0.863981
0.721767 0.392248 0.934325
0.930602 0.386206 0.965850
0.000000 0.317723 0.514580
0.000000 0.321569 0.525689
0.000000 0.333562 0.566766
0.000000 0.363684 0.661555
0.000000 0.352239 0.761166
0.449592 0.389746 0.851499
0.721462 0.447364 0.926665
0.928252 0.457038 0.961120
0.000000 0.307195 0.444617
0.000000 0.312902 0.456703
0.000000 0.331670 0.500847
0.000000 0.371069 0.595727
0.042664 0.406470 0.723140
0.452613 0.457099 0.832609
0.727382 0.539239 0.916289
0.928038 0.573083 0.955627
0.000000 0.312566 0.420447
0.000000 0.313970 0.422370
0.000000 0.312932 0.419715
0.000000 0.340551 0.467262
0.138033 0.421271 0.622034
0.418647 0.499458 0.784756
0.718532 0.611475 0.894377
0.925566 0.676295 0.946929
0.000000 0.379339 0.492164
0.000000 0.377173 0.489357
0.000000 0.372717 0.483833
0.000000 0.372473 0.483192
0.095155 0.381872 0.489509
0.383734 0.521447 0.676448
0.714443 0.692073 0.866941
0.929503 0.784146 0.943206
0.000000 0.507195 0.608148
0.000000 0.506676 0.607721
0.000000 0.505425 0.607019
0.000000 0.508659 0.611688
0.000000 0.517754 0.620813
0.292912 0.545251 0.638331
0.642756 0.691432 0.763027
0.919982 0.844877 0.927489
0.000000 0.694606 0.738338
0.000000 0.694575 0.738186
0.000000 0.697536 0.740414
0.000000 0.707179 0.748318
0.000000 0.722316 0.759304
0.167544 0.746548 0.774929
0.615747 0.788479 0.802457
0.857511 0.857511 0.857511
