20 Preset/Travel Style 2/【3】LUT video cho PR-AE-FCPX/Travel 2 LUT (8).cube
# Created by Adobe Lightroom plugin Export LUT (1.24.0)
# www.johnrellis.com/lightroom/exportlut.htm
# Preset: 08素材江湖 - LANDSCAPE
# Color profile: E:\lut插件\exportlut.1.24\exportlut.lrplugin\color profiles\Rec709gamma2.4.icc
LUT_3D_SIZE 5
DOMAIN_MIN 0.000000 0.000000 0.000000
DOMAIN_MAX 0.903226 0.903226 0.903226
0.126223 0.126223 0.126223
0.177066 0.125643 0.126619
0.350805 0.113375 0.123873
0.735103 0.000000 0.091524
1.000000 0.000000 0.000000
0.137514 0.155764 0.139681
0.173953 0.161837 0.141543
0.269017 0.165133 0.137209
0.637995 0.194095 0.113436
1.000000 0.168124 0.000000
0.214267 0.325475 0.230442
0.246189 0.330175 0.225498
0.559930 0.475105 0.283848
0.402686 0.268528 0.174380
0.892760 0.398962 0.109010
0.475563 0.723720 0.511986
0.495399 0.725612 0.503655
0.677333 0.778531 0.560388
0.916716 0.835874 0.692287
0.955962 0.682490 0.449683
0.817441 0.936828 0.831937
0.820829 0.937530 0.829862
0.834134 0.933776 0.813565
0.926787 0.955200 0.856748
0.999908 0.960357 0.897795
0.128847 0.135897 0.149813
0.172793 0.123781 0.176242
0.377356 0.042390 0.188235
0.793576 0.000000 0.164157
1.000000 0.000000 0.139345
0.157382 0.160952 0.161410
0.176150 0.176150 0.176150
0.345678 0.170199 0.175662
0.699306 0.117952 0.163363
1.000000 0.000000 0.137057
0.241642 0.329808 0.272923
0.252445 0.331304 0.262821
0.485054 0.426764 0.312596
0.380255 0.256260 0.186526
0.913512 0.387945 0.159884
0.516960 0.729366 0.565454
0.532738 0.733059 0.560204
0.676478 0.775509 0.598230
0.907317 0.839475 0.723171
0.936950 0.667933 0.449409
0.827939 0.937377 0.845548
0.829892 0.937652 0.842832
0.855528 0.943481 0.844144
0.933410 0.960296 0.877165
0.999237 0.966125 0.914488
0.146212 0.181155 0.237766
0.151766 0.175204 0.270176
0.401556 0.003754 0.415564
0.818448 0.000000 0.497658
1.000000 0.000000 0.462287
0.186191 0.212100 0.238437
0.192111 0.221714 0.274022
0.408453 0.152499 0.421149
0.829862 0.000000 0.481086
1.000000 0.000000 0.447517
0.311772 0.337407 0.340032
0.334783 0.355535 0.357763
0.437964 0.437964 0.437964
0.786282 0.398871 0.410224
1.000000 0.381079 0.408545
0.672724 0.744656 0.712428
0.668940 0.742977 0.705348
0.670893 0.756710 0.681178
0.883360 0.848936 0.794583
0.829923 0.562615 0.378576
0.858152 0.936278 0.883085
0.858976 0.937926 0.881743
0.867796 0.941802 0.876493
0.927764 0.957977 0.897154
0.993622 0.970550 0.935271
0.089296 0.275425 0.443458
0.000000 0.270848 0.486732
0.304814 0.222324 0.632349
0.780392 0.000000 0.809415
1.000000 0.000000 0.782223
0.171206 0.305821 0.435492
0.170199 0.313329 0.478462
0.298619 0.276310 0.620172
0.770169 0.000000 0.797787
1.000000 0.000000 0.770871
0.312047 0.396735 0.449561
0.324529 0.400916 0.454353
0.400153 0.465003 0.579126
0.759762 0.424384 0.779629
1.000000 0.450080 0.762020
0.656397 0.696345 0.700587
0.665248 0.700984 0.704799
0.716091 0.736263 0.738521
0.798215 0.798215 0.798215
1.000000 0.755795 0.761105
0.915496 0.938018 0.930938
0.917113 0.940215 0.932464
0.925322 0.950103 0.938872
0.925902 0.957549 0.929503
0.989715 0.979828 0.965057
0.290990 0.526024 0.799771
0.313817 0.524865 0.813687
0.359014 0.478859 0.864836
0.606470 0.381323 0.935332
0.957641 0.000000 0.991577
0.320348 0.538964 0.780789
0.341192 0.541100 0.796658
0.379309 0.506462 0.852018
0.604852 0.424414 0.926207
0.954467 0.145418 0.987213
0.441901 0.596521 0.729732
0.445533 0.599451 0.744076
0.506035 0.622919 0.813504
0.625483 0.577722 0.903227
0.953368 0.497078 0.979553
0.661830 0.752071 0.800809
0.660090 0.748287 0.798001
0.668086 0.744076 0.797024
0.737575 0.780972 0.869230
0.963378 0.806424 0.975158
0.888121 0.913268 0.915984
0.891020 0.914916 0.917510
0.907836 0.926055 0.928038
0.935119 0.944396 0.945403
0.968902 0.968902 0.968902
