20 Preset/Travel Style 2/【3】LUT video cho PR-AE-FCPX/Travel 2 LUT (1).cube
# Created by Adobe Lightroom plugin Export LUT (1.24.0)
# www.johnrellis.com/lightroom/exportlut.htm
# Preset: 01素材江湖 - COMPASS
# Color profile: E:\lut插件\exportlut.1.24\exportlut.lrplugin\color profiles\Rec709gamma2.4.icc
LUT_3D_SIZE 32
DOMAIN_MIN 0.0 0.0 0.0
DOMAIN_MAX 1.0 1.0 1.0
0.000000 0.000000 0.000000
0.000000 0.000000 0.000000
0.001984 0.000000 0.000000
0.009949 0.000000 0.000000
0.028779 0.000000 0.000855
0.056153 0.000000 0.001434
0.090578 0.000000 0.000610
0.112032 0.000000 0.000549
0.135409 0.000000 0.000000
0.161074 0.000000 0.000000
0.188388 0.000000 0.000000
0.217502 0.000000 0.000000
0.248844 0.000000 0.000000
0.281743 0.000000 0.000000
0.316197 0.000000 0.000000
0.352178 0.000000 0.000000
0.389715 0.000000 0.000000
0.429358 0.000000 0.000000
0.471168 0.000000 0.000000
0.515740 0.000000 0.000000
0.562921 0.000000 0.000000
0.629603 0.000000 0.000000
0.695399 0.000000 0.000000
0.757717 0.000000 0.000000
0.817319 0.000000 0.000000
0.872862 0.000000 0.000000
0.923461 0.000000 0.000000
0.970397 0.000000 0.000000
1.000000 0.000000 0.000000
1.000000 0.000000 0.000000
1.000000 0.000000 0.000000
1.000000 0.000000 0.000000
0.000000 0.000000 0.000000
0.000000 0.000000 0.000000
0.001984 0.000000 0.000000
0.011933 0.000000 0.000000
0.028077 0.000000 0.000702
0.055451 0.000000 0.001282
0.089845 0.000000 0.000641
0.110903 0.000000 0.000580
0.133272 0.000000 0.000000
0.158267 0.000000 0.000000
0.184848 0.000000 0.000000
0.213687 0.000000 0.000000
0.244327 0.000000 0.000000
0.276768 0.000000 0.000000
0.310765 0.000000 0.000000
0.346288 0.000000 0.000000
0.383673 0.000000 0.000000
0.422797 0.000000 0.000000
0.464393 0.000000 0.000000
0.508324 0.000000 0.000000
0.554345 0.000000 0.000000
0.617578 0.000000 0.000000
0.680110 0.000000 0.000000
0.739681 0.000000 0.000000
0.797116 0.000000 0.000000
0.852781 0.000000 0.000000
0.904570 0.000000 0.000000
0.953063 0.000000 0.000000
0.999145 0.000000 0.000000
1.000000 0.000000 0.000000
1.000000 0.000000 0.000000
1.000000 0.000000 0.000000
0.000275 0.002167 0.000824
0.000275 0.002167 0.000824
0.002258 0.001953 0.000824
0.012757 0.003021 0.000458
0.029206 0.003418 0.000092
0.056580 0.003662 0.000641
0.089601 0.004547 0.000855
0.110170 0.004150 0.000793
0.132876 0.002838 0.000336
0.157137 0.003265 0.000092
0.183413 0.000946 0.000000
0.211765 0.000000 0.000000
0.241764 0.000000 0.000000
0.273747 0.000000 0.000000
0.307530 0.000000 0.000000
0.342596 0.000000 0.000000
0.379767 0.000000 0.000000
0.418769 0.000000 0.000000
0.459937 0.000000 0.000000
0.503624 0.000000 0.000000
0.549706 0.000000 0.000000
0.612421 0.000000 0.000000
0.672999 0.000000 0.000000
0.731197 0.000000 0.000000
0.787350 0.000000 0.000000
0.842222 0.000000 0.000000
0.894469 0.000000 0.000000
0.943694 0.000000 0.000000
0.990692 0.000000 0.000000
1.000000 0.000000 0.000000
1.000000 0.000000 0.000000
1.000000 0.000000 0.000000
0.003357 0.008484 0.002167
0.005341 0.008270 0.002167
0.007019 0.008057 0.003296
0.016144 0.009339 0.000671
0.033173 0.011933 0.000000
0.059815 0.013367 0.000397
0.091310 0.015229 0.000427
0.111238 0.016052 0.000244
0.133364 0.017121 0.000000
0.157198 0.017792 0.000000
0.183352 0.016693 0.000000
0.211154 0.015351 0.000000
0.240665 0.012634 0.000000
0.271885 0.009400 0.000000
0.304845 0.001923 0.000000
0.339147 0.000000 0.000000
0.375311 0.000000 0.000000
0.413092 0.000000 0.000000
0.453346 0.000000 0.000000
0.495888 0.000000 0.000000
0.542382 0.000000 0.000000
0.601099 0.000000 0.000000
0.658808 0.000000 0.000000
0.716091 0.000000 0.000000
0.772976 0.000000 0.000000
0.830442 0.000000 0.000000
0.885954 0.000000 0.000000
0.937774 0.000000 0.000000
0.986389 0.000000 0.000000
1.000000 0.000000 0.000000
1.000000 0.000000 0.000000
1.000000 0.000000 0.000000
0.012329 0.018494 0.007385
0.012329 0.018494 0.007385
0.016297 0.018036 0.007385
0.022431 0.020783 0.005768
0.034791 0.022827 0.002991
0.064302 0.026246 0.001953
0.093019 0.031464 0.000397
0.111879 0.035889 0.000885
0.133272 0.038392 0.000000
0.156649 0.040497 0.000000
0.182132 0.042237 0.000000
0.209445 0.042786 0.000000
0.238315 0.043366 0.000000
0.269139 0.043458 0.000000
0.301671 0.040681 0.000000
0.336309 0.035035 0.000000
0.372564 0.029938 0.000000
0.410742 0.020569 0.000000
0.450843 0.009033 0.000000
0.493263 0.000000 0.000000
0.542382 0.000000 0.000000
0.598352 0.000000 0.000000
0.654353 0.000000 0.000000
0.710842 0.000000 0.000000
0.767758 0.000000 0.000000
0.825467 0.000000 0.000000
0.881559 0.000000 0.000000
0.933379 0.000000 0.000000
0.982025 0.000000 0.000000
1.000000 0.000000 0.000000
1.000000 0.000000 0.000000
1.000000 0.000000 0.000000
0.022705 0.035035 0.012848
0.024689 0.034821 0.012848
0.027100 0.033387 0.014130
0.033204 0.036103 0.012512
0.046693 0.042512 0.009094
0.069001 0.043458 0.006287
0.097475 0.051179 0.003113
0.115755 0.059968 0.001831
0.136538 0.070222 0.000000
0.159274 0.075715 0.000000
0.184390 0.079072 0.000000
0.211368 0.082124 0.000000
0.240208 0.085084 0.000000
0.270909 0.087098 0.000000
0.303410 0.088746 0.000000
0.337835 0.088685 0.000000
0.374212 0.088167 0.000000
0.412573 0.087556 0.000000
0.453162 0.082582 0.000000
0.495674 0.078035 0.000000
0.548363 0.068238 0.000000
0.603418 0.053437 0.000000
0.746731 0.039490 0.000000
0.809842 0.001434 0.000000
0.868345 0.000000 0.000000
0.920226 0.000000 0.000000
0.966796 0.000000 0.000000
1.000000 0.000000 0.000000
1.000000 0.000000 0.000000
1.000000 0.000000 0.000000
1.000000 0.000000 0.000000
1.000000 0.000000 0.000000
0.044038 0.068147 0.021485
0.044038 0.068147 0.021485
0.048127 0.066468 0.023865
0.055360 0.066804 0.023682
0.071717 0.075166 0.018860
0.091371 0.083253 0.013336
0.104616 0.084077 0.007874
0.128603 0.091432 0.002838
0.149538 0.096925 0.000000
0.172976 0.103120 0.000000
0.198550 0.107942 0.000000
0.226810 0.110842 0.000000
0.256443 0.113527 0.000000
0.287694 0.115938 0.000000
0.320623 0.117983 0.000000
0.355108 0.119600 0.000000
0.391547 0.120760 0.000000
0.429908 0.121828 0.000000
0.471168 0.122286 0.000000
0.522240 0.123903 0.000000
0.583673 0.125795 0.000000
0.648707 0.127443 0.000000
0.715023 0.125765 0.000000
0.781888 0.123384 0.000000
0.846708 0.116854 0.000000
0.902892 0.109010 0.000000
0.951690 0.096681 0.000000
0.995331 0.080201 0.000000
1.000000 0.043977 0.000000
1.000000 0.008270 0.000000
1.000000 0.000000 0.000000
1.000000 0.000000 0.000000
0.070039 0.094148 0.032105
0.070741 0.093751 0.032258
0.074830 0.093141 0.034668
0.081544 0.091890 0.037201
0.090181 0.094911 0.032349
0.100313 0.099245 0.025544
0.114626 0.104677 0.017762
0.128267 0.104891 0.010956
0.154879 0.112001 0.002777
0.177737 0.117647 0.000000
0.202365 0.124453 0.000000
0.228885 0.131716 0.000000
0.257969 0.135622 0.000000
0.288548 0.138796 0.000000
0.320836 0.141695 0.000000
0.354376 0.144198 0.000000
0.390234 0.146700 0.000000
0.428199 0.149264 0.000000
0.471992 0.152621 0.000000
0.525170 0.157382 0.000000
0.582177 0.162081 0.000000
0.643427 0.166232 0.000000
0.706752 0.168948 0.000000
0.770993 0.170779 0.000000
0.834623 0.170413 0.000000
0.890837 0.168551 0.000000
0.940124 0.164187 0.000000
0.984497 0.158633 0.000000
1.000000 0.152773 0.000000
1.000000 0.147189 0.000000
1.000000 0.142763 0.000000
1.000000 0.139559 0.000000
0.093141 0.113436 0.048859
0.094118 0.113039 0.048981
0.095613 0.112581 0.050263
0.098787 0.111299 0.054078
0.103822 0.111757 0.053559
0.111971 0.115846 0.045319
0.124636 0.121157 0.034821
0.139956 0.126101 0.023896
0.155062 0.126162 0.014405
0.184024 0.134127 0.002594
0.208438 0.140627 0.000000
0.234653 0.147738 0.000000
0.262516 0.155550 0.000000
0.292271 0.162783 0.000000
0.324102 0.166384 0.000000
0.357366 0.169589 0.000000
0.392737 0.173159 0.000000
0.433326 0.177493 0.000000
0.480568 0.183932 0.000000
0.530846 0.189487 0.000000
0.585229 0.195407 0.000000
0.643610 0.201205 0.000000
0.704280 0.206394 0.000000
0.766537 0.210788 0.000000
0.828367 0.213657 0.000000
0.884062 0.214206 0.000000
0.933227 0.212680 0.000000
0.977813 0.209964 0.000000
1.000000 0.206424 0.000000
1.000000 0.203494 0.000000
1.000000 0.200290 0.000000
1.000000 0.198520 0.000000
0.110658 0.134646 0.071901
0.110780 0.134401 0.073182
0.112490 0.133516 0.073640
0.115694 0.132235 0.077577
0.119265 0.130068 0.081239
0.126070 0.133669 0.072480
0.136843 0.138308 0.061830
0.151003 0.144167 0.047425
0.167147 0.148653 0.032227
0.182773 0.148592 0.020081
0.213870 0.156954 0.003296
0.239292 0.164004 0.000000
0.266697 0.171664 0.000000
0.296117 0.179873 0.000000
0.327306 0.189029 0.000000
0.360815 0.195193 0.000000
0.401404 0.201999 0.000000
0.444587 0.208804 0.000000
0.490669 0.215610 0.000000
0.539483 0.222446 0.000000
0.591638 0.229099 0.000000
0.645594 0.235355 0.000000
0.701320 0.241062 0.000000
0.758328 0.245701 0.000000
0.815793 0.249607 0.000000
0.869688 0.251499 0.000000
0.918975 0.251957 0.000000
0.964691 0.251194 0.000000
1.000000 0.249851 0.000000
1.000000 0.247440 0.000000
1.000000 0.245762 0.000000
1.000000 0.244633 0.000000
0.127840 0.155917 0.090913
0.128389 0.155673 0.091402
0.129763 0.154940 0.091554
0.132448 0.153902 0.093019
0.136416 0.151888 0.095033
0.142092 0.153140 0.094118
0.150973 0.157626 0.089601
0.163882 0.163058 0.080079
0.180179 0.169650 0.062287
0.196963 0.173770 0.042664
0.213779 0.173617 0.027619
0.246677 0.182589 0.003906
0.274205 0.190188 0.000000
0.303258 0.198520 0.000000
0.337346 0.209232 0.000000
0.373724 0.220890 0.000000
0.412543 0.232853 0.000000
0.454292 0.239994 0.000000
0.498512 0.246952 0.000000
0.545708 0.254063 0.000000
0.595544 0.261326 0.000000
0.647578 0.268132 0.000000
0.701595 0.274540 0.000000
0.756985 0.280705 0.000000
0.813230 0.285710 0.000000
0.866209 0.289281 0.000000
0.915038 0.290715 0.000000
0.960571 0.290776 0.000000
1.000000 0.290410 0.000000
1.000000 0.289555 0.000000
1.000000 0.288121 0.000000
1.000000 0.287205 0.000000
0.147921 0.180423 0.105165
0.148440 0.180209 0.105196
0.149813 0.179599 0.106020
0.152560 0.178531 0.106905
0.156466 0.176822 0.108919
0.161013 0.175357 0.110750
0.168948 0.179538 0.106386
0.180087 0.185061 0.100771
0.194705 0.191348 0.092897
0.213199 0.198703 0.080415
0.230747 0.202152 0.057832
0.250034 0.203159 0.037018
0.315190 0.234012 0.002228
0.352239 0.246708 0.000000
0.390936 0.259312 0.000000
0.431617 0.272496 0.000000
0.474403 0.285985 0.000000
0.519493 0.300237 0.000000
0.567285 0.312016 0.000000
0.617884 0.320073 0.000000
0.668940 0.327092 0.000000
0.720424 0.333410 0.000000
0.772976 0.339208 0.000000
0.825498 0.344060 0.000000
0.874144 0.346746 0.000000
0.918700 0.347387 0.000000
0.959442 0.346532 0.000000
0.997375 0.344823 0.000000
1.000000 0.342687 0.000000
1.000000 0.340429 0.000000
1.000000 0.338201 0.000000
1.000000 0.336645 0.000000
0.177188 0.215976 0.125582
0.177646 0.215671 0.125887
0.178561 0.214847 0.126101
0.180819 0.213107 0.127047
0.183719 0.210788 0.128389
0.187778 0.207492 0.130678
0.194156 0.209018 0.128267
0.204013 0.213962 0.122469
0.218997 0.221866 0.116457
0.238804 0.231540 0.108156
0.263523 0.243137 0.097108
0.286778 0.249760 0.084291
0.312963 0.253819 0.056550
0.360235 0.268833 0.002472
0.400275 0.282719 0.000000
0.440009 0.295567 0.000000
0.480934 0.308293 0.000000
0.523217 0.321141 0.000000
0.567803 0.334691 0.000000
0.613764 0.348699 0.000000
0.661616 0.356298 0.000000
0.710903 0.362860 0.000000
0.761715 0.368933 0.000000
0.813321 0.374792 0.000000
0.861814 0.378271 0.000000
0.906859 0.379919 0.000000
0.948547 0.380438 0.000000
0.987671 0.379644 0.000000
1.000000 0.378271 0.000000
1.000000 0.376806 0.000000
1.000000 0.374975 0.000000
1.000000 0.373449 0.000000
0.203220 0.247654 0.143679
0.203250 0.247349 0.143771
0.204166 0.246128 0.144106
0.206088 0.244694 0.144900
0.209232 0.242283 0.146334
0.213321 0.238987 0.148165
0.218845 0.237888 0.149325
0.228336 0.243320 0.144289
0.241306 0.250187 0.138094
0.258946 0.258915 0.130739
0.281010 0.269657 0.121675
0.308537 0.282170 0.108431
0.332433 0.288029 0.095979
0.359319 0.291417 0.073610
0.407874 0.305699 0.001160
0.448096 0.318944 0.000000
0.487587 0.330968 0.000000
0.528252 0.343053 0.000000
0.571130 0.355993 0.000000
0.615229 0.369024 0.000000
0.660243 0.382300 0.000000
0.707546 0.394171 0.000000
0.757290 0.400916 0.000000
0.808164 0.407324 0.000000
0.856168 0.411719 0.000000
0.900999 0.414069 0.000000
0.942840 0.415045 0.000000
0.982116 0.414710 0.000000
1.000000 0.413977 0.000000
1.000000 0.412726 0.000000
1.000000 0.411353 0.000000
1.000000 0.410163 0.000000
0.233005 0.284245 0.164248
0.233158 0.284062 0.164309
0.233707 0.282658 0.164523
0.235111 0.280644 0.164858
0.237461 0.277470 0.165682
0.240604 0.273533 0.167025
0.244968 0.269200 0.169284
0.252720 0.272374 0.165652
0.264622 0.278752 0.159884
0.280095 0.286900 0.153140
0.300420 0.297215 0.144533
0.325780 0.309392 0.133639
0.354284 0.321599 0.119661
0.379095 0.326909 0.105592
0.405982 0.329137 0.087221
0.454383 0.342107 0.000397
0.495979 0.355261 0.000000
0.535698 0.367071 0.000000
0.577478 0.379370 0.000000
0.619806 0.391577 0.000000
0.663539 0.404242 0.000000
0.709346 0.417670 0.000000
0.756680 0.431739 0.000000
0.805661 0.440681 0.000000
0.852689 0.445258 0.000000
0.897032 0.448096 0.000000
0.939147 0.449866 0.000000
0.979065 0.450294 0.000000
1.000000 0.450355 0.000000
1.000000 0.449866 0.000000
1.000000 0.449134 0.000000
1.000000 0.448585 0.000000
0.261021 0.319005 0.183352
0.261418 0.318914 0.183383
0.262211 0.318029 0.183780
0.263951 0.316136 0.184421
0.266300 0.313573 0.185397
0.270146 0.310216 0.186984
0.274907 0.306493 0.189364
0.281834 0.306188 0.189670
0.293156 0.312779 0.184360
0.307591 0.320806 0.178042
0.325963 0.330205 0.169924
0.348241 0.340826 0.159335
0.374426 0.352361 0.146181
0.401129 0.361730 0.130282
0.424506 0.364416 0.113588
0.449500 0.364172 0.092836
0.497322 0.376074 0.000000
0.540917 0.389624 0.000000
0.581659 0.401648 0.000000
0.623346 0.413733 0.000000
0.667231 0.426764 0.000000
0.713008 0.440467 0.000000
0.760494 0.454688 0.000000
0.808347 0.468849 0.000000
0.853727 0.480934 0.000000
0.898161 0.484382 0.000000
0.940154 0.486427 0.000000
0.979919 0.487312 0.000000
1.000000 0.487221 0.000000
1.000000 0.486732 0.000000
1.000000 0.485786 0.000000
1.000000 0.484749 0.000000
0.288975 0.353552 0.201938
0.289189 0.353582 0.202060
0.290166 0.352697 0.202304
0.291814 0.350896 0.202762
0.294438 0.348363 0.203952
0.298192 0.345251 0.205539
0.302739 0.341619 0.207980
0.307988 0.337438 0.210910
0.318120 0.343053 0.206394
0.331304 0.350439 0.200229
0.348180 0.359380 0.192752
0.368353 0.369329 0.183505
0.392523 0.380560 0.171359
0.420081 0.392248 0.156252
0.446296 0.399939 0.138918
0.469886 0.401770 0.120424
0.495186 0.400855 0.097292
0.543938 0.412848 0.000000
0.590143 0.427070 0.000000
0.631098 0.438941 0.000000
0.674311 0.451637 0.000000
0.719570 0.465370 0.000000
0.766659 0.479622 0.000000
0.813352 0.493202 0.000000
0.857939 0.505547 0.000000
0.900206 0.516564 0.000000
0.941314 0.522911 0.000000
0.980804 0.524041 0.000000
1.000000 0.524224 0.000000
1.000000 0.523827 0.000000
1.000000 0.522820 0.000000
1.000000 0.521691 0.000000
0.321111 0.393286 0.223117
0.321691 0.393622 0.223606
0.348272 0.424445 0.241093
0.350072 0.422644 0.241917
0.352850 0.419989 0.242924
0.356176 0.416175 0.244236
0.360571 0.411322 0.246189
0.365484 0.405921 0.248966
0.373754 0.406317 0.247440
0.386938 0.413855 0.241032
0.403296 0.422705 0.233005
0.423133 0.432715 0.223270
0.445899 0.442939 0.210910
0.471901 0.453559 0.195560
0.500999 0.464240 0.176181
0.525872 0.468666 0.155856
0.548455 0.467292 0.133700
0.573022 0.463355 0.105653
0.619867 0.472145 0.000000
0.666255 0.484352 0.000000
0.706752 0.494850 0.000000
0.750179 0.506920 0.000000
0.793942 0.518853 0.000000
0.835904 0.529473 0.000000
0.875731 0.538659 0.000000
0.913695 0.547021 0.000000
0.950011 0.554467 0.000000
0.984924 0.561547 0.000000
1.000000 0.561639 0.000000
1.000000 0.560662 0.000000
1.000000 0.559411 0.000000
1.000000 0.558007 0.000000
0.362921 0.445380 0.250828
0.365698 0.448493 0.252537
0.369238 0.450996 0.254673
0.373388 0.452369 0.257084
0.377935 0.452094 0.259159
0.382116 0.449348 0.261082
0.386358 0.444800 0.262913
0.390967 0.439338 0.265232
0.396551 0.433936 0.267552
0.408240 0.440742 0.261295
0.423011 0.448920 0.253727
0.440986 0.458106 0.244755
0.461952 0.467994 0.233524
0.485786 0.478279 0.220005
0.512596 0.488685 0.203067
0.542351 0.499397 0.182010
0.566155 0.501915 0.160952
0.589715 0.500908 0.138582
0.615717 0.497780 0.110414
0.663722 0.507073 0.000000
0.713008 0.520439 0.000000
0.756374 0.532799 0.000000
0.798978 0.544213 0.000000
0.839994 0.554345 0.000000
0.878721 0.563012 0.000000
0.915740 0.570642 0.000000
0.951049 0.577600 0.000000
0.985199 0.584100 0.000000
1.000000 0.590478 0.000000
1.000000 0.594659 0.000000
1.000000 0.593469 0.000000
1.000000 0.592035 0.000000
0.393133 0.483467 0.270054
0.396277 0.486641 0.271977
0.400122 0.489662 0.274266
0.404639 0.491615 0.276829
0.409216 0.491585 0.279057
0.413367 0.489235 0.281010
0.417731 0.484840 0.282841
0.422339 0.479408 0.285008
0.427344 0.473182 0.287846
0.436316 0.474525 0.284794
0.449805 0.482094 0.277531
0.466316 0.490730 0.269108
0.485481 0.500008 0.258488
0.507561 0.509850 0.245945
0.532464 0.520043 0.230838
0.560296 0.530388 0.212741
0.590906 0.540856 0.190219
0.613611 0.541711 0.168948
0.638087 0.540581 0.145602
0.665095 0.537591 0.115785
0.713069 0.546258 0.000000
0.763790 0.559625 0.000000
0.805295 0.570672 0.000000
0.845182 0.580255 0.000000
0.882902 0.588342 0.000000
0.919005 0.595422 0.000000
0.953368 0.601648 0.000000
0.986572 0.607568 0.000000
1.000000 0.613397 0.000000
1.000000 0.619318 0.000000
1.000000 0.625055 0.000000
1.000000 0.625696 0.000000
0.427222 0.525597 0.291936
0.429999 0.528862 0.293950
0.433692 0.531487 0.296239
0.437964 0.533318 0.298589
0.442298 0.533410 0.300877
0.446540 0.530968 0.302647
0.450874 0.526970 0.304387
0.455512 0.521660 0.306310
0.460700 0.515587 0.308904
0.467018 0.511131 0.310216
0.479561 0.518273 0.303258
0.494759 0.526268 0.295140
0.512474 0.535027 0.285313
0.532952 0.544366 0.273472
0.556329 0.554253 0.260136
0.582849 0.564813 0.244053
0.613062 0.576349 0.224582
0.645289 0.587488 0.201633
0.670985 0.589990 0.181338
0.699550 0.591272 0.157168
0.730648 0.590570 0.128450
0.779629 0.599390 0.031861
0.828672 0.610254 0.000000
0.868650 0.620020 0.000000
0.906249 0.628046 0.000000
0.941405 0.634577 0.000000
0.974609 0.640040 0.000000
1.000000 0.645136 0.000000
1.000000 0.650019 0.000000
1.000000 0.654841 0.069520
1.000000 0.659602 0.120729
1.000000 0.664271 0.158633
0.482246 0.592920 0.330968
0.483589 0.594141 0.331914
0.485420 0.594537 0.332952
0.487617 0.593774 0.333867
0.490272 0.591669 0.334691
0.493141 0.588067 0.335607
0.496742 0.583459 0.336706
0.501213 0.578088 0.338201
0.506493 0.571801 0.340276
0.512322 0.565362 0.343236
0.523003 0.568658 0.339391
0.537377 0.576501 0.331182
0.554040 0.584771 0.321874
0.573388 0.593805 0.311131
0.595300 0.603174 0.298039
0.620142 0.613092 0.282933
0.648005 0.623651 0.265019
0.679225 0.634821 0.243961
0.710079 0.643549 0.220523
0.734737 0.643977 0.199741
0.760830 0.642145 0.176486
0.788479 0.637903 0.149020
0.830900 0.641108 0.097688
0.874388 0.646998 0.000000
0.909972 0.653864 0.000000
0.944244 0.659785 0.000000
0.976837 0.665064 0.013489
1.000000 0.669825 0.065644
1.000000 0.674311 0.106447
1.000000 0.678706 0.136782
1.000000 0.682979 0.166415
1.000000 0.687160 0.196811
0.521843 0.640284 0.360266
0.522972 0.641382 0.361242
0.524712 0.642023 0.362249
0.527031 0.641169 0.363165
0.529625 0.639429 0.364202
0.532616 0.636225 0.365087
0.536370 0.631952 0.366033
0.540826 0.626734 0.367498
0.546197 0.621210 0.369604
0.552209 0.614710 0.372198
0.560204 0.612024 0.372381
0.573663 0.619593 0.365270
0.589380 0.627680 0.356207
0.607782 0.636561 0.346075
0.628687 0.645960 0.334142
0.652003 0.655695 0.320684
0.678126 0.665766 0.305119
0.706844 0.676081 0.287266
0.738308 0.686702 0.266392
0.767178 0.692897 0.245212
0.791043 0.691920 0.225803
0.816159 0.688655 0.204685
0.842283 0.682704 0.181033
0.880919 0.682795 0.145022
0.911009 0.677241 0.077852
0.943481 0.682246 0.090517
0.975677 0.687373 0.106233
1.000000 0.691920 0.124575
1.000000 0.696223 0.146700
1.000000 0.700404 0.170504
1.000000 0.704646 0.197848
1.000000 0.708919 0.227512
0.574945 0.700771 0.406531
0.576928 0.702663 0.408545
0.578546 0.702968 0.409583
0.579797 0.701503 0.409552
0.581109 0.698573 0.409033
0.582666 0.694118 0.407935
0.584741 0.688563 0.407019
0.587488 0.682277 0.406439
0.591150 0.675196 0.406317
0.595789 0.667628 0.407202
0.600366 0.659236 0.408270
0.610559 0.662501 0.401465
0.623346 0.668330 0.392157
0.638331 0.674708 0.381262
0.655146 0.681147 0.369177
0.674678 0.688106 0.355474
0.696773 0.695674 0.340215
0.721950 0.704219 0.323888
0.750240 0.713680 0.305943
0.781796 0.723903 0.286046
0.808713 0.728176 0.267338
0.831937 0.726345 0.249546
0.855467 0.721736 0.229557
0.879179 0.713893 0.206516
0.913115 0.710414 0.174655
0.949035 0.709407 0.140291
0.977722 0.712093 0.149599
1.000000 0.715480 0.163455
1.000000 0.718837 0.180423
1.000000 0.722347 0.201907
1.000000 0.726070 0.226535
1.000000 0.730129 0.255314
0.609003 0.737392 0.440497
0.610864 0.738888 0.442329
0.612726 0.739406 0.443671
0.614405 0.738766 0.444343
0.616480 0.736995 0.444465
0.619135 0.734401 0.444648
0.622614 0.731167 0.445197
0.627039 0.727077 0.445747
0.632502 0.722530 0.447089
0.638575 0.717556 0.448890
0.644953 0.711574 0.450874
0.653132 0.709865 0.449317
0.664790 0.715297 0.440955
0.678065 0.720821 0.431342
0.693019 0.726406 0.419837
0.710048 0.732235 0.406989
0.729397 0.738521 0.392798
0.751431 0.745571 0.377539
0.776608 0.753475 0.361761
0.804685 0.762234 0.344701
0.835264 0.771359 0.326085
0.858915 0.772366 0.309422
0.880369 0.768765 0.292607
0.902312 0.762692 0.274266
0.924559 0.753536 0.253635
0.955261 0.747860 0.228122
0.988556 0.744381 0.202335
1.000000 0.745602 0.214878
1.000000 0.748379 0.232364
1.000000 0.751186 0.252293
1.000000 0.754238 0.276616
1.000000 0.757351 0.303288
0.652766 0.780880 0.489479
0.653803 0.781552 0.490669
0.654841 0.781491 0.491188
0.656275 0.780697 0.491524
0.657923 0.779080 0.491463
0.660243 0.776608 0.491066
0.663386 0.773770 0.491157
0.667353 0.770047 0.491279
0.672175 0.766018 0.491951
0.677943 0.761593 0.493294
0.684230 0.756283 0.494728
0.690852 0.750546 0.496620
0.700954 0.755093 0.489662
0.712612 0.759945 0.480690
0.725368 0.764736 0.470680
0.740230 0.769711 0.458991
0.756985 0.775051 0.446265
0.776425 0.781064 0.432624
0.798611 0.787869 0.418341
0.823392 0.795407 0.403937
0.850675 0.803342 0.387945
0.879789 0.811215 0.370459
0.899962 0.809079 0.354467
0.919585 0.803952 0.338109
0.939605 0.796231 0.319310
0.959991 0.785855 0.298650
0.987579 0.778164 0.276066
1.000000 0.772244 0.251377
1.000000 0.772213 0.265873
1.000000 0.774746 0.286442
1.000000 0.777188 0.309636
1.000000 0.779904 0.336522
0.691524 0.816464 0.536950
0.692378 0.816953 0.537896
0.693538 0.817197 0.538933
0.695064 0.816739 0.539513
0.697383 0.815915 0.540307
0.700740 0.815061 0.541680
0.705806 0.814511 0.544762
0.712123 0.813809 0.548486
0.719783 0.813138 0.553429
0.728420 0.812284 0.558953
0.737728 0.811185 0.565270
0.747189 0.809293 0.571344
0.757595 0.811551 0.572534
0.769009 0.817502 0.568414
0.781247 0.822995 0.561852
0.794034 0.827817 0.552972
0.808286 0.832517 0.542687
0.824460 0.837522 0.531456
0.843015 0.843076 0.520165
0.863767 0.849058 0.508171
0.886595 0.855283 0.495644
0.911345 0.861448 0.481697
0.936858 0.866514 0.465705
0.953491 0.861784 0.451240
0.970520 0.854948 0.435126
0.988190 0.845853 0.416815
1.000000 0.834287 0.397131
1.000000 0.824308 0.376562
1.000000 0.815213 0.354437
1.000000 0.812985 0.368322
1.000000 0.814267 0.391363
1.000000 0.816068 0.417700
0.753414 0.865721 0.622644
0.753567 0.865660 0.622644
0.753902 0.865263 0.622431
0.754604 0.864591 0.622248
0.755856 0.863462 0.621912
0.757809 0.862150 0.621912
0.760647 0.860533 0.622278
0.764370 0.858640 0.622980
0.769039 0.856718 0.624598
0.774502 0.854490 0.626612
0.780728 0.851987 0.629084
0.787350 0.849119 0.631891
0.794400 0.846494 0.634028
0.802731 0.850523 0.628870
