20 Preset/Travel Style 2/【3】LUT video cho PR-AE-FCPX/Travel 2 LUT (20).cube
# Created by Adobe Lightroom plugin Export LUT (1.24.0)
# www.johnrellis.com/lightroom/exportlut.htm
# Preset: 20素材江湖 - 黑白
# Color profile: E:\lut插件\exportlut.1.24\exportlut.lrplugin\color profiles\Rec709gamma2.4.icc
LUT_3D_SIZE 32
DOMAIN_MIN 0.0 0.0 0.0
DOMAIN_MAX 1.0 1.0 1.0
0.107851 0.107851 0.107851
0.107851 0.107851 0.107851
0.108125 0.108125 0.108125
0.108705 0.108705 0.108705
0.110109 0.110109 0.110109
0.112032 0.112032 0.112032
0.114687 0.114687 0.114687
0.118563 0.118563 0.118563
0.124147 0.124147 0.124147
0.132265 0.132265 0.132265
0.143252 0.143252 0.143252
0.155764 0.155764 0.155764
0.169619 0.169619 0.169619
0.184787 0.184787 0.184787
0.200687 0.200687 0.200687
0.217166 0.217166 0.217166
0.234684 0.234684 0.234684
0.254459 0.254459 0.254459
0.277867 0.277867 0.277867
0.305852 0.305852 0.305852
0.335851 0.335851 0.335851
0.366888 0.366888 0.366888
0.398199 0.398199 0.398199
0.430732 0.430732 0.430732
0.464820 0.464820 0.464820
0.500603 0.500603 0.500603
0.538598 0.538598 0.538598
0.578363 0.578363 0.578363
0.618341 0.618341 0.618341
0.658412 0.658412 0.658412
0.698421 0.698421 0.698421
0.737697 0.737697 0.737697
0.107851 0.107851 0.107851
0.107851 0.107851 0.107851
0.108431 0.108431 0.108431
0.109010 0.109010 0.109010
0.110384 0.110384 0.110384
0.112306 0.112306 0.112306
0.114961 0.114961 0.114961
0.118807 0.118807 0.118807
0.124392 0.124392 0.124392
0.132265 0.132265 0.132265
0.143252 0.143252 0.143252
0.155764 0.155764 0.155764
0.169467 0.169467 0.169467
0.184512 0.184512 0.184512
0.200320 0.200320 0.200320
0.216739 0.216739 0.216739
0.234318 0.234318 0.234318
0.253788 0.253788 0.253788
0.277104 0.277104 0.277104
0.304601 0.304601 0.304601
0.333867 0.333867 0.333867
0.364294 0.364294 0.364294
0.395178 0.395178 0.395178
0.427283 0.427283 0.427283
0.460975 0.460975 0.460975
0.496529 0.496529 0.496529
0.534325 0.534325 0.534325
0.574090 0.574090 0.574090
0.614221 0.614221 0.614221
0.654566 0.654566 0.654566
0.694728 0.694728 0.694728
0.734340 0.734340 0.734340
0.108431 0.108431 0.108431
0.108431 0.108431 0.108431
0.109010 0.109010 0.109010
0.109834 0.109834 0.109834
0.111208 0.111208 0.111208
0.113130 0.113130 0.113130
0.115999 0.115999 0.115999
0.120058 0.120058 0.120058
0.125795 0.125795 0.125795
0.133944 0.133944 0.133944
0.144961 0.144961 0.144961
0.157290 0.157290 0.157290
0.170993 0.170993 0.170993
0.185733 0.185733 0.185733
0.201541 0.201541 0.201541
0.217807 0.217807 0.217807
0.235264 0.235264 0.235264
0.254917 0.254917 0.254917
0.278111 0.278111 0.278111
0.305119 0.305119 0.305119
0.334264 0.334264 0.334264
0.364385 0.364385 0.364385
0.394873 0.394873 0.394873
0.426856 0.426856 0.426856
0.460334 0.460334 0.460334
0.495521 0.495521 0.495521
0.533196 0.533196 0.533196
0.572869 0.572869 0.572869
0.613001 0.613001 0.613001
0.653346 0.653346 0.653346
0.693507 0.693507 0.693507
0.733089 0.733089 0.733089
0.109285 0.109285 0.109285
0.109285 0.109285 0.109285
0.109834 0.109834 0.109834
0.111208 0.111208 0.111208
0.113405 0.113405 0.113405
0.115206 0.115206 0.115206
0.118318 0.118318 0.118318
0.122713 0.122713 0.122713
0.128969 0.128969 0.128969
0.137911 0.137881 0.137911
0.148684 0.148684 0.148684
0.160800 0.160800 0.160800
0.174258 0.174258 0.174258
0.188907 0.188907 0.188907
0.204257 0.204257 0.204257
0.220371 0.220371 0.220371
0.237644 0.237644 0.237644
0.257115 0.257115 0.257115
0.280308 0.280308 0.280308
0.306645 0.306645 0.306645
0.334874 0.334874 0.334874
0.364446 0.364446 0.364446
0.394629 0.394629 0.394629
0.426429 0.426429 0.426429
0.460060 0.460060 0.460060
0.495705 0.495705 0.495705
0.533867 0.533867 0.533867
0.573816 0.573816 0.573816
0.614069 0.614069 0.614069
0.654383 0.654383 0.654383
0.694240 0.694240 0.694240
0.733333 0.733333 0.733333
0.111208 0.111208 0.111208
0.111208 0.111208 0.111208
0.111482 0.111482 0.111482
0.112856 0.112856 0.112856
0.115755 0.115755 0.115755
0.121035 0.121035 0.121035
0.123659 0.123659 0.123659
0.127596 0.127596 0.127596
0.134585 0.134585 0.134585
0.143801 0.143801 0.143801
0.154391 0.154391 0.154391
0.166232 0.166232 0.166232
0.179416 0.179416 0.179416
0.193790 0.193790 0.193790
0.208865 0.208865 0.208865
0.224826 0.224826 0.224826
0.242161 0.242161 0.242161
0.261906 0.261906 0.261906
0.285222 0.285222 0.285222
0.311192 0.311192 0.311192
0.339178 0.339178 0.339178
0.368231 0.368231 0.368231
0.398108 0.398108 0.398108
0.429816 0.429816 0.429816
0.463355 0.463355 0.463355
0.499001 0.499001 0.499001
0.536858 0.536858 0.536858
0.576501 0.576501 0.576501
0.616480 0.616480 0.616480
0.656306 0.656306 0.656306
0.695827 0.695827 0.695827
0.734524 0.734524 0.734524
0.113924 0.113924 0.113924
0.113924 0.113924 0.113924
0.113924 0.113924 0.113924
0.114687 0.114687 0.114687
0.118044 0.118044 0.118044
0.124147 0.124147 0.124147
0.136049 0.136049 0.136049
0.140291 0.140291 0.140291
0.145541 0.145541 0.145541
0.152804 0.152804 0.152804
0.163058 0.163058 0.163058
0.174563 0.174563 0.174563
0.187472 0.187472 0.187472
0.201297 0.201297 0.201297
0.216098 0.216098 0.216098
0.231662 0.231662 0.231662
0.249210 0.249210 0.249210
0.269535 0.269535 0.269535
0.293370 0.293370 0.293370
0.319249 0.319249 0.319249
0.347021 0.347021 0.347021
0.375799 0.375799 0.375799
0.423743 0.423743 0.423743
0.456336 0.456336 0.456336
0.490486 0.490486 0.490486
0.526513 0.526513 0.526513
0.564355 0.564355 0.564355
0.602594 0.602594 0.602594
0.640833 0.640833 0.640833
0.678859 0.678859 0.678859
0.716426 0.716426 0.716426
0.752651 0.752651 0.752651
0.118563 0.118563 0.118563
0.118563 0.118563 0.118563
0.118563 0.118563 0.118563
0.118807 0.118807 0.118807
0.122011 0.122011 0.122011
0.128756 0.128756 0.128756
0.140505 0.140505 0.140505
0.159792 0.159792 0.159792
0.164187 0.164187 0.164187
0.170077 0.170077 0.170077
0.177157 0.177157 0.177157
0.187472 0.187472 0.187472
0.199954 0.199954 0.199954
0.213230 0.213230 0.213230
0.227390 0.227390 0.227390
0.243168 0.243168 0.243168
0.261234 0.261234 0.261234
0.283146 0.283146 0.283146
0.307988 0.307988 0.307988
0.334966 0.334966 0.334966
0.363714 0.363714 0.363714
0.393835 0.393835 0.393835
0.425360 0.425360 0.425360
0.458747 0.458747 0.458747
0.493751 0.493751 0.493751
0.530205 0.530205 0.530205
0.567895 0.567895 0.567895
0.605554 0.605554 0.605554
0.643244 0.643244 0.643244
0.680568 0.680568 0.680568
0.717586 0.717586 0.717586
0.753445 0.753445 0.753445
0.125551 0.125551 0.125551
0.125551 0.125551 0.125551
0.125795 0.125795 0.125795
0.126009 0.126009 0.126009
0.127840 0.127840 0.127840
0.135225 0.135225 0.135225
0.146456 0.146456 0.146456
0.160616 0.160616 0.160616
0.180819 0.180819 0.180819
0.189700 0.189700 0.189700
0.196048 0.196048 0.196048
0.203555 0.203555 0.203555
0.212131 0.212131 0.212131
0.224521 0.224521 0.224521
0.238499 0.238499 0.238499
0.254398 0.254398 0.254398
0.273320 0.273320 0.273320
0.295476 0.295476 0.295476
0.319829 0.319829 0.319829
0.345983 0.345983 0.345983
0.373877 0.373877 0.373877
0.403052 0.403052 0.403052
0.433845 0.433845 0.433845
0.466560 0.466560 0.466560
0.501122 0.501122 0.501122
0.537194 0.537194 0.537194
0.574243 0.574243 0.574243
0.611231 0.611231 0.611231
0.648188 0.648188 0.648188
0.685023 0.685023 0.685023
0.721309 0.721309 0.721309
0.756588 0.756588 0.756588
0.137270 0.137270 0.137270
0.137270 0.137270 0.137270
0.137270 0.137270 0.137270
0.137697 0.137697 0.137697
0.138094 0.138094 0.138094
0.144381 0.144381 0.144381
0.154543 0.154543 0.154543
0.167636 0.167636 0.167636
0.183169 0.183169 0.183169
0.203311 0.203311 0.203311
0.216953 0.216953 0.216953
0.223819 0.223819 0.223819
0.231754 0.231754 0.231754
0.241123 0.241123 0.241123
0.252567 0.252567 0.252567
0.269291 0.269291 0.269291
0.289158 0.289158 0.289158
0.311009 0.311009 0.311009
0.334813 0.334813 0.334813
0.360357 0.360357 0.360357
0.387396 0.387396 0.387396
0.415656 0.415656 0.415656
0.445655 0.445655 0.445655
0.477790 0.477790 0.477790
0.511833 0.511833 0.511833
0.547234 0.547234 0.547234
0.583490 0.583490 0.583490
0.619654 0.619654 0.619654
0.655818 0.655818 0.655818
0.691676 0.691676 0.691676
0.727169 0.727169 0.727169
0.761624 0.761624 0.761624
0.152285 0.152285 0.152285
0.152285 0.152285 0.152285
0.152285 0.152285 0.152285
0.152621 0.152621 0.152621
0.152987 0.152987 0.152987
0.155428 0.155428 0.155428
0.164828 0.164828 0.164828
0.176730 0.176730 0.176730
0.190982 0.190982 0.190982
0.207279 0.207279 0.207279
0.226780 0.226780 0.226780
0.246433 0.246433 0.246433
0.254826 0.254826 0.254826
0.264530 0.264530 0.264530
0.276280 0.276280 0.276280
0.290074 0.290074 0.290074
0.307652 0.307652 0.307652
0.329381 0.329381 0.329381
0.352911 0.352911 0.352911
0.377844 0.377844 0.377844
0.403815 0.403815 0.403815
0.430732 0.430732 0.430732
0.459510 0.459510 0.459510
0.490333 0.490333 0.490333
0.523003 0.523003 0.523003
0.557397 0.557397 0.557397
0.592584 0.592584 0.592584
0.627893 0.627893 0.627893
0.663355 0.663355 0.663355
0.698634 0.698634 0.698634
0.733486 0.733486 0.733486
0.767361 0.767361 0.767361
0.168856 0.168856 0.168856
0.168856 0.168856 0.168856
0.168856 0.168856 0.168856
0.169162 0.169162 0.169162
0.169467 0.169467 0.169467
0.170077 0.170077 0.170077
0.176852 0.176852 0.176852
0.187869 0.187869 0.187869
0.200931 0.200931 0.200931
0.216098 0.216098 0.216098
0.233249 0.233249 0.233249
0.253880 0.253880 0.253880
0.283360 0.283360 0.283360
0.294072 0.294072 0.294072
0.306401 0.306401 0.306401
0.320195 0.320195 0.320195
0.335271 0.335271 0.335271
0.351781 0.351781 0.351781
0.372930 0.372930 0.372930
0.396857 0.396857 0.396857
0.421790 0.421790 0.421790
0.447852 0.447852 0.447852
0.475990 0.475990 0.475990
0.506096 0.506096 0.506096
0.538262 0.538262 0.538262
0.571832 0.571832 0.571832
0.605737 0.605737 0.605737
0.639918 0.639918 0.639918
0.674220 0.674220 0.674220
0.708583 0.708583 0.708583
0.742306 0.742306 0.742306
0.775082 0.775082 0.775082
0.186923 0.186923 0.186923
0.186923 0.186923 0.186923
0.187076 0.187076 0.187076
0.187320 0.187320 0.187320
0.187594 0.187594 0.187594
0.188113 0.188113 0.188113
0.190463 0.190463 0.190463
0.200687 0.200687 0.200687
0.212802 0.212802 0.212802
0.226871 0.226871 0.226871
0.243626 0.243626 0.243626
0.264469 0.264469 0.264469
0.297856 0.297856 0.297856
0.339696 0.339696 0.339696
0.352605 0.352605 0.352605
0.366583 0.366583 0.366583
0.381476 0.381476 0.381476
0.397375 0.397375 0.397375
0.414374 0.414374 0.414374
0.432410 0.432410 0.432410
0.456611 0.456611 0.456611
0.482185 0.482185 0.482185
0.509758 0.509758 0.509758
0.539178 0.539178 0.539178
0.570062 0.570062 0.570062
0.601373 0.601373 0.601373
0.632868 0.632868 0.632868
0.664515 0.664515 0.664515
0.696284 0.696284 0.696284
0.728084 0.728084 0.728084
0.759304 0.759304 0.759304
0.789914 0.789914 0.789914
0.207858 0.207858 0.207858
0.207858 0.207858 0.207858
0.207858 0.207858 0.207858
0.207950 0.207950 0.207950
0.208072 0.208072 0.208072
0.208408 0.208408 0.208408
0.208865 0.208865 0.208865
0.215640 0.215640 0.215640
0.227085 0.227085 0.227085
0.241398 0.241398 0.241398
0.259403 0.259403 0.259403
0.281895 0.281895 0.281895
0.308843 0.308843 0.308843
0.339635 0.339635 0.339635
0.388861 0.388861 0.388861
0.402045 0.402045 0.402045
0.415961 0.415961 0.415961
0.430610 0.430610 0.430610
0.446235 0.446235 0.446235
0.462806 0.462806 0.462806
0.480446 0.480446 0.480446
0.501061 0.501061 0.501061
0.527825 0.527825 0.527825
0.556542 0.556542 0.556542
0.586114 0.586114 0.586114
0.616205 0.616205 0.616205
0.646601 0.646601 0.646601
0.677272 0.677272 0.677272
0.708125 0.708125 0.708125
0.738857 0.738857 0.738857
0.769039 0.769039 0.769039
0.798550 0.798550 0.798550
0.227268 0.227268 0.227268
0.227268 0.227268 0.227268
0.227176 0.227176 0.227176
0.227268 0.227268 0.227268
0.227390 0.227390 0.227390
0.227787 0.227787 0.227787
0.228397 0.228397 0.228397
0.230686 0.230686 0.230686
0.242161 0.242161 0.242161
0.256687 0.256687 0.256687
0.274815 0.274815 0.274815
0.297093 0.297093 0.297093
0.323247 0.323247 0.323247
0.352758 0.352758 0.352758
0.384680 0.384680 0.384680
0.432837 0.432837 0.432837
0.452399 0.452399 0.452399
0.465919 0.465919 0.465919
0.480537 0.480537 0.480537
0.495979 0.495979 0.495979
0.512688 0.512688 0.512688
0.531151 0.531151 0.531151
0.551598 0.551598 0.551598
0.576654 0.576654 0.576654
0.604852 0.604852 0.604852
0.633631 0.633631 0.633631
0.662806 0.662806 0.662806
0.692134 0.692134 0.692134
0.721736 0.721736 0.721736
0.751125 0.751125 0.751125
0.780056 0.780056 0.780056
0.808469 0.808469 0.808469
0.249943 0.249943 0.249943
0.249943 0.249943 0.249943
0.249943 0.249943 0.249943
0.249943 0.249943 0.249943
0.250004 0.250004 0.250004
0.250187 0.250187 0.250187
0.250645 0.250645 0.250645
0.251255 0.251255 0.251255
0.259403 0.259403 0.259403
0.274266 0.274266 0.274266
0.292515 0.292515 0.292515
0.314488 0.314488 0.314488
0.339910 0.339910 0.339910
0.368078 0.368078 0.368078
0.398474 0.398474 0.398474
0.430426 0.430426 0.430426
0.476814 0.476814 0.476814
0.503624 0.503624 0.503624
0.517144 0.517144 0.517144
0.531609 0.531609 0.531609
0.547295 0.547295 0.547295
0.564874 0.564874 0.564874
0.584009 0.584009 0.584009
0.604334 0.604334 0.604334
0.625879 0.625879 0.625879
0.652308 0.652308 0.652308
0.680232 0.680232 0.680232
0.708553 0.708553 0.708553
0.736965 0.736965 0.736965
0.765225 0.765225 0.765225
0.793210 0.793210 0.793210
0.820584 0.820584 0.820584
0.275822 0.275822 0.275822
0.275822 0.275822 0.275822
0.275883 0.275883 0.275883
0.275975 0.275975 0.275975
0.276036 0.276036 0.276036
0.276341 0.276341 0.276341
0.276951 0.276951 0.276951
0.277714 0.277714 0.277714
0.280217 0.280217 0.280217
0.295415 0.295415 0.295415
0.313512 0.313512 0.313512
0.334813 0.334813 0.334813
0.358862 0.358862 0.358862
0.385260 0.385260 0.385260
0.413672 0.413672 0.413672
0.443885 0.443885 0.443885
0.475990 0.475990 0.475990
0.520287 0.520287 0.520287
0.554406 0.554406 0.554406
0.567742 0.567742 0.567742
0.582605 0.582605 0.582605
0.598840 0.598840 0.598840
0.616632 0.616632 0.616632
0.635737 0.635737 0.635737
0.655909 0.655909 0.655909
0.677119 0.677119 0.677119
0.699519 0.699519 0.699519
0.726497 0.726497 0.726497
0.753323 0.753323 0.753323
0.779995 0.779995 0.779995
0.806302 0.806302 0.806302
0.832090 0.832090 0.832090
0.304601 0.304601 0.304601
0.304601 0.304601 0.304601
0.304601 0.304601 0.304601
0.304723 0.304723 0.304723
0.304845 0.304845 0.304845
0.305272 0.305272 0.305272
0.305791 0.305791 0.305791
0.306584 0.306584 0.306584
0.307652 0.307652 0.307652
0.317174 0.317174 0.317174
0.335088 0.335088 0.335088
0.355566 0.355566 0.355566
0.378637 0.378637 0.378637
0.403815 0.403815 0.403815
0.430884 0.430884 0.430884
0.459846 0.459846 0.459846
0.490333 0.490333 0.490333
0.522667 0.522667 0.522667
0.564630 0.564630 0.564630
0.604120 0.604120 0.604120
0.617639 0.617639 0.617639
0.632746 0.632746 0.632746
0.649165 0.649165 0.649165
0.666865 0.666865 0.666865
0.685634 0.685634 0.685634
0.705409 0.705409 0.705409
0.726070 0.726070 0.726070
0.747219 0.747219 0.747219
0.770108 0.770108 0.770108
0.795315 0.795315 0.795315
0.820188 0.820188 0.820188
0.844541 0.844541 0.844541
0.336797 0.336797 0.336797
0.336858 0.336858 0.336858
0.344427 0.344427 0.344427
0.344488 0.344488 0.344488
0.344701 0.344701 0.344701
0.345037 0.345037 0.345037
0.345434 0.345434 0.345434
0.346105 0.346105 0.346105
0.347112 0.347112 0.347112
0.349248 0.349248 0.349248
0.366827 0.366827 0.366827
0.386725 0.386725 0.386725
0.408606 0.408606 0.408606
0.432624 0.432624 0.432624
0.458442 0.458442 0.458442
0.485969 0.485969 0.485969
0.515038 0.515038 0.515038
0.545586 0.545586 0.545586
0.576806 0.576806 0.576806
0.613764 0.613764 0.613764
0.657313 0.657313 0.657313
0.670710 0.670710 0.670710
0.685389 0.685389 0.685389
0.701198 0.701198 0.701198
0.717708 0.717708 0.717708
0.735195 0.735195 0.735195
0.753353 0.753353 0.753353
0.772274 0.772274 0.772274
0.791897 0.791897 0.791897
0.812009 0.812009 0.812009
0.834134 0.834134 0.834134
0.856992 0.856992 0.856992
0.373388 0.373388 0.373388
0.374182 0.374182 0.374182
0.374945 0.374945 0.374945
0.375891 0.375891 0.375891
0.376623 0.376623 0.376623
0.377081 0.377081 0.377081
0.377569 0.377569 0.377569
0.378027 0.378027 0.378027
0.378882 0.378882 0.378882
0.380011 0.380011 0.380011
0.389807 0.389807 0.389807
0.408606 0.408606 0.408606
0.429664 0.429664 0.429664
0.452583 0.452583 0.452583
0.477424 0.477424 0.477424
0.504082 0.504082 0.504082
0.532280 0.532280 0.532280
0.561852 0.561852 0.561852
0.591760 0.591760 0.591760
0.621454 0.621454 0.621454
0.654444 0.654444 0.654444
0.701900 0.701900 0.701900
0.715358 0.715358 0.715358
0.729824 0.729824 0.729824
0.744991 0.744991 0.744991
0.760891 0.760891 0.760891
0.777432 0.777432 0.777432
0.794705 0.794705 0.794705
0.812650 0.812650 0.812650
0.831144 0.831144 0.831144
0.850034 0.850034 0.850034
0.868986 0.868956 0.868956
0.408026 0.408026 0.408026
0.408942 0.408942 0.408942
0.409735 0.409735 0.409735
0.410834 0.410834 0.410834
0.411627 0.411627 0.411627
0.412146 0.412146 0.412146
0.412512 0.412512 0.412512
0.413153 0.413153 0.413153
0.413916 0.413916 0.413916
0.414862 0.414862 0.414862
0.416205 0.416205 0.416205
0.434333 0.434333 0.434333
0.454597 0.454597 0.454597
0.476661 0.476661 0.476661
0.500725 0.500725 0.500725
0.526574 0.526574 0.526574
0.553857 0.553857 0.553857
0.581903 0.581903 0.581903
0.610132 0.610132 0.610132
0.638239 0.638239 0.638239
0.665888 0.665888 0.665888
0.694636 0.694636 0.694636
0.739437 0.739437 0.739437
0.757137 0.757137 0.757137
0.770962 0.770962 0.770962
0.785458 0.785458 0.785458
0.800504 0.800504 0.800504
0.816251 0.816251 0.816251
0.832670 0.832670 0.832670
0.849577 0.849577 0.849577
0.866850 0.866850 0.866850
0.884184 0.884184 0.884184
0.445441 0.445441 0.445441
0.446296 0.446296 0.446296
0.447150 0.447150 0.447150
0.448096 0.448096 0.448096
0.448920 0.448920 0.448920
0.449409 0.449409 0.449409
0.449989 0.449989 0.449989
0.450477 0.450477 0.450477
0.451240 0.451240 0.451240
0.452094 0.452094 0.452094
0.453346 0.453346 0.453346
0.462837 0.462837 0.462837
0.482399 0.482399 0.482399
0.503899 0.503899 0.503899
0.527276 0.527276 0.527276
0.552483 0.552483 0.552483
0.578790 0.578790 0.578790
0.605554 0.605554 0.605554
0.632563 0.632563 0.632563
0.659632 0.659632 0.659632
0.686488 0.686488 0.686488
0.712734 0.712734 0.712734
0.737819 0.737819 0.737819
0.778622 0.778622 0.778622
0.799588 0.799588 0.799588
0.812955 0.812955 0.812955
0.826749 0.826749 0.826749
0.841123 0.841123 0.841123
0.856016 0.856016 0.856016
0.871305 0.871305 0.871305
0.886809 0.886809 0.886809
0.902281 0.902281 0.902281
0.491463 0.491463 0.491463
0.491859 0.491859 0.491859
0.492195 0.492195 0.492195
0.492470 0.492470 0.492470
0.492714 0.492714 0.492714
0.492927 0.492927 0.492927
0.493263 0.493263 0.493263
0.493690 0.493690 0.493690
0.494362 0.494362 0.494362
0.495369 0.495369 0.495369
0.496681 0.496681 0.496681
0.498085 0.498085 0.498085
0.516411 0.516411 0.516411
0.537469 0.537469 0.537469
0.560143 0.560143 0.560143
0.583825 0.583825 0.583825
0.608087 0.608087 0.608087
0.632929 0.632929 0.632929
0.657801 0.657801 0.657801
0.682856 0.682856 0.682856
0.707454 0.707454 0.707454
0.731533 0.731533 0.731533
0.754543 0.754543 0.754543
0.776455 0.776455 0.776455
0.811490 0.811490 0.811490
0.834226 0.834226 0.834226
0.846891 0.846891 0.846891
0.860044 0.860044 0.860044
0.873594 0.873594 0.873594
0.887480 0.887480 0.887480
0.901518 0.901518 0.901518
0.915526 0.915526 0.915526
0.535088 0.535088 0.535088
0.535424 0.535424 0.535424
0.535821 0.535821 0.535821
0.536126 0.536126 0.536126
0.536400 0.536400 0.536400
0.536736 0.536736 0.536736
0.536980 0.536980 0.536980
0.537469 0.537469 0.537469
0.538201 0.538201 0.538201
0.539239 0.539239 0.539239
0.540520 0.540520 0.540520
0.541985 0.541985 0.541985
0.551080 0.551080 0.551080
0.571221 0.571221 0.571221
0.592584 0.592584 0.592584
0.614618 0.614618 0.614618
0.637446 0.637446 0.637446
0.660548 0.660548 0.660548
0.683955 0.683955 0.683955
0.707271 0.707271 0.707271
0.730220 0.730220 0.730220
0.752529 0.752529 0.752529
0.773892 0.773892 0.773892
0.794308 0.794308 0.794308
0.811185 0.811185 0.811185
0.841093 0.841093 0.841093
0.864866 0.864866 0.864866
0.876890 0.876890 0.876890
0.889250 0.889250 0.889250
0.901884 0.901884 0.901884
0.914702 0.914702 0.914702
0.927459 0.927459 0.927459
0.584771 0.584771 0.584771
0.585382 0.585382 0.585382
0.585687 0.585687 0.585687
0.585779 0.585779 0.585779
0.585595 0.585595 0.585595
0.585412 0.585412 0.585412
0.585168 0.585168 0.585168
0.585138 0.585138 0.585138
0.585229 0.585229 0.585229
0.585687 0.585687 0.585687
0.586297 0.586297 0.586297
0.587274 0.587274 0.587274
0.588373 0.588373 0.588373
0.605097 0.605097 0.605097
0.624262 0.624262 0.624262
0.644282 0.644282 0.644282
0.665095 0.665095 0.665095
0.686397 0.686397 0.686397
0.708125 0.708125 0.708125
0.729824 0.729824 0.729824
0.751186 0.751186 0.751186
0.771847 0.771847 0.771847
0.791562 0.791562 0.791562
0.810300 0.810300 0.810300
0.827878 0.827878 0.827878
0.844388 0.844388 0.844388
0.869291 0.869291 0.869291
0.892821 0.892821 0.892821
0.903899 0.903899 0.903899
0.915282 0.915282 0.915282
0.926818 0.926818 0.926818
0.937926 0.937926 0.937926
0.628748 0.628748 0.628748
0.629267 0.629267 0.629267
0.629664 0.629664 0.629664
0.629877 0.629877 0.629877
0.630030 0.630030 0.630030
0.630243 0.630243 0.630243
0.630518 0.630518 0.630518
0.630884 0.630884 0.630884
0.631495 0.631495 0.631495
0.632319 0.632319 0.632319
0.633265 0.633265 0.633265
0.634455 0.634455 0.634455
0.635645 0.635645 0.635645
0.642969 0.642969 0.642969
0.660639 0.660639 0.660639
0.679103 0.679103 0.679103
0.698177 0.698177 0.698177
0.717617 0.717617 0.717617
0.737331 0.737331 0.737331
0.756985 0.756985 0.756985
0.776364 0.776364 0.776364
0.795224 0.795224 0.795224
0.813260 0.813260 0.813260
0.830472 0.830472 0.830472
0.846647 0.846647 0.846647
0.861875 0.861875 0.861875
0.876127 0.876127 0.876127
0.896483 0.896483 0.896483
0.918975 0.918975 0.918975
0.929107 0.929107 0.929107
0.939055 0.939055 0.939055
0.948180 0.948180 0.948180
0.675563 0.675563 0.675563
0.675868 0.675868 0.675868
0.676051 0.676051 0.676051
0.676204 0.676204 0.676204
0.676265 0.676265 0.676265
0.676356 0.676356 0.676356
0.676600 0.676600 0.676600
0.676936 0.676936 0.676936
0.677394 0.677394 0.677394
0.678157 0.678157 0.678157
0.679011 0.679011 0.679011
0.680079 0.680079 0.680079
0.681361 0.681361 0.681361
0.682643 0.682643 0.682643
0.696681 0.696681 0.696681
0.713558 0.713558 0.713558
0.730800 0.730800 0.730800
0.748379 0.748379 0.748379
0.766171 0.766171 0.766171
0.783932 0.783932 0.783932
0.801419 0.801419 0.801419
0.818479 0.818479 0.818479
0.834775 0.834775 0.834775
0.850340 0.850340 0.850340
0.864988 0.864988 0.864988
0.878691 0.878691 0.878691
0.891569 0.891569 0.891569
0.903502 0.903502 0.903502
0.919860 0.919860 0.919860
0.939055 0.939055 0.939055
0.948516 0.948516 0.948516
0.956420 0.956420 0.956420
0.720485 0.720485 0.720485
0.720729 0.720729 0.720729
0.720943 0.720943 0.720943
0.721157 0.721157 0.721157
0.721492 0.721492 0.721492
0.721981 0.721981 0.721981
0.722866 0.722866 0.722866
0.724056 0.724056 0.724056
0.725460 0.725460 0.725460
0.727199 0.727199 0.727199
0.729122 0.729122 0.729122
0.731106 0.731106 0.731106
0.733150 0.733150 0.733150
0.735134 0.735134 0.735134
0.741329 0.741329 0.741329
0.756466 0.756466 0.756466
0.771786 0.771786 0.771786
0.787320 0.787320 0.787320
0.802945 0.802945 0.802945
0.818509 0.818509 0.818509
0.833799 0.833799 0.833799
0.848661 0.848661 0.848661
0.862852 0.862852 0.862852
0.876310 0.876310 0.876310
0.888975 0.888975 0.888975
0.900847 0.900847 0.900847
0.911894 0.911894 0.911894
0.922118 0.922118 0.922118
0.931121 0.931121 0.931121
0.942626 0.942626 0.942626
0.957153 0.957153 0.957153
0.965301 0.965301 0.965301
0.770718 0.770718 0.770718
0.770748 0.770748 0.770748
0.770748 0.770748 0.770748
0.770779 0.770779 0.770779
0.770840 0.770840 0.770840
0.771054 0.771054 0.771054
0.771389 0.771389 0.771389
0.771878 0.771878 0.771878
0.772610 0.772610 0.772610
0.773465 0.773465 0.773465
0.774624 0.774624 0.774624
0.775845 0.775845 0.775845
0.777249 0.777249 0.777249
0.778683 0.778683 0.778683
