20 Preset/Travel Style 2/【3】LUT video cho PR-AE-FCPX/Travel 2 LUT (25).cube
# Created by Adobe Lightroom plugin Export LUT (1.24.0)
# www.johnrellis.com/lightroom/exportlut.htm
# Preset: 25素材江湖 - DRONE
# Color profile: E:\lut插件\exportlut.1.24\exportlut.lrplugin\color profiles\Rec709gamma2.4.icc
LUT_3D_SIZE 32
DOMAIN_MIN 0.0 0.0 0.0
DOMAIN_MAX 1.0 1.0 1.0
0.000000 0.000000 0.000000
0.000000 0.000000 0.000000
0.005951 0.000000 0.000000
0.044984 0.000000 0.000000
0.110445 0.000000 0.000000
0.172213 0.000000 0.000000
0.241062 0.000000 0.000000
0.312474 0.000000 0.000000
0.388495 0.000000 0.000000
0.470344 0.000000 0.000000
0.559350 0.000000 0.000000
0.656336 0.000000 0.000000
0.755001 0.005463 0.000000
0.851530 0.021424 0.000000
0.933898 0.053254 0.000000
1.000000 0.084657 0.000000
1.000000 0.104280 0.000000
1.000000 0.121828 0.000000
1.000000 0.132906 0.000000
1.000000 0.145022 0.000000
1.000000 0.156252 0.000000
1.000000 0.165682 0.000000
1.000000 0.173465 0.000000
1.000000 0.180819 0.000000
1.000000 0.187411 0.000000
1.000000 0.193240 0.000000
1.000000 0.199619 0.000000
1.000000 0.204898 0.000000
1.000000 0.210147 0.000000
1.000000 0.215702 0.000000
1.000000 0.220737 0.000000
1.000000 0.225864 0.000000
0.000000 0.000000 0.000000
0.000000 0.000000 0.000000
0.007935 0.000000 0.000000
0.048646 0.000000 0.000763
0.112428 0.000000 0.000000
0.173739 0.000000 0.000000
0.242130 0.000000 0.000000
0.313848 0.000000 0.000000
0.389227 0.000000 0.000000
0.470985 0.000000 0.000000
0.559991 0.007752 0.000000
0.657099 0.022156 0.000000
0.755673 0.037476 0.000000
0.852049 0.067414 0.000000
0.934234 0.088533 0.000000
1.000000 0.104555 0.000000
1.000000 0.116945 0.000000
1.000000 0.130770 0.000000
1.000000 0.142214 0.000000
1.000000 0.152255 0.000000
1.000000 0.161990 0.000000
1.000000 0.169741 0.000000
1.000000 0.177981 0.000000
1.000000 0.185092 0.000000
1.000000 0.190402 0.000000
1.000000 0.196414 0.000000
1.000000 0.202060 0.000000
1.000000 0.207431 0.000000
1.000000 0.212467 0.000000
1.000000 0.217258 0.000000
1.000000 0.222263 0.000000
1.000000 0.227390 0.000000
0.000000 0.009186 0.000000
0.001251 0.009918 0.000000
0.016571 0.005951 0.000000
0.057160 0.012634 0.000000
0.117678 0.021332 0.000000
0.179446 0.032380 0.000000
0.246860 0.044953 0.000000
0.317540 0.056428 0.000000
0.392889 0.073884 0.000000
0.474311 0.090608 0.000000
0.563531 0.101686 0.000000
0.660304 0.111849 0.000000
0.758175 0.120821 0.000000
0.853819 0.130098 0.000000
0.935302 0.138735 0.000000
1.000000 0.147768 0.000000
1.000000 0.155673 0.000000
1.000000 0.163821 0.000000
1.000000 0.170474 0.000000
1.000000 0.177066 0.000000
1.000000 0.183536 0.000000
1.000000 0.189487 0.000000
1.000000 0.194583 0.000000
1.000000 0.199466 0.000000
1.000000 0.204318 0.000000
1.000000 0.208347 0.000000
1.000000 0.212772 0.000000
1.000000 0.217044 0.000000
1.000000 0.221012 0.000000
1.000000 0.225315 0.000000
1.000000 0.229496 0.000000
1.000000 0.233921 0.000000
0.027863 0.058564 0.000000
0.038361 0.059632 0.000000
0.064210 0.056703 0.000000
0.083253 0.031769 0.000000
0.128267 0.063600 0.000000
0.190616 0.102785 0.000000
0.256077 0.114809 0.000000
0.325597 0.126314 0.000000
0.400214 0.137484 0.000000
0.481392 0.148226 0.000000
0.570428 0.158480 0.000000
0.666773 0.170565 0.000000
0.763638 0.181643 0.000000
0.857969 0.191409 0.000000
0.937804 0.198276 0.000000
1.000000 0.204044 0.000000
1.000000 0.208896 0.000000
1.000000 0.212131 0.000000
1.000000 0.214664 0.000000
1.000000 0.216983 0.000000
1.000000 0.219516 0.000000
1.000000 0.221408 0.000000
1.000000 0.223972 0.000000
1.000000 0.226078 0.000000
1.000000 0.227970 0.000000
1.000000 0.230167 0.000000
1.000000 0.232792 0.000000
1.000000 0.234836 0.000000
1.000000 0.237552 0.000000
1.000000 0.240238 0.000000
1.000000 0.242954 0.000000
1.000000 0.246372 0.000000
0.120516 0.144381 0.000000
0.125460 0.145693 0.000000
0.135256 0.139132 0.000000
0.145174 0.125826 0.000000
0.140047 0.092317 0.000000
0.190646 0.112673 0.000000
0.262150 0.150301 0.000000
0.337743 0.178408 0.000000
0.411841 0.190433 0.000000
0.492744 0.203586 0.000000
0.581140 0.217044 0.000000
0.676570 0.230930 0.000000
0.771817 0.244053 0.000000
0.863828 0.254551 0.000000
0.940948 0.261265 0.000000
1.000000 0.264958 0.000000
1.000000 0.266697 0.000000
1.000000 0.266728 0.000000
1.000000 0.265568 0.000000
1.000000 0.264714 0.000000
1.000000 0.263279 0.000000
1.000000 0.262242 0.000000
1.000000 0.261143 0.000000
1.000000 0.260777 0.000000
1.000000 0.260014 0.000000
1.000000 0.259831 0.000000
1.000000 0.259586 0.000000
1.000000 0.259922 0.000000
1.000000 0.260685 0.000000
1.000000 0.261753 0.000000
1.000000 0.262943 0.000000
1.000000 0.264958 0.000000
0.202335 0.240391 0.000000
0.207431 0.240665 0.000000
0.214603 0.231846 0.000000
0.224399 0.215457 0.000000
0.218814 0.181369 0.000000
0.196414 0.129824 0.000000
0.247257 0.147524 0.000000
0.326848 0.189609 0.000000
0.422339 0.240146 0.000000
0.507713 0.262516 0.000000
0.596094 0.278508 0.000000
0.689570 0.294255 0.000000
0.782925 0.308873 0.000000
0.871183 0.319677 0.000000
0.945525 0.325383 0.000000
1.000000 0.326848 0.000000
1.000000 0.326116 0.000000
1.000000 0.323644 0.000000
1.000000 0.320134 0.000000
1.000000 0.315648 0.000000
1.000000 0.312047 0.000000
1.000000 0.307988 0.000000
1.000000 0.303746 0.000000
1.000000 0.300175 0.000000
1.000000 0.297368 0.000000
1.000000 0.294682 0.000000
1.000000 0.292454 0.000000
1.000000 0.290440 0.000000
1.000000 0.289342 0.000000
1.000000 0.288304 0.000000
1.000000 0.288121 0.000000
1.000000 0.288151 0.000000
0.304326 0.355749 0.000000
0.305791 0.353429 0.000000
0.311345 0.343175 0.000000
0.317449 0.321660 0.000000
0.317937 0.290043 0.000000
0.289708 0.231540 0.000000
0.250065 0.164736 0.000000
0.297581 0.178378 0.000000
0.386999 0.226291 0.000000
0.494453 0.283757 0.000000
0.614435 0.344182 0.000000
0.705501 0.361212 0.000000
0.796841 0.376196 0.000000
0.879911 0.385779 0.000000
0.950561 0.389868 0.000000
1.000000 0.389654 0.000000
1.000000 0.386847 0.000000
1.000000 0.381872 0.000000
1.000000 0.375708 0.000000
1.000000 0.369085 0.000000
1.000000 0.362280 0.000000
1.000000 0.355413 0.000000
1.000000 0.349340 0.000000
1.000000 0.343633 0.000000
1.000000 0.337896 0.000000
1.000000 0.333074 0.000000
1.000000 0.328466 0.000000
1.000000 0.324773 0.000000
1.000000 0.321630 0.000000
1.000000 0.318822 0.000000
1.000000 0.316686 0.000000
1.000000 0.315435 0.000000
0.423651 0.488838 0.000000
0.424231 0.485267 0.000000
0.427924 0.473823 0.000000
0.430396 0.449409 0.000000
0.428504 0.412696 0.000000
0.409522 0.359289 0.000000
0.359014 0.279026 0.000000
0.300877 0.197177 0.000000
0.344488 0.207309 0.000000
0.443854 0.261295 0.000000
0.564019 0.326146 0.000000
0.697688 0.397986 0.000000
0.811948 0.445289 0.000000
0.889403 0.453101 0.000000
0.955932 0.455024 0.000000
1.000000 0.452735 0.000000
1.000000 0.447395 0.000000
1.000000 0.440375 0.000000
1.000000 0.431922 0.000000
1.000000 0.422766 0.000000
1.000000 0.413336 0.000000
1.000000 0.404608 0.000000
1.000000 0.396185 0.000000
1.000000 0.388067 0.000000
1.000000 0.380591 0.000000
1.000000 0.373724 0.000000
1.000000 0.367346 0.000000
1.000000 0.361395 0.000000
1.000000 0.356481 0.000000
1.000000 0.352056 0.000000
1.000000 0.348394 0.000000
1.000000 0.345281 0.000000
0.553246 0.628809 0.000000
0.553887 0.626001 0.000000
0.556634 0.615473 0.000000
0.559319 0.592309 0.000000
0.558099 0.555901 0.000000
0.545312 0.504631 0.000000
0.499275 0.424292 0.000000
0.428962 0.326177 0.000000
0.352239 0.230564 0.000000
0.389258 0.234836 0.000000
0.500664 0.296086 0.000000
0.632227 0.367895 0.000000
0.769436 0.441993 0.000000
0.889067 0.505699 0.000000
0.961303 0.519768 0.000000
1.000000 0.515251 0.000000
1.000000 0.507744 0.000000
1.000000 0.498146 0.000000
1.000000 0.487526 0.000000
1.000000 0.476173 0.000000
1.000000 0.465126 0.000000
1.000000 0.454139 0.000000
1.000000 0.443488 0.000000
1.000000 0.433631 0.000000
1.000000 0.424140 0.000000
1.000000 0.415259 0.000000
1.000000 0.407111 0.000000
1.000000 0.399695 0.000000
1.000000 0.393011 0.000000
1.000000 0.387121 0.000000
1.000000 0.381811 0.000000
1.000000 0.377356 0.000000
0.666957 0.750881 0.000000
0.668086 0.748745 0.000000
0.671809 0.740902 0.000000
0.678767 0.724697 0.000000
0.683619 0.696162 0.000000
0.680873 0.653712 0.000000
0.659632 0.592096 0.000000
0.591638 0.490181 0.000000
0.501366 0.374792 0.000000
0.404578 0.264286 0.000000
0.433539 0.262028 0.000000
0.557855 0.331090 0.000000
0.697383 0.407843 0.000000
0.833066 0.481483 0.000000
0.938811 0.537621 0.000000
1.000000 0.576898 0.000000
1.000000 0.567102 0.000000
1.000000 0.555169 0.000000
1.000000 0.542596 0.000000
1.000000 0.529412 0.000000
1.000000 0.516228 0.000000
1.000000 0.503227 0.000000
1.000000 0.490974 0.000000
1.000000 0.479042 0.000000
1.000000 0.467994 0.000000
1.000000 0.457404 0.000000
1.000000 0.447791 0.000000
1.000000 0.438697 0.000000
1.000000 0.430579 0.000000
1.000000 0.423285 0.000000
1.000000 0.416510 0.000000
1.000000 0.410681 0.000000
0.748959 0.836973 0.000000
0.750271 0.835569 0.000000
0.754726 0.830808 0.000000
0.763302 0.819577 0.000000
0.774136 0.800778 0.000000
0.783230 0.773007 0.000000
0.783963 0.731258 0.000000
0.755978 0.662440 0.000000
0.681361 0.553521 0.000000
0.576532 0.425208 0.000000
0.459297 0.299626 0.000000
0.477302 0.288884 0.000000
0.615778 0.366522 0.000000
0.760494 0.446540 0.000000
0.887358 0.515373 0.000000
0.980041 0.564569 0.000000
1.000000 0.599481 0.000000
1.000000 0.611322 0.000000
1.000000 0.596674 0.000000
1.000000 0.581598 0.000000
1.000000 0.566400 0.000000
1.000000 0.551873 0.000000
1.000000 0.537835 0.000000
1.000000 0.524346 0.000000
1.000000 0.511711 0.000000
1.000000 0.499855 0.000000
1.000000 0.488716 0.000000
1.000000 0.478248 0.000000
1.000000 0.468696 0.000000
1.000000 0.460029 0.000000
1.000000 0.452125 0.000000
1.000000 0.444862 0.000000
0.806546 0.897490 0.000000
0.807706 0.896666 0.000000
0.812619 0.892790 0.000000
0.821317 0.885801 0.000000
0.834012 0.873472 0.000000
0.848264 0.854948 0.000000
0.860838 0.827939 0.000000
0.865324 0.789517 0.000000
0.832914 0.715755 0.000000
0.764065 0.610437 0.000000
0.651270 0.475227 0.000000
0.518120 0.337591 0.000000
0.523766 0.317235 0.000000
0.673671 0.401831 0.000000
0.820249 0.483223 0.000000
0.933410 0.544549 0.000000
1.000000 0.587579 0.000000
1.000000 0.617762 0.000000
1.000000 0.638941 0.000000
1.000000 0.632502 0.000000
1.000000 0.615839 0.000000
1.000000 0.599573 0.000000
1.000000 0.584039 0.000000
1.000000 0.569207 0.000000
1.000000 0.555261 0.000000
1.000000 0.541833 0.000000
1.000000 0.529473 0.000000
1.000000 0.517876 0.000000
1.000000 0.507042 0.000000
1.000000 0.497078 0.000000
1.000000 0.487984 0.000000
1.000000 0.479744 0.000000
0.846830 0.938293 0.000000
0.847898 0.937713 0.000000
0.852110 0.935546 0.000000
0.860655 0.930449 0.000000
0.873045 0.922393 0.000000
0.889006 0.910094 0.000000
0.906096 0.892393 0.000000
0.921355 0.867460 0.000000
0.927367 0.830442 0.000000
0.893217 0.755032 0.000000
0.833036 0.656611 0.000000
0.725063 0.524529 0.000000
0.582300 0.378912 0.000000
0.575525 0.348547 0.000000
0.733577 0.438239 0.000000
0.873350 0.516014 0.000000
0.973571 0.570214 0.000000
1.000000 0.607630 0.000000
1.000000 0.633539 0.000000
1.000000 0.651789 0.000000
1.000000 0.663783 0.000000
1.000000 0.646265 0.000000
1.000000 0.629389 0.000000
1.000000 0.613336 0.000000
1.000000 0.598016 0.000000
1.000000 0.583429 0.000000
1.000000 0.569909 0.000000
1.000000 0.557183 0.000000
1.000000 0.545220 0.000000
1.000000 0.534234 0.000000
1.000000 0.524102 0.000000
1.000000 0.514763 0.000000
0.874907 0.965850 0.000000
0.875639 0.965606 0.000000
0.879667 0.963806 0.000000
0.887144 0.960510 0.000000
0.898497 0.955200 0.000000
0.913970 0.946838 0.000000
0.931975 0.935119 0.000000
0.951263 0.918822 0.000000
0.968780 0.896025 0.000000
0.969482 0.855070 0.000000
0.941802 0.785550 0.000000
0.889860 0.693568 0.000000
0.795224 0.571008 0.000000
0.652583 0.424384 0.000000
0.632319 0.382971 0.000000
0.795193 0.475715 0.000000
0.921111 0.545556 0.000000
1.000000 0.592920 0.000000
1.000000 0.625269 0.000000
1.000000 0.647547 0.000000
1.000000 0.663294 0.000000
1.000000 0.674891 0.000000
1.000000 0.673610 0.000000
1.000000 0.656428 0.000000
1.000000 0.640070 0.000000
1.000000 0.624475 0.000000
1.000000 0.609857 0.000000
1.000000 0.596033 0.000000
1.000000 0.583154 0.000000
1.000000 0.571252 0.000000
1.000000 0.560143 0.000000
1.000000 0.549920 0.091554
0.894865 0.983825 0.127016
0.895689 0.983551 0.121218
0.899016 0.982422 0.092958
0.905180 0.980255 0.000000
0.915312 0.976501 0.000000
0.929046 0.970916 0.000000
0.945983 0.963104 0.000000
0.965728 0.952239 0.000000
0.986664 0.937346 0.000000
1.000000 0.917113 0.000000
1.000000 0.872465 0.000000
0.980011 0.807614 0.000000
0.936614 0.722866 0.000000
0.856779 0.611719 0.000000
0.726436 0.472206 0.000000
0.695125 0.420996 0.000000
0.853788 0.511345 0.000000
0.964355 0.572564 0.000000
1.000000 0.613336 0.000000
1.000000 0.641077 0.000000
1.000000 0.660182 0.000000
1.000000 0.674006 0.000000
1.000000 0.684382 0.000000
1.000000 0.692439 0.000000
1.000000 0.680995 0.000000
1.000000 0.664576 0.000000
1.000000 0.649012 0.000000
1.000000 0.634363 0.000000
1.000000 0.620600 0.000000
1.000000 0.607904 0.000000
1.000000 0.596002 0.091890
1.000000 0.585016 0.142306
0.910521 0.994812 0.329412
0.911009 0.994690 0.327794
0.913695 0.993896 0.320195
0.918914 0.992370 0.306310
0.926940 0.989929 0.282719
0.938537 0.986206 0.246006
0.953460 0.980957 0.184848
0.971740 0.973663 0.000000
0.992462 0.963806 0.000000
1.000000 0.950500 0.000000
1.000000 0.931243 0.000000
1.000000 0.884123 0.000000
1.000000 0.824491 0.000000
0.975982 0.747250 0.000000
0.909667 0.646235 0.000000
0.802243 0.521294 0.000000
0.764248 0.462867 0.000000
0.908293 0.544671 0.000000
1.000000 0.597101 0.000000
1.000000 0.631891 0.000000
1.000000 0.655512 0.000000
1.000000 0.672145 0.000000
1.000000 0.684230 0.000000
1.000000 0.693355 0.000000
1.000000 0.700710 0.000000
1.000000 0.703609 0.000000
1.000000 0.687343 0.000000
1.000000 0.671962 0.000000
1.000000 0.657435 0.000000
1.000000 0.644007 0.097536
1.000000 0.631373 0.147799
1.000000 0.619715 0.182010
0.922850 1.000000 0.448066
0.923339 1.000000 0.446876
0.925414 1.000000 0.441962
0.929290 0.999817 0.432715
0.935882 0.998108 0.415229
0.945190 0.995605 0.391485
0.957610 0.992065 0.357488
0.973327 0.987182 0.309636
0.992126 0.980591 0.239384
1.000000 0.971801 0.102235
1.000000 0.959808 0.000000
1.000000 0.936400 0.000000
1.000000 0.892638 0.000000
1.000000 0.837339 0.000000
1.000000 0.767147 0.000000
0.956085 0.676478 0.000000
0.871489 0.566552 0.000000
0.834195 0.505303 0.000000
0.958648 0.575555 0.000000
1.000000 0.619715 0.000000
1.000000 0.649165 0.000000
1.000000 0.669215 0.000000
1.000000 0.683406 0.000000
1.000000 0.693812 0.000000
1.000000 0.701930 0.000000
1.000000 0.708644 0.000000
1.000000 0.714656 0.000000
1.000000 0.708644 0.000000
1.000000 0.693599 0.111299
1.000000 0.679530 0.159426
1.000000 0.666285 0.192599
1.000000 0.654017 0.219730
0.933562 1.000000 0.543694
0.933989 1.000000 0.541802
0.935302 1.000000 0.538445
0.938384 1.000000 0.530602
0.943420 1.000000 0.516686
0.950622 1.000000 0.497322
0.960571 0.998779 0.470436
0.973419 0.995514 0.435950
0.989349 0.991119 0.390295
1.000000 0.985138 0.329320
1.000000 0.977142 0.238834
1.000000 0.966583 0.000000
1.000000 0.939361 0.000000
1.000000 0.898497 0.000000
1.000000 0.847501 0.000000
1.000000 0.783688 0.000000
0.996033 0.702144 0.000000
0.932525 0.606409 0.000000
0.900023 0.545281 0.000000
1.000000 0.604089 0.000000
1.000000 0.640864 0.000000
1.000000 0.665309 0.000000
1.000000 0.682094 0.000000
1.000000 0.693965 0.000000
1.000000 0.702907 0.000000
1.000000 0.710079 0.000000
1.000000 0.716274 0.000000
1.000000 0.722103 0.000000
1.000000 0.727901 0.173892
1.000000 0.714229 0.207767
1.000000 0.700618 0.234226
1.000000 0.687831 0.256535
0.942596 1.000000 0.619409
0.942809 1.000000 0.618677
0.943969 1.000000 0.615045
0.946227 1.000000 0.609522
0.950103 1.000000 0.599420
0.955596 1.000000 0.585016
0.963317 1.000000 0.563745
0.973358 1.000000 0.536309
0.986297 0.997620 0.499580
1.000000 0.993622 0.453559
1.000000 0.988312 0.395209
1.000000 0.981292 0.318059
1.000000 0.971649 0.196475
1.000000 0.941375 0.000000
1.000000 0.903258 0.000000
1.000000 0.856168 0.000000
1.000000 0.798276 0.000000
1.000000 0.725948 0.000000
0.987793 0.642756 0.000000
0.962280 0.583307 0.000000
1.000000 0.630793 0.000000
1.000000 0.660609 0.000000
1.000000 0.680323 0.000000
1.000000 0.693935 0.000000
1.000000 0.703731 0.000000
1.000000 0.711360 0.000000
1.000000 0.717769 0.000000
1.000000 0.723659 0.000000
1.000000 0.729488 0.141360
1.000000 0.735439 0.227481
1.000000 0.734066 0.274876
1.000000 0.720882 0.293858
0.950103 1.000000 0.680201
0.950347 1.000000 0.679438
0.951141 1.000000 0.676753
0.952880 1.000000 0.672663
0.955810 1.000000 0.665003
0.960021 1.000000 0.653742
0.965972 1.000000 0.637995
0.973785 1.000000 0.617700
0.983917 1.000000 0.590417
0.996887 0.998962 0.554925
1.000000 0.995453 0.508141
1.000000 0.990784 0.451209
1.000000 0.984558 0.377661
1.000000 0.971466 0.281621
1.000000 0.942992 0.128969
1.000000 0.907652 0.000000
1.000000 0.864347 0.000000
1.000000 0.811643 0.000000
1.000000 0.747280 0.000000
1.000000 0.675471 0.000000
1.000000 0.618341 0.000000
1.000000 0.655085 0.000000
1.000000 0.678431 0.000000
1.000000 0.693874 0.000000
1.000000 0.704616 0.000000
1.000000 0.712673 0.000000
1.000000 0.719142 0.000000
1.000000 0.725032 0.000000
1.000000 0.730739 0.050813
1.000000 0.736721 0.202762
1.000000 0.743038 0.271977
1.000000 0.749813 0.326787
0.956390 1.000000 0.729702
0.956512 1.000000 0.729213
0.957214 1.000000 0.727291
0.958526 1.000000 0.723690
0.960662 1.000000 0.717922
0.963958 1.000000 0.709407
0.968414 1.000000 0.697597
0.974456 1.000000 0.681758
0.982361 1.000000 0.661341
0.992462 1.000000 0.635004
1.000000 0.999908 0.601282
1.000000 0.996826 0.557488
1.000000 0.992737 0.500938
1.000000 0.987304 0.430213
1.000000 0.971405 0.346349
1.000000 0.944701 0.232334
1.000000 0.911711 0.000000
1.000000 0.871733 0.000000
1.000000 0.823880 0.000000
1.000000 0.766690 0.000000
1.000000 0.704097 0.000000
1.000000 0.649622 0.000000
1.000000 0.676570 0.000000
1.000000 0.694118 0.000000
1.000000 0.705837 0.000000
1.000000 0.714168 0.000000
1.000000 0.720668 0.000000
1.000000 0.726345 0.000000
1.000000 0.731899 0.000000
1.000000 0.737636 0.164248
1.000000 0.743832 0.249516
1.000000 0.750515 0.311040
0.961639 1.000000 0.770779
0.961761 1.000000 0.770748
0.962249 1.000000 0.769223
0.963256 1.000000 0.766262
0.964965 1.000000 0.761471
0.967437 1.000000 0.754879
0.970855 1.000000 0.745785
0.975463 1.000000 0.733700
0.981476 1.000000 0.717922
0.989380 1.000000 0.698024
0.999359 1.000000 0.672816
1.000000 1.000000 0.640650
1.000000 0.997864 0.599756
1.000000 0.994324 0.547021
1.000000 0.989654 0.478889
1.000000 0.971283 0.400427
1.000000 0.946349 0.300603
1.000000 0.915496 0.138277
1.000000 0.878386 0.000000
1.000000 0.834684 0.000000
1.000000 0.783413 0.000000
1.000000 0.728328 0.000000
1.000000 0.677821 0.000000
1.000000 0.695003 0.000000
1.000000 0.707607 0.000000
1.000000 0.716121 0.000000
1.000000 0.722469 0.000000
1.000000 0.727840 0.000000
1.000000 0.733028 0.000000
1.000000 0.738430 0.092042
1.000000 0.744289 0.218265
1.000000 0.750790 0.289586
0.966217 1.000000 0.805600
0.966278 1.000000 0.805417
0.966644 1.000000 0.804044
0.967437 1.000000 0.801785
0.968688 1.000000 0.798367
0.970581 1.000000 0.793118
0.973205 1.000000 0.785702
0.976684 1.000000 0.776181
0.981292 1.000000 0.764065
0.987366 1.000000 0.748806
0.995026 1.000000 0.729397
1.000000 1.000000 0.705348
1.000000 1.000000 0.674708
1.000000 0.998688 0.636683
1.000000 0.995636 0.587274
1.000000 0.989807 0.523949
1.000000 0.971405 0.449470
1.000000 0.948089 0.358312
1.000000 0.919158 0.232609
1.000000 0.884550 0.000000
1.000000 0.844266 0.000000
1.000000 0.797635 0.000000
1.000000 0.748348 0.000000
1.000000 0.702846 0.000000
1.000000 0.710201 0.000000
1.000000 0.718685 0.000000
1.000000 0.724727 0.000000
1.000000 0.729580 0.000000
1.000000 0.734249 0.000000
1.000000 0.739132 0.000000
1.000000 0.744625 0.173617
1.000000 0.750668 0.260960
0.970123 1.000000 0.834836
0.970184 1.000000 0.834714
0.970459 1.000000 0.833799
0.971069 1.000000 0.831998
0.972015 1.000000 0.829007
0.973419 1.000000 0.824796
0.975372 1.000000 0.819303
0.978058 1.000000 0.811948
0.981567 1.000000 0.802243
0.986145 1.000000 0.790372
0.992004 1.000000 0.775540
0.999573 1.000000 0.756863
1.000000 1.000000 0.734005
1.000000 1.000000 0.705409
1.000000 0.999329 0.669764
1.000000 0.996735 0.624231
1.000000 0.988891 0.567102
1.000000 0.971710 0.495613
1.000000 0.949798 0.409552
1.000000 0.922576 0.299809
1.000000 0.890074 0.105959
1.000000 0.852476 0.000000
1.000000 0.809689 0.000000
1.000000 0.764462 0.000000
1.000000 0.722072 0.000000
1.000000 0.722286 0.000000
1.000000 0.727565 0.000000
1.000000 0.731838 0.000000
1.000000 0.735622 0.000000
1.000000 0.739895 0.000000
1.000000 0.744747 0.083680
1.000000 0.750118 0.220981
0.973510 1.000000 0.859861
0.973571 1.000000 0.859709
0.973816 1.000000 0.859098
0.974243 1.000000 0.857664
0.974945 1.000000 0.855406
0.976043 1.000000 0.852140
0.977508 1.000000 0.847654
0.979553 1.000000 0.841733
0.982208 1.000000 0.834257
0.985657 1.000000 0.824765
0.990082 1.000000 0.813352
0.995819 1.000000 0.799191
1.000000 1.000000 0.781430
1.000000 1.000000 0.759915
1.000000 1.000000 0.732906
1.000000 0.999847 0.699611
1.000000 0.997650 0.657679
1.000000 0.988312 0.606104
1.000000 0.972320 0.540398
1.000000 0.951690 0.458625
1.000000 0.925933 0.358251
1.000000 0.895079 0.218479
1.000000 0.859586 0.000000
1.000000 0.819516 0.000000
1.000000 0.777096 0.000000
1.000000 0.736538 0.000000
1.000000 0.731411 0.000000
1.000000 0.734524 0.000000
1.000000 0.737545 0.000000
1.000000 0.740841 0.000000
1.000000 0.744839 0.000000
1.000000 0.749111 0.158541
0.976562 1.000000 0.881437
0.976623 1.000000 0.881376
0.976745 1.000000 0.880827
0.977081 1.000000 0.879637
0.977630 1.000000 0.877836
0.978454 1.000000 0.875212
0.979553 1.000000 0.871611
0.981079 1.000000 0.866941
0.983062 1.000000 0.861112
0.985626 1.000000 0.853788
0.989014 1.000000 0.844755
0.993347 1.000000 0.833585
0.998810 1.000000 0.820188
1.000000 1.000000 0.803616
1.000000 1.000000 0.783322
1.000000 1.000000 0.758175
1.000000 1.000000 0.727596
1.000000 0.998383 0.688624
1.000000 0.987884 0.641627
1.000000 0.973053 0.582025
1.000000 0.953643 0.504845
1.000000 0.929290 0.411658
1.000000 0.899809 0.291234
1.000000 0.865690 0.000000
1.000000 0.827543 0.000000
1.000000 0.786801 0.000000
1.000000 0.747250 0.000000
1.000000 0.738003 0.000000
1.000000 0.739773 0.000000
1.000000 0.742184 0.000000
1.000000 0.745083 0.000000
1.000000 0.748257 0.000000
0.979309 1.000000 0.900023
0.979339 1.000000 0.899992
0.979431 1.000000 0.899474
0.979675 1.000000 0.898619
0.980102 1.000000 0.897154
0.980652 1.000000 0.895018
0.981506 1.000000 0.892241
0.982635 1.000000 0.888548
0.984131 1.000000 0.883848
0.986053 1.000000 0.878172
0.988525 1.000000 0.871092
0.991760 1.000000 0.862364
0.995880 1.000000 0.851835
1.000000 1.000000 0.839048
1.000000 1.000000 0.823606
1.000000 1.000000 0.804593
1.000000 1.000000 0.781521
1.000000 1.000000 0.752804
1.000000 0.998077 0.717342
1.000000 0.987701 0.674464
1.000000 0.974029 0.620600
1.000000 0.955840 0.550103
1.000000 0.932555 0.461555
1.000000 0.904326 0.353826
1.000000 0.871214 0.199527
1.000000 0.834012 0.000000
1.000000 0.794095 0.000000
1.000000 0.754818 0.000000
1.000000 0.742641 0.000000
1.000000 0.743771 0.000000
1.000000 0.745418 0.000000
1.000000 0.747890 0.000000
0.981720 1.000000 0.916136
0.981781 1.000000 0.915984
0.981872 1.000000 0.915679
0.982025 1.000000 0.914977
0.982330 1.000000 0.913817
0.982757 1.000000 0.912078
0.983368 1.000000 0.909880
0.984192 1.000000 0.906950
0.985290 1.000000 0.903197
0.986694 1.000000 0.898619
0.988556 1.000000 0.893126
0.990936 1.000000 0.886290
0.993988 1.000000 0.878080
0.997894 1.000000 0.868193
