20 Preset/Travel Style 2/【3】LUT video cho PR-AE-FCPX/Travel 2 LUT (19).cube
# Created by Adobe Lightroom plugin Export LUT (1.24.0)
# www.johnrellis.com/lightroom/exportlut.htm
# Preset: 19素材江湖 - PURPLE
# Color profile: E:\lut插件\exportlut.1.24\exportlut.lrplugin\color profiles\Rec709gamma2.4.icc
LUT_3D_SIZE 5
DOMAIN_MIN 0.000000 0.000000 0.000000
DOMAIN_MAX 0.903226 0.903226 0.903226
0.104280 0.087953 0.120211
0.176577 0.084169 0.123140
0.367285 0.000000 0.125887
0.697749 0.000000 0.108827
0.956542 0.000000 0.000000
0.134310 0.152041 0.148287
0.195773 0.155215 0.139467
0.420325 0.116091 0.124269
0.733089 0.000000 0.090639
0.966369 0.113680 0.000000
0.000000 0.462409 0.233280
0.244541 0.468910 0.226871
0.529564 0.485115 0.132753
0.810605 0.462013 0.000000
0.989441 0.472358 0.000000
0.460914 0.795285 0.496529
0.506310 0.795987 0.495003
0.644984 0.798611 0.483345
0.813504 0.798856 0.359258
0.981537 0.769162 0.213413
0.783841 0.929808 0.777890
0.791501 0.930083 0.778317
0.822812 0.931609 0.780880
0.867765 0.933593 0.767514
0.940154 0.934539 0.712184
0.130037 0.101472 0.164858
0.174441 0.102907 0.160800
0.395392 0.000000 0.152285
0.723415 0.000000 0.112917
0.965179 0.000000 0.000000
0.158724 0.159579 0.194247
0.215640 0.163058 0.194430
0.442603 0.135561 0.171603
0.749538 0.000000 0.113405
0.973510 0.199191 0.000000
0.211704 0.468238 0.316258
0.284825 0.476051 0.299290
0.546685 0.492317 0.236332
0.815946 0.456489 0.133577
0.991913 0.482887 0.000000
0.522606 0.791623 0.553368
0.532860 0.794461 0.537652
0.660182 0.798093 0.533837
0.813993 0.799100 0.430426
0.978424 0.769100 0.314824
0.792905 0.929046 0.790585
0.796017 0.929839 0.787839
0.825376 0.931182 0.789487
0.869993 0.933379 0.779324
0.939544 0.934447 0.727443
0.185733 0.129519 0.316442
0.250736 0.132967 0.312505
0.414984 0.122560 0.310124
0.772305 0.000000 0.288426
0.972534 0.000000 0.195865
0.212345 0.196445 0.366583
0.288914 0.199039 0.360632
0.465370 0.203708 0.349767
0.787778 0.000000 0.302068
0.978332 0.164675 0.211185
0.273075 0.473152 0.475196
0.356573 0.479255 0.475746
0.577325 0.503990 0.475654
0.806973 0.484199 0.403876
0.986236 0.488380 0.288731
0.568444 0.790616 0.653254
0.599847 0.790982 0.652979
0.687617 0.793942 0.644312
0.814206 0.798642 0.598199
0.965881 0.766812 0.520195
0.797513 0.929137 0.818570
0.807340 0.929198 0.820127
0.833555 0.931029 0.819760
0.878416 0.933898 0.819150
0.938811 0.935119 0.776974
0.328527 0.188479 0.582818
0.395239 0.191196 0.580133
0.578088 0.221836 0.567529
0.762051 0.259648 0.572076
0.990021 0.355932 0.579522
0.360662 0.269413 0.608911
0.425391 0.274174 0.605859
0.601434 0.310246 0.592248
0.772763 0.359655 0.593042
0.984192 0.423316 0.589441
0.357336 0.505974 0.661707
0.432898 0.510674 0.662226
0.632380 0.547082 0.658076
0.781582 0.589837 0.648798
0.967773 0.574151 0.612726
0.580987 0.772488 0.741726
0.606744 0.774166 0.741909
0.691249 0.780667 0.741909
0.809751 0.796567 0.744381
0.943847 0.764797 0.675319
0.799588 0.929931 0.863920
0.806607 0.930175 0.863798
0.833738 0.931243 0.863005
0.881346 0.933867 0.862455
0.938384 0.936126 0.840543
0.586999 0.416114 0.815854
0.618647 0.425299 0.813657
0.721553 0.468513 0.806088
0.837217 0.549493 0.789059
0.942382 0.583154 0.787594
0.587945 0.469673 0.817502
0.618738 0.477333 0.815610
0.719081 0.512169 0.808042
0.833524 0.580896 0.791440
0.936370 0.614405 0.790036
0.575952 0.612665 0.830900
0.608942 0.618769 0.828641
0.709071 0.638575 0.821408
0.824643 0.679805 0.806943
0.921996 0.712551 0.806363
0.608392 0.782589 0.855283
0.620356 0.780636 0.853696
0.674769 0.775357 0.848936
0.815457 0.798093 0.844572
0.915557 0.831815 0.845884
0.781827 0.916411 0.901640
0.787961 0.916686 0.901488
0.814878 0.918853 0.902068
0.862303 0.922576 0.902434
0.930419 0.931090 0.905394
