20 Preset/Travel Style 2/【3】LUT video cho PR-AE-FCPX/Travel 2 LUT (12).cube
# Created by Adobe Lightroom plugin Export LUT (1.24.0)
# www.johnrellis.com/lightroom/exportlut.htm
# Preset: 12素材江湖 - PORTRAIT I
# Color profile: E:\lut插件\exportlut.1.24\exportlut.lrplugin\color profiles\Rec709gamma2.4.icc
LUT_3D_SIZE 5
DOMAIN_MIN 0.000000 0.000000 0.000000
DOMAIN_MAX 0.903226 0.903226 0.903226
0.017914 0.073701 0.095186
0.129946 0.083589 0.104982
0.524590 0.000000 0.111147
1.000000 0.000000 0.099855
1.000000 0.243565 0.228305
0.000000 0.126955 0.128817
0.131258 0.125948 0.107210
0.457252 0.121523 0.104463
0.996582 0.000000 0.009949
1.000000 0.367681 0.221836
0.000000 0.319158 0.232761
0.000000 0.292119 0.206058
0.572168 0.349981 0.022919
0.888182 0.445899 0.000000
1.000000 0.585931 0.180301
0.000000 0.639582 0.436896
0.000000 0.613489 0.403693
0.000000 0.615015 0.251835
0.969696 0.723140 0.000000
1.000000 0.744564 0.159182
0.473396 0.923186 0.767300
0.443488 0.920104 0.751369
0.201053 0.897063 0.655879
0.694148 0.936187 0.555566
1.000000 0.876585 0.433021
0.000000 0.101167 0.148440
0.103822 0.097688 0.149447
0.490669 0.000000 0.162539
0.985718 0.000000 0.121523
1.000000 0.291112 0.200870
0.000000 0.147036 0.168643
0.104341 0.159121 0.176150
0.460121 0.161349 0.178805
0.963104 0.153597 0.125612
1.000000 0.383337 0.191409
0.000000 0.365942 0.295628
0.000000 0.346105 0.276341
0.535454 0.362890 0.191653
0.875761 0.454292 0.154940
1.000000 0.591089 0.165377
0.000000 0.684108 0.511406
0.000000 0.659541 0.477485
0.000000 0.611475 0.323644
0.957977 0.732937 0.229892
1.000000 0.754147 0.292607
0.557336 0.925902 0.796353
0.531304 0.922881 0.781521
0.407111 0.908568 0.708980
0.693477 0.937102 0.610163
1.000000 0.885588 0.538811
0.000000 0.166751 0.317449
0.000000 0.168734 0.328985
0.373877 0.133455 0.351293
0.936919 0.000000 0.418097
1.000000 0.496162 0.542809
0.000000 0.228397 0.335729
0.000000 0.234409 0.353124
0.402655 0.214664 0.378820
0.946502 0.177279 0.449104
1.000000 0.571313 0.572137
0.000000 0.438605 0.453620
0.000000 0.446754 0.458350
0.501701 0.493751 0.494697
0.906340 0.587488 0.541009
1.000000 0.688930 0.589166
0.306737 0.800229 0.696681
0.380957 0.787594 0.685878
0.499214 0.730373 0.623743
0.907591 0.778866 0.587518
1.000000 0.802579 0.609125
0.695644 0.938476 0.863798
0.711452 0.935790 0.863005
0.681514 0.923857 0.828885
0.647303 0.926543 0.710933
1.000000 0.908843 0.751217
0.000000 0.307652 0.607477
0.000000 0.307774 0.623743
0.438453 0.294163 0.643763
0.803708 0.223239 0.688991
1.000000 0.434119 0.730343
0.000000 0.359930 0.612146
0.000000 0.361822 0.626307
0.449958 0.352514 0.654475
0.804654 0.316808 0.698268
1.000000 0.516106 0.743313
0.000000 0.523674 0.667414
0.000000 0.521050 0.662867
0.466957 0.539635 0.690211
0.800259 0.554803 0.735042
1.000000 0.749050 0.813413
0.361883 0.811521 0.814115
0.430976 0.811643 0.813931
0.623346 0.819730 0.820096
0.828092 0.848203 0.843351
0.975311 0.892241 0.881529
0.788449 0.960204 0.925628
0.797391 0.958984 0.925200
0.827176 0.953918 0.922515
0.836423 0.934173 0.895689
0.978393 0.940002 0.896880
0.296513 0.584558 0.901976
0.382727 0.582269 0.903075
0.600427 0.578393 0.907256
0.828580 0.572259 0.911162
1.000000 0.582635 0.921141
0.278813 0.606409 0.895903
0.369879 0.605035 0.897673
0.589471 0.602960 0.903014
0.817441 0.596948 0.907225
1.000000 0.611688 0.918608
0.220005 0.697475 0.892180
0.307164 0.692317 0.890074
0.562524 0.696468 0.897246
0.789303 0.699336 0.903838
0.974365 0.729580 0.919432
0.506371 0.846220 0.921630
0.524620 0.842954 0.919677
0.610163 0.834653 0.914458
0.782223 0.840208 0.914427
0.947570 0.875853 0.934905
0.770871 0.949737 0.951446
0.780789 0.949584 0.951232
0.824277 0.950622 0.951965
0.884550 0.952483 0.952789
0.948577 0.958740 0.957458
