20 Preset/Travel Style 2/【3】LUT video cho PR-AE-FCPX/Travel 2 LUT (17).cube
# Created by Adobe Lightroom plugin Export LUT (1.24.0)
# www.johnrellis.com/lightroom/exportlut.htm
# Preset: 17素材江湖 - FLAT
# Color profile: E:\lut插件\exportlut.1.24\exportlut.lrplugin\color profiles\Rec709gamma2.4.icc
LUT_3D_SIZE 5
DOMAIN_MIN 0.000000 0.000000 0.000000
DOMAIN_MAX 0.903226 0.903226 0.903226
0.123140 0.081758 0.099947
0.136202 0.081788 0.101747
0.241123 0.037598 0.103914
0.523400 0.000000 0.102083
0.873136 0.000000 0.110964
0.117372 0.137819 0.115297
0.153140 0.136873 0.106935
0.316838 0.141878 0.088777
0.599664 0.000000 0.049470
0.914977 0.000000 0.052674
0.000000 0.480934 0.273625
0.000000 0.472328 0.252934
0.429419 0.474189 0.184970
0.774746 0.477211 0.000000
0.993439 0.477638 0.000000
0.483955 0.788693 0.543542
0.497139 0.786954 0.529076
0.610651 0.772244 0.500084
0.788022 0.773587 0.421698
0.982849 0.779660 0.343603
0.826169 0.921965 0.783566
0.826352 0.921935 0.778958
0.840757 0.918486 0.767636
0.878935 0.915984 0.750942
0.943816 0.921782 0.714168
0.121248 0.089967 0.143069
0.146731 0.089021 0.138796
0.281254 0.032746 0.150851
0.556817 0.000000 0.141634
0.893706 0.000000 0.091615
0.105562 0.160311 0.191989
0.159823 0.159152 0.192813
0.327031 0.147097 0.182284
0.611902 0.023987 0.158297
0.924987 0.000000 0.000000
0.000000 0.490578 0.364752
0.180423 0.487068 0.355169
0.444800 0.478157 0.302617
0.771115 0.475868 0.239261
0.985351 0.477729 0.146029
0.519371 0.791043 0.589593
0.551019 0.788876 0.586511
0.634577 0.777188 0.556390
0.791348 0.775174 0.492683
0.978058 0.782650 0.436774
0.832212 0.922423 0.795010
0.838163 0.921904 0.794888
0.849485 0.920470 0.784024
0.883452 0.916777 0.767483
0.944244 0.922850 0.735012
0.000000 0.131380 0.389502
0.095216 0.137179 0.393225
0.359350 0.146059 0.399939
0.669154 0.078035 0.432136
0.942931 0.000000 0.411414
0.000000 0.239414 0.434180
0.104067 0.228702 0.436072
0.399969 0.246799 0.438575
0.696559 0.258671 0.466773
0.947326 0.172244 0.429541
0.000000 0.508873 0.534295
0.220005 0.508263 0.533471
0.496803 0.513268 0.543236
0.753658 0.542138 0.559503
0.937316 0.513237 0.496895
0.608850 0.801083 0.708278
0.634821 0.800381 0.708492
0.707820 0.793423 0.697566
0.806394 0.782956 0.663844
0.961212 0.796506 0.644495
0.840085 0.925261 0.826444
0.845975 0.924926 0.826322
0.867552 0.923247 0.825010
0.892485 0.919432 0.810330
0.943481 0.923125 0.785946
0.000000 0.263279 0.667781
0.108888 0.269474 0.670497
0.453681 0.287022 0.677699
0.727962 0.327092 0.687556
0.949645 0.384436 0.713741
0.000000 0.338872 0.681605
0.188602 0.343114 0.682979
0.477089 0.359869 0.688563
0.737545 0.406104 0.697200
0.946532 0.460395 0.722133
0.262577 0.550561 0.702785
0.351415 0.554314 0.706081
0.534722 0.553704 0.718807
0.760616 0.597009 0.726009
0.936858 0.657191 0.753292
0.580011 0.773312 0.771298
0.599908 0.772671 0.770413
0.674006 0.772213 0.768673
0.808591 0.784787 0.777279
0.933898 0.817044 0.793271
0.853300 0.928679 0.874998
0.859159 0.929198 0.875486
0.883116 0.931884 0.878264
0.909972 0.928985 0.870176
0.945434 0.926055 0.851957
0.471473 0.509026 0.860166
0.508995 0.512383 0.859892
0.634913 0.530205 0.860014
0.792874 0.566491 0.859312
0.926543 0.620600 0.859007
0.491615 0.546380 0.859190
0.526482 0.549523 0.859129
0.643549 0.564569 0.859098
0.794461 0.597436 0.858488
0.923980 0.648188 0.858671
0.587549 0.676661 0.859098
0.599054 0.671107 0.859495
0.674403 0.669398 0.860685
0.804288 0.692958 0.860533
0.921172 0.737118 0.863188
0.648341 0.800687 0.868193
0.654200 0.797971 0.866972
0.726345 0.800565 0.868467
0.825193 0.806577 0.874266
0.929259 0.841794 0.880491
0.839384 0.915465 0.904082
0.842649 0.915465 0.903868
0.858518 0.916442 0.903990
0.888212 0.917876 0.903258
0.944396 0.925261 0.906645
