20 Preset/Travel Style 2/【3】LUT video cho PR-AE-FCPX/Travel 2 LUT (16).cube
# Created by Adobe Lightroom plugin Export LUT (1.24.0)
# www.johnrellis.com/lightroom/exportlut.htm
# Preset: 16素材江湖 - WATERS
# Color profile: E:\lut插件\exportlut.1.24\exportlut.lrplugin\color profiles\Rec709gamma2.4.icc
LUT_3D_SIZE 5
DOMAIN_MIN 0.000000 0.000000 0.000000
DOMAIN_MAX 0.903226 0.903226 0.903226
0.089326 0.089326 0.089326
0.137545 0.084840 0.089326
0.302281 0.020935 0.081575
0.576074 0.000000 0.001709
0.987488 0.000000 0.000000
0.081117 0.114076 0.100740
0.116243 0.111177 0.091188
0.250523 0.133242 0.088808
0.542138 0.146700 0.000000
0.981170 0.000000 0.000000
0.000000 0.266728 0.195041
0.042267 0.247715 0.176974
0.265354 0.242283 0.103975
0.464607 0.292332 0.131685
0.876036 0.383948 0.000000
0.000000 0.593103 0.397772
0.000000 0.575952 0.388922
0.000000 0.543725 0.237125
0.517876 0.467414 0.009979
0.842618 0.549096 0.149416
0.000000 0.904051 0.660822
0.000000 0.898070 0.661860
0.174746 0.854582 0.622797
0.400671 0.862852 0.439521
0.907561 0.824186 0.202731
0.076081 0.102785 0.123537
0.132357 0.082582 0.134432
0.284855 0.000000 0.134218
0.540368 0.000000 0.103639
0.910674 0.000000 0.000000
0.063203 0.126741 0.128206
0.125338 0.125338 0.125338
0.269261 0.118929 0.122621
0.512749 0.078859 0.109560
0.896574 0.000000 0.000000
0.000000 0.271733 0.217441
0.124331 0.255131 0.207126
0.247379 0.230198 0.145571
0.422736 0.274449 0.171359
0.858671 0.365332 0.059785
0.000000 0.610864 0.430915
0.000000 0.597436 0.422889
0.000000 0.556176 0.296849
0.517845 0.469856 0.146914
0.833310 0.544305 0.174472
0.000000 0.904845 0.667353
0.000000 0.897642 0.665003
0.302983 0.874174 0.655329
0.426459 0.876341 0.465126
0.924834 0.840085 0.238834
0.000000 0.182223 0.275090
0.000000 0.144442 0.283635
0.288426 0.000000 0.295506
0.541161 0.000000 0.331579
0.933257 0.000000 0.358770
0.044434 0.222171 0.269047
0.104280 0.205936 0.275914
0.283909 0.104189 0.290135
0.541558 0.000000 0.317235
0.947539 0.000000 0.327062
0.000000 0.308110 0.313359
0.000000 0.300267 0.304540
0.272068 0.272068 0.272068
0.537011 0.261173 0.267552
0.925841 0.215946 0.248234
0.000000 0.677363 0.555261
0.000000 0.645991 0.530510
0.332799 0.590204 0.490730
0.533715 0.497261 0.314916
0.825223 0.555322 0.348211
0.231662 0.922789 0.749416
0.313115 0.918700 0.747829
0.493050 0.896880 0.742184
0.511925 0.876463 0.610498
0.905180 0.825132 0.328466
0.000000 0.349248 0.565484
0.000000 0.319799 0.573846
0.145144 0.168704 0.594079
0.579095 0.000000 0.594415
0.904692 0.000000 0.637964
0.000000 0.389471 0.559777
0.000000 0.366674 0.565087
0.082704 0.219059 0.577630
0.556909 0.000000 0.571313
0.894041 0.000000 0.620417
0.000000 0.471199 0.544976
0.000000 0.463722 0.533898
0.239658 0.413916 0.543664
0.524254 0.206180 0.535576
0.924804 0.000000 0.589136
0.000000 0.668696 0.681666
0.000000 0.657801 0.669978
0.000000 0.633143 0.641962
0.535668 0.535668 0.535668
0.946654 0.518242 0.526726
0.000000 0.978424 0.861448
0.000000 0.973114 0.860258
0.553277 0.953124 0.861601
0.764889 0.912749 0.846433
0.894987 0.847105 0.631922
0.000000 0.562707 0.871183
0.000000 0.537774 0.873136
0.000000 0.406043 0.886870
0.464332 0.152621 0.897459
0.877653 0.000000 0.901213
0.000000 0.595300 0.862058
0.000000 0.573175 0.864714
0.000000 0.453986 0.877653
0.446082 0.216281 0.888823
0.870817 0.000000 0.893950
0.000000 0.685939 0.846525
0.000000 0.677333 0.848203
0.248051 0.628290 0.861082
0.391363 0.394873 0.876310
0.868956 0.000000 0.890959
0.000000 0.783505 0.874388
0.111116 0.781827 0.870756
0.463294 0.784543 0.862303
0.620417 0.748562 0.876310
0.890654 0.459876 0.907744
0.000000 0.925566 0.941527
0.000000 0.925597 0.940795
0.336797 0.929351 0.941161
0.706416 0.931121 0.937407
0.876432 0.876432 0.876432
