20 Preset/Travel Style 2/【3】LUT video cho PR-AE-FCPX/Travel 2 LUT (21).cube
# Created by Adobe Lightroom plugin Export LUT (1.24.0)
# www.johnrellis.com/lightroom/exportlut.htm
# Preset: 21素材江湖 - WARM
# Color profile: E:\lut插件\exportlut.1.24\exportlut.lrplugin\color profiles\Rec709gamma2.4.icc
LUT_3D_SIZE 5
DOMAIN_MIN 0.000000 0.000000 0.000000
DOMAIN_MAX 0.903226 0.903226 0.903226
0.033692 0.093690 0.111177
0.107393 0.096651 0.115206
0.347601 0.000000 0.117983
0.727657 0.000000 0.108766
1.000000 0.000000 0.106355
0.000000 0.154788 0.130800
0.129458 0.157321 0.122713
0.435706 0.137667 0.095857
0.788022 0.000000 0.043061
1.000000 0.000000 0.002472
0.000000 0.489296 0.249332
0.081025 0.485542 0.240330
0.567590 0.485603 0.168154
0.895323 0.472450 0.000000
1.000000 0.487282 0.000000
0.390204 0.833555 0.528283
0.460639 0.832456 0.524987
0.654444 0.828367 0.501488
0.882444 0.810819 0.403540
1.000000 0.779080 0.221469
0.784360 0.951995 0.839963
0.792660 0.951751 0.839597
0.819333 0.949065 0.830961
0.882322 0.948241 0.816831
0.975708 0.940185 0.771664
0.026978 0.099397 0.142153
0.097963 0.101045 0.140475
0.343145 0.046723 0.147524
0.734920 0.000000 0.115755
1.000000 0.000000 0.080476
0.000000 0.156680 0.177951
0.132204 0.164401 0.179812
0.414801 0.146304 0.161288
0.776059 0.000000 0.111788
1.000000 0.000000 0.000000
0.000000 0.474922 0.325414
0.168032 0.476265 0.307073
0.552300 0.468818 0.256352
0.874876 0.451484 0.089693
1.000000 0.489143 0.000000
0.414038 0.828855 0.568383
0.477455 0.828458 0.566278
0.656367 0.825132 0.548547
0.876707 0.807675 0.461799
1.000000 0.778012 0.311009
0.788235 0.951263 0.847837
0.795834 0.950958 0.847227
0.828122 0.950195 0.846098
0.884764 0.949035 0.832425
0.973297 0.941344 0.792508
0.000000 0.114412 0.292485
0.126558 0.118044 0.294102
0.354162 0.106203 0.299962
0.751736 0.000000 0.305699
0.998627 0.000000 0.296239
0.000000 0.186709 0.345892
0.154086 0.192264 0.343572
0.409705 0.199924 0.344030
0.763455 0.015229 0.330907
1.000000 0.174380 0.310369
0.000000 0.456977 0.471046
0.249668 0.462379 0.473060
0.548760 0.475654 0.474739
0.828794 0.461921 0.426246
1.000000 0.483589 0.351415
0.493782 0.815610 0.696010
0.535119 0.812436 0.690364
0.660914 0.812863 0.673610
0.859922 0.802670 0.625238
1.000000 0.770840 0.502892
0.795163 0.948180 0.872801
0.807187 0.947814 0.874540
0.831724 0.948150 0.870268
0.883024 0.947326 0.863157
0.964416 0.940002 0.831144
0.000000 0.159091 0.536980
0.152102 0.161135 0.539117
0.460670 0.160739 0.543297
0.733394 0.123049 0.561913
1.000000 0.198398 0.600397
0.000000 0.228611 0.568383
0.200412 0.231327 0.568505
0.492012 0.240909 0.568933
0.749996 0.250462 0.585016
1.000000 0.303838 0.609705
0.000000 0.443488 0.633478
0.219028 0.446998 0.641016
0.555138 0.469551 0.654444
0.792020 0.515923 0.666377
1.000000 0.526543 0.647364
0.446662 0.774960 0.779019
0.493141 0.775174 0.778592
0.640406 0.782193 0.782040
0.818326 0.791043 0.781216
0.980468 0.767025 0.725582
0.790158 0.947173 0.907347
0.799008 0.946990 0.907225
0.832853 0.946838 0.907042
0.882872 0.946563 0.904173
0.954223 0.940795 0.885740
0.334997 0.245335 0.833829
0.417914 0.243107 0.833066
0.634180 0.244999 0.831998
0.845792 0.308019 0.827573
0.997528 0.361791 0.827634
0.333562 0.300816 0.838285
0.417731 0.300145 0.837827
0.632563 0.307012 0.836271
0.842954 0.365087 0.831449
0.992554 0.421759 0.831357
0.194614 0.470253 0.859800
0.333104 0.468482 0.858854
0.602319 0.481819 0.856260
0.828519 0.533928 0.850736
0.972473 0.607080 0.850614
0.238651 0.747097 0.886076
0.297185 0.741939 0.884215
0.462837 0.720607 0.877653
0.784054 0.747707 0.884001
0.940124 0.815213 0.889586
0.728176 0.929076 0.932036
0.739528 0.929107 0.931945
0.785702 0.930297 0.932586
0.857176 0.933043 0.933684
0.936339 0.937896 0.935332
