20 Preset/Travel Style 2/【3】LUT video cho PR-AE-FCPX/Travel 2 LUT (1).cube
# Created by Adobe Lightroom plugin Export LUT (1.24.0)
# www.johnrellis.com/lightroom/exportlut.htm
# Preset: 01素材江湖 - COMPASS
# Color profile: E:\lut插件\exportlut.1.24\exportlut.lrplugin\color profiles\Rec709gamma2.4.icc
LUT_3D_SIZE 8
DOMAIN_MIN 0.000000 0.000000 0.000000
DOMAIN_MAX 0.903226 0.903226 0.903226
0.000000 0.000000 0.000000
0.028779 0.000000 0.000855
0.135409 0.000000 0.000000
0.248844 0.000000 0.000000
0.389715 0.000000 0.000000
0.562921 0.000000 0.000000
0.817319 0.000000 0.000000
1.000000 0.000000 0.000000
0.012329 0.018494 0.007385
0.034791 0.022827 0.002991
0.133272 0.038392 0.000000
0.238315 0.043366 0.000000
0.372564 0.029938 0.000000
0.542382 0.000000 0.000000
0.767758 0.000000 0.000000
0.982025 0.000000 0.000000
0.093141 0.113436 0.048859
0.103822 0.111757 0.053559
0.155062 0.126162 0.014405
0.262516 0.155550 0.000000
0.392737 0.173159 0.000000
0.585229 0.195407 0.000000
0.828367 0.213657 0.000000
1.000000 0.206424 0.000000
0.177188 0.215976 0.125582
0.183719 0.210788 0.128389
0.218997 0.221866 0.116457
0.312963 0.253819 0.056550
0.480934 0.308293 0.000000
0.661616 0.356298 0.000000
0.861814 0.378271 0.000000
1.000000 0.378271 0.000000
0.288975 0.353552 0.201938
0.294438 0.348363 0.203952
0.318120 0.343053 0.206394
0.392523 0.380560 0.171359
0.495186 0.400855 0.097292
0.674311 0.451637 0.000000
0.857939 0.505547 0.000000
1.000000 0.524224 0.000000
0.427222 0.525597 0.291936
0.442298 0.533410 0.300877
0.460700 0.515587 0.308904
0.512474 0.535027 0.285313
0.613062 0.576349 0.224582
0.730648 0.590570 0.128450
0.906249 0.628046 0.000000
1.000000 0.650019 0.000000
0.609003 0.737392 0.440497
0.616480 0.736995 0.444465
0.632502 0.722530 0.447089
0.664790 0.715297 0.440955
0.729397 0.738521 0.392798
0.835264 0.771359 0.326085
0.924559 0.753536 0.253635
1.000000 0.748379 0.232364
0.792477 0.895048 0.676905
0.795224 0.893736 0.677302
0.807858 0.889403 0.681727
0.831235 0.881926 0.692561
0.845029 0.877043 0.637873
0.905058 0.897612 0.610590
0.984497 0.913512 0.566522
1.000000 0.879026 0.495521
0.001190 0.006043 0.016083
0.023072 0.000000 0.024384
0.124544 0.000000 0.033906
0.229496 0.000000 0.036316
0.364569 0.000000 0.035279
0.529320 0.000000 0.017670
0.741268 0.000000 0.000000
0.956023 0.000000 0.000000
0.003265 0.025666 0.024659
0.029297 0.029297 0.029297
0.128695 0.030701 0.033021
0.231357 0.023133 0.035767
0.363012 0.000000 0.031556
0.526574 0.000000 0.011200
0.722621 0.000000 0.000000
0.934630 0.000000 0.000000
0.086824 0.121218 0.079347
0.103151 0.117250 0.085725
0.149660 0.126589 0.059876
0.252079 0.151095 0.036408
0.377050 0.161990 0.021149
0.545922 0.175143 0.000000
0.750210 0.181460 0.000000
0.963714 0.173861 0.000000
0.167269 0.213046 0.132082
0.175845 0.208957 0.134615
0.208682 0.214328 0.131411
0.285313 0.234409 0.096773
0.423407 0.272770 0.026764
0.583032 0.311223 0.000000
0.777096 0.335485 0.000000
0.970611 0.349279 0.000000
0.280369 0.351171 0.207095
0.285283 0.344884 0.208042
0.305303 0.330358 0.213199
0.368261 0.359777 0.180087
0.459083 0.373785 0.121462
0.629328 0.422461 0.000000
0.817288 0.480812 0.000000
0.989532 0.504784 0.000000
0.409339 0.511009 0.288945
0.415503 0.507561 0.291173
0.435462 0.492256 0.299413
0.485115 0.508476 0.284092
0.585168 0.552514 0.231571
0.708095 0.574151 0.153262
0.887358 0.615198 0.000000
1.000000 0.639094 0.019348
0.586206 0.719478 0.425086
0.587854 0.713100 0.422675
0.603601 0.697505 0.424689
0.637415 0.688350 0.424933
0.708797 0.719783 0.385168
0.815671 0.754482 0.320134
0.904112 0.736538 0.244114
1.000000 0.734066 0.213291
0.776089 0.885832 0.658595
0.781796 0.886351 0.663111
0.794461 0.881346 0.666651
0.818997 0.873716 0.678035
0.853422 0.885069 0.662684
0.905791 0.899840 0.624720
0.981720 0.912108 0.570123
1.000000 0.877714 0.498970
0.000000 0.039643 0.099947
0.007294 0.026673 0.107759
0.127199 0.000000 0.130190
0.234531 0.000000 0.148348
0.373693 0.000000 0.163210
0.555138 0.000000 0.167025
0.775357 0.000000 0.167880
0.985077 0.000000 0.170779
0.036927 0.083925 0.104463
0.043793 0.080781 0.112490
0.129915 0.037537 0.132937
0.235142 0.010895 0.146151
0.370825 0.000000 0.156741
0.547662 0.000000 0.157656
0.755795 0.000000 0.161807
0.968353 0.000000 0.162478
0.007507 0.141726 0.139834
0.060914 0.142519 0.140902
0.144198 0.144198 0.144198
0.255344 0.146426 0.148745
0.394598 0.147585 0.155032
0.569879 0.141238 0.160464
0.774380 0.113710 0.160342
0.977539 0.005402 0.160586
0.092592 0.255955 0.168734
0.143954 0.253086 0.177676
0.216342 0.238010 0.192874
0.291386 0.253391 0.175723
0.436316 0.287572 0.167117
0.606775 0.310643 0.162051
0.807248 0.327703 0.155917
0.990906 0.333104 0.157961
0.268101 0.386847 0.249088
0.279942 0.381903 0.250462
0.315557 0.364630 0.257725
0.371557 0.374487 0.247318
0.472206 0.394293 0.205264
0.641566 0.435676 0.172976
0.826658 0.487404 0.143191
0.997803 0.499611 0.157778
0.404120 0.542168 0.328161
0.413214 0.539788 0.330724
0.439979 0.522576 0.336248
0.479164 0.509636 0.336034
0.573175 0.551476 0.293217
0.699367 0.574945 0.239170
0.881773 0.616754 0.206058
1.000000 0.644312 0.224308
0.591119 0.747127 0.472816
0.594202 0.741726 0.470619
0.610498 0.724300 0.468055
0.639826 0.697322 0.472480
0.703334 0.722042 0.438209
0.810300 0.758724 0.384588
0.907317 0.747951 0.326909
1.000000 0.747433 0.316075
0.776791 0.894377 0.683497
0.778317 0.892180 0.681819
0.790921 0.886900 0.684047
0.819242 0.881498 0.698299
0.850950 0.884733 0.691218
0.902678 0.902068 0.662165
0.977905 0.917113 0.616480
1.000000 0.884703 0.551446
0.000000 0.107515 0.188205
0.000000 0.100740 0.195834
0.108980 0.075929 0.215579
0.236393 0.000000 0.242435
0.364477 0.000000 0.263798
0.541955 0.000000 0.297307
0.750088 0.000000 0.319127
0.965484 0.000000 0.321202
0.041169 0.136629 0.198489
0.047700 0.132784 0.204044
0.117952 0.109407 0.221805
0.242222 0.024567 0.247868
0.371252 0.000000 0.266972
0.547448 0.000000 0.296757
0.751339 0.000000 0.314153
0.965667 0.000000 0.314366
0.129091 0.186343 0.212192
0.144778 0.188663 0.212772
0.163760 0.187289 0.228855
0.249088 0.151308 0.253178
0.395972 0.145083 0.276799
0.581598 0.092470 0.300298
0.806241 0.000000 0.315221
0.997894 0.000000 0.312047
0.000000 0.284398 0.280491
0.070802 0.283360 0.279789
0.181003 0.281376 0.279026
0.277348 0.277348 0.277348
0.427619 0.280674 0.283299
0.602289 0.282963 0.290501
0.807401 0.282506 0.298680
0.994934 0.283116 0.310460
0.000000 0.474189 0.341680
0.000000 0.467079 0.336492
0.239567 0.445991 0.325933
0.379431 0.409369 0.347814
0.479286 0.425208 0.321904
0.654994 0.459602 0.311894
0.844663 0.484901 0.313207
1.000000 0.489693 0.327459
0.363561 0.627375 0.420569
0.389288 0.633448 0.430213
0.444282 0.610224 0.429419
0.508568 0.574395 0.434516
0.581994 0.582086 0.411505
0.707240 0.601038 0.364263
0.882475 0.632959 0.354345
1.000000 0.658747 0.373236
0.583948 0.790066 0.553063
0.592554 0.788388 0.554803
0.620966 0.777371 0.556451
0.663691 0.754971 0.559289
0.710933 0.742245 0.546715
0.805905 0.774258 0.499519
0.904143 0.764553 0.446540
1.000000 0.765072 0.445319
0.786252 0.916503 0.739193
0.788998 0.915160 0.738949
0.801114 0.910033 0.739315
0.824308 0.900938 0.742672
0.851652 0.887633 0.745113
0.896025 0.904692 0.719631
0.967376 0.921843 0.683497
1.000000 0.897337 0.636042
0.000000 0.177737 0.310521
0.000000 0.173098 0.317205
0.018036 0.148257 0.333196
0.225895 0.108858 0.360571
0.380987 0.000000 0.390692
0.533867 0.000000 0.416785
0.740841 0.000000 0.461219
0.957366 0.000000 0.489876
0.010498 0.205142 0.320226
0.005035 0.200900 0.326726
0.079713 0.173129 0.341863
0.229191 0.135439 0.364721
0.385229 0.000000 0.394659
0.539544 0.000000 0.419806
0.744900 0.000000 0.461524
0.959136 0.000000 0.487678
0.169802 0.263981 0.330999
0.173342 0.263737 0.335393
0.183352 0.252476 0.350195
0.241489 0.212955 0.374548
0.389868 0.151736 0.398291
0.542718 0.116152 0.416541
0.749355 0.000000 0.453712
0.956634 0.000000 0.472236
0.197940 0.335851 0.376562
0.213596 0.336309 0.376226
0.268864 0.340917 0.376074
0.306615 0.336767 0.392859
0.412238 0.284123 0.418067
0.583948 0.276158 0.435584
0.788907 0.247318 0.456001
0.979950 0.206943 0.462440
0.000000 0.473610 0.467018
0.000000 0.473548 0.467109
0.200137 0.469215 0.463752
0.328985 0.458930 0.455573
0.436469 0.436469 0.436469
0.618189 0.437995 0.441047
0.819059 0.442451 0.450202
0.990539 0.451209 0.464240
0.000000 0.690578 0.539757
0.000000 0.687373 0.536584
0.163302 0.665064 0.516320
0.379370 0.626673 0.488838
0.535515 0.570672 0.499428
0.666682 0.600916 0.480995
0.855406 0.639307 0.488716
1.000000 0.654780 0.508415
0.462348 0.840818 0.614740
0.469429 0.836637 0.611017
0.541222 0.820676 0.621241
0.633692 0.798184 0.634943
0.699519 0.762509 0.632471
0.769955 0.767605 0.602564
0.877440 0.769070 0.554345
1.000000 0.772610 0.552544
0.756527 0.930816 0.772549
0.759548 0.929351 0.771817
0.773465 0.923674 0.770138
0.808743 0.917937 0.778866
0.842374 0.902861 0.779995
0.878386 0.898375 0.770626
0.943969 0.917540 0.739498
1.000000 0.900786 0.697322
0.000000 0.279484 0.490059
0.000000 0.274296 0.495644
0.000000 0.239292 0.506462
0.201785 0.208682 0.531884
0.393378 0.123018 0.565393
0.574487 0.000000 0.589105
0.748074 0.000000 0.612390
0.959319 0.000000 0.651667
0.000000 0.293217 0.481514
0.000000 0.287236 0.484230
0.000000 0.256901 0.496407
0.202182 0.222446 0.520012
0.382300 0.148592 0.550256
0.561822 0.000000 0.575799
0.735531 0.000000 0.601129
0.949584 0.000000 0.642878
0.176577 0.364965 0.507530
0.182071 0.362951 0.510826
0.193301 0.347723 0.524865
0.232639 0.294774 0.537041
0.389654 0.236484 0.562005
0.572564 0.118074 0.586175
0.755367 0.000000 0.612573
0.960449 0.000000 0.644007
0.321111 0.457343 0.532708
0.329808 0.456703 0.531212
0.339025 0.456153 0.544915
0.358923 0.443183 0.577478
0.428077 0.379828 0.603967
0.610376 0.299840 0.622431
0.804471 0.282139 0.643702
0.985962 0.268101 0.654017
0.282383 0.542504 0.598505
0.299016 0.542046 0.597406
0.359991 0.541955 0.594659
0.449073 0.545006 0.590082
0.492897 0.528374 0.597253
0.609277 0.448951 0.616876
0.809751 0.445899 0.632380
0.981933 0.452979 0.638605
0.000000 0.698482 0.689143
0.148287 0.702144 0.693050
0.275151 0.697322 0.688991
0.402045 0.687922 0.681331
0.521263 0.668727 0.664668
0.639185 0.639185 0.639185
0.834714 0.653040 0.655818
0.983795 0.665461 0.670893
0.416815 0.903807 0.791287
0.440223 0.903624 0.792020
0.496956 0.896544 0.785550
0.582208 0.881193 0.771786
0.672969 0.852079 0.748775
0.765164 0.795132 0.735561
0.856352 0.798611 0.701747
0.981933 0.811551 0.708003
0.712215 0.963561 0.827298
0.714046 0.962188 0.825559
0.730190 0.958038 0.823545
0.768215 0.950866 0.825803
0.830289 0.934020 0.836210
0.870237 0.910735 0.829892
0.919005 0.916167 0.811948
0.988403 0.911528 0.779202
0.000000 0.395514 0.687221
0.000000 0.392279 0.693477
0.000000 0.362554 0.701747
0.091524 0.319280 0.719875
0.367010 0.263767 0.738521
0.564111 0.109194 0.757595
0.751583 0.000000 0.770779
0.919188 0.000000 0.778805
0.000000 0.401740 0.671809
0.000000 0.399634 0.679438
0.000000 0.372168 0.688075
0.100465 0.324346 0.703120
0.357031 0.270298 0.720729
0.547784 0.134157 0.737484
0.729732 0.000000 0.748287
0.892760 0.000000 0.755001
0.187259 0.471656 0.691859
0.197177 0.469734 0.694484
0.197971 0.448157 0.700160
0.196506 0.389868 0.713802
0.368170 0.337591 0.726741
0.551171 0.238315 0.744442
0.745113 0.000000 0.763210
0.922210 0.000000 0.777340
0.372503 0.570092 0.712428
0.372045 0.566247 0.711666
0.380591 0.557275 0.716548
0.396399 0.534142 0.733150
0.420905 0.463355 0.748013
0.570581 0.383093 0.767300
0.768490 0.278050 0.785428
0.945892 0.264225 0.792508
0.454597 0.645472 0.732479
0.459174 0.642267 0.728298
0.492775 0.641138 0.722133
0.530541 0.641688 0.726619
0.537530 0.613123 0.746548
0.584283 0.530175 0.764736
0.767666 0.438788 0.781216
0.955657 0.459602 0.795285
0.463294 0.740352 0.793576
0.475105 0.740963 0.793698
0.516136 0.741634 0.792660
0.582940 0.742672 0.790005
0.659754 0.742275 0.782010
0.700282 0.729122 0.788144
0.797543 0.650111 0.804959
0.956909 0.662013 0.805600
0.513207 0.872648 0.864347
0.526329 0.873716 0.865568
0.559319 0.872190 0.864652
0.617853 0.869871 0.863462
0.685115 0.862882 0.858091
0.754604 0.849332 0.846586
0.815976 0.815976 0.815976
0.953582 0.824186 0.825986
0.695766 0.987427 0.922087
0.702235 0.986969 0.921996
0.731746 0.985534 0.922637
0.770718 0.981201 0.920043
0.815305 0.973205 0.913481
0.859983 0.959075 0.901427
0.906981 0.926116 0.888609
0.965545 0.926513 0.864866
0.213169 0.536370 0.846403
0.216190 0.533410 0.849058
0.194949 0.507347 0.851225
0.210636 0.460822 0.862211
0.366796 0.417365 0.873564
0.526726 0.339147 0.885710
0.706355 0.166110 0.900328
0.885985 0.000000 0.908171
0.235813 0.541650 0.839109
0.238926 0.539117 0.842039
0.224460 0.515984 0.846098
0.218326 0.466316 0.856321
0.365148 0.423041 0.867735
0.522301 0.346136 0.880003
0.699489 0.178897 0.893156
0.878050 0.000000 0.900053
0.355962 0.592432 0.838102
0.363378 0.591882 0.839811
0.347570 0.570428 0.842832
0.342473 0.533471 0.857694
0.400366 0.478401 0.867491
0.527703 0.401495 0.877562
0.697383 0.266148 0.891478
0.877897 0.000000 0.899443
0.462715 0.658534 0.836881
0.469001 0.659449 0.839170
0.482551 0.655177 0.843809
0.493019 0.637110 0.855039
0.478035 0.575891 0.868467
0.557885 0.509087 0.880797
0.703395 0.397253 0.895872
0.885588 0.258701 0.905760
0.591028 0.735744 0.833890
0.593896 0.736721 0.836210
0.591699 0.731319 0.839292
0.605249 0.727169 0.849790
0.614343 0.704677 0.862791
0.610315 0.632685 0.877073
0.711360 0.538994 0.894133
0.891508 0.436744 0.909026
0.626246 0.797818 0.869108
0.628046 0.796201 0.867338
0.642481 0.793484 0.862852
0.678614 0.794491 0.858457
0.720424 0.797971 0.859129
0.737453 0.786587 0.883024
0.769284 0.728603 0.905669
0.910979 0.654749 0.922911
0.675471 0.880797 0.918059
0.679011 0.880461 0.917632
0.694636 0.879515 0.916167
0.729152 0.880278 0.915251
0.776455 0.881712 0.913725
0.831510 0.885161 0.911467
0.862486 0.880400 0.918730
0.921416 0.816007 0.927062
0.742000 0.964202 0.958282
0.744564 0.963928 0.958099
0.758755 0.963592 0.958099
0.788418 0.963867 0.958984
0.826413 0.963500 0.959594
0.867582 0.962036 0.959258
0.907286 0.957763 0.956237
0.935088 0.935088 0.935088
