20 Preset/Travel Style 2/【3】LUT video cho PR-AE-FCPX/Travel 2 LUT (18).cube
# Created by Adobe Lightroom plugin Export LUT (1.24.0)
# www.johnrellis.com/lightroom/exportlut.htm
# Preset: 18素材江湖 - GREEN
# Color profile: E:\lut插件\exportlut.1.24\exportlut.lrplugin\color profiles\Rec709gamma2.4.icc
LUT_3D_SIZE 5
DOMAIN_MIN 0.000000 0.000000 0.000000
DOMAIN_MAX 0.903226 0.903226 0.903226
0.128298 0.158724 0.124392
0.168521 0.157931 0.128084
0.311681 0.140352 0.133486
0.567834 0.000000 0.147738
0.876890 0.000000 0.180758
0.113069 0.203830 0.128298
0.167880 0.206851 0.128908
0.341711 0.191287 0.136965
0.595453 0.109224 0.151827
0.880156 0.000000 0.184787
0.000000 0.392767 0.129763
0.000000 0.398840 0.125948
0.360174 0.408576 0.129274
0.636835 0.384009 0.154849
0.905577 0.373999 0.204990
0.000000 0.643427 0.167056
0.000000 0.642695 0.162173
0.323919 0.648646 0.162844
0.674189 0.672389 0.212680
0.912810 0.672602 0.293645
0.218540 0.863554 0.378668
0.279973 0.863218 0.375738
0.453559 0.867918 0.380713
0.709926 0.868742 0.436652
0.902495 0.875792 0.534661
0.126192 0.166049 0.167086
0.178927 0.167666 0.169162
0.348363 0.174502 0.194736
0.615503 0.101045 0.236881
0.908019 0.000000 0.271397
0.124331 0.219211 0.179843
0.182864 0.221744 0.183902
0.371679 0.212619 0.196475
0.636194 0.147433 0.219669
0.915068 0.000000 0.260746
0.000000 0.419654 0.209232
0.000000 0.422248 0.206332
0.392859 0.435767 0.213962
0.666865 0.403967 0.235203
0.915953 0.394965 0.278233
0.000000 0.655085 0.251987
0.000000 0.653590 0.247227
0.337041 0.655451 0.243046
0.683864 0.679500 0.290867
0.914855 0.676234 0.357580
0.274693 0.865324 0.429419
0.322576 0.865232 0.427192
0.456947 0.863523 0.414588
0.705562 0.865965 0.464057
0.899321 0.873503 0.556268
0.000000 0.194400 0.341802
0.165316 0.197208 0.345586
0.395453 0.195621 0.364324
0.683864 0.213931 0.398779
0.917784 0.283665 0.498817
0.036622 0.268162 0.355169
0.168948 0.259709 0.363531
0.411017 0.265263 0.382483
0.685878 0.296605 0.420478
0.911620 0.350591 0.511650
0.000000 0.457282 0.408850
0.183871 0.461006 0.414313
0.436194 0.469581 0.431861
0.694545 0.459907 0.451362
0.926207 0.455970 0.486275
0.198245 0.687098 0.481971
0.287877 0.690333 0.487953
0.427283 0.686732 0.465522
0.707912 0.699184 0.495338
0.916869 0.687068 0.537407
0.449012 0.873014 0.593805
0.467872 0.872313 0.590021
0.543053 0.870603 0.576684
0.710933 0.870634 0.585382
0.900420 0.879728 0.662715
0.000000 0.266545 0.606897
0.000000 0.268589 0.608515
0.437171 0.271916 0.623590
0.725643 0.277867 0.654383
0.945312 0.415503 0.680842
0.000000 0.338293 0.618799
0.034577 0.333196 0.623072
0.450477 0.337896 0.637171
0.734981 0.354192 0.666773
0.942870 0.480293 0.691218
0.000000 0.532677 0.637781
0.177737 0.532189 0.639307
0.455207 0.520500 0.660761
0.733486 0.540581 0.683528
0.924926 0.630243 0.721523
0.315068 0.726497 0.693782
0.380407 0.727810 0.697108
0.548913 0.728542 0.705226
0.747646 0.732692 0.722469
0.909728 0.730770 0.737728
0.605310 0.881834 0.759548
0.621973 0.881590 0.760647
0.678309 0.879301 0.761440
0.745602 0.876066 0.744503
0.902068 0.886351 0.781247
0.165530 0.427131 0.845792
0.294347 0.428779 0.846250
0.535912 0.437598 0.849332
0.769131 0.461097 0.854398
0.944060 0.519097 0.863767
0.183597 0.471748 0.844755
0.302037 0.473243 0.845365
0.535637 0.480415 0.848203
0.765133 0.500847 0.853147
0.938628 0.552850 0.862821
0.317082 0.623194 0.841855
0.387304 0.622614 0.842618
0.538476 0.606409 0.847745
0.755734 0.619532 0.852598
0.924407 0.657679 0.864286
0.447761 0.766232 0.850736
0.476112 0.764340 0.850278
0.580743 0.758785 0.849882
0.751614 0.754574 0.859709
0.913817 0.785397 0.875456
0.650477 0.895445 0.877684
0.664149 0.894957 0.877806
0.718807 0.893950 0.879423
0.805081 0.892546 0.882567
0.909117 0.895750 0.891295
