20 Preset/Travel Style 2/【3】LUT video cho PR-AE-FCPX/Travel 2 LUT (4).cube
# Created by Adobe Lightroom plugin Export LUT (1.24.0)
# www.johnrellis.com/lightroom/exportlut.htm
# Preset: 04素材江湖 - COUNTRY II
# Color profile: E:\lut插件\exportlut.1.24\exportlut.lrplugin\color profiles\Rec709gamma2.4.icc
LUT_3D_SIZE 32
DOMAIN_MIN 0.0 0.0 0.0
DOMAIN_MAX 1.0 1.0 1.0
0.126223 0.126223 0.126223
0.126467 0.126467 0.126467
0.127382 0.126375 0.126467
0.129305 0.126650 0.126650
0.132479 0.126802 0.126833
0.137881 0.126925 0.126955
0.146181 0.127108 0.127260
0.157687 0.127535 0.127443
0.171206 0.127443 0.127626
0.185000 0.127810 0.127657
0.200107 0.127901 0.127901
0.216190 0.128176 0.128023
0.233951 0.128176 0.128328
0.252720 0.128664 0.128389
0.273686 0.128634 0.128847
0.296239 0.129091 0.129000
0.321508 0.129366 0.129610
0.349706 0.130037 0.129732
0.381964 0.129976 0.130129
0.418402 0.130404 0.130220
0.458686 0.130312 0.130251
0.517967 0.129305 0.128908
0.590784 0.126314 0.126345
0.659480 0.122560 0.121889
0.722866 0.117830 0.117372
0.781949 0.112306 0.112154
0.839872 0.106355 0.105989
0.894255 0.101167 0.100710
0.946136 0.097993 0.096956
0.996490 0.098085 0.096498
1.000000 0.103761 0.102419
1.000000 0.117281 0.116579
0.126467 0.126467 0.126467
0.126467 0.126467 0.126467
0.127230 0.126650 0.126436
0.129305 0.126650 0.126650
0.132479 0.126802 0.126833
0.137331 0.127260 0.126925
0.145296 0.127504 0.127230
0.156069 0.127504 0.127504
0.169039 0.127810 0.127626
0.182620 0.127993 0.127718
0.197238 0.128237 0.127718
0.212802 0.128450 0.127871
0.230014 0.128420 0.128206
0.248356 0.128878 0.128328
0.268467 0.129244 0.128786
0.290379 0.129641 0.129030
0.314977 0.129915 0.129458
0.342809 0.130068 0.129763
0.373999 0.130709 0.130220
0.409064 0.131167 0.130251
0.447608 0.131167 0.130373
0.503441 0.130495 0.129397
0.569421 0.128664 0.127138
0.633936 0.125338 0.123568
0.694545 0.121248 0.119265
0.751705 0.116854 0.114504
0.808835 0.111482 0.109102
0.865660 0.105257 0.102571
0.920104 0.101137 0.097383
0.973144 0.099458 0.094484
1.000000 0.101442 0.097383
1.000000 0.111879 0.108034
0.126375 0.127260 0.126619
0.126375 0.127260 0.126619
0.127291 0.127138 0.126619
0.128817 0.127504 0.126528
0.131991 0.127657 0.126711
0.136873 0.128084 0.126833
0.144106 0.128450 0.127138
0.154513 0.128786 0.127352
0.166720 0.129213 0.127504
0.179965 0.129519 0.127596
0.194461 0.129580 0.127626
0.209598 0.129946 0.127779
0.226108 0.130129 0.128145
0.243992 0.130587 0.128298
0.263645 0.130983 0.128542
0.285100 0.131441 0.128847
0.309239 0.131868 0.129335
0.336126 0.132418 0.129671
0.366522 0.133028 0.130007
0.401160 0.133700 0.130159
0.439246 0.134035 0.130343
0.494911 0.133944 0.129488
0.557366 0.132845 0.127382
0.619684 0.130526 0.124147
0.677882 0.128481 0.119966
0.733822 0.124453 0.115389
0.790005 0.120760 0.109743
0.847929 0.115541 0.103120
0.904295 0.111025 0.097169
0.959014 0.109224 0.092897
1.000000 0.110201 0.093874
1.000000 0.118105 0.102571
0.126223 0.128847 0.126680
0.126680 0.128786 0.126680
0.127535 0.128695 0.126925
0.128878 0.128511 0.127199
0.131228 0.128756 0.127108
0.136355 0.129702 0.126864
0.143130 0.130343 0.126894
0.152560 0.130831 0.127138
0.164645 0.131319 0.127260
0.177493 0.131716 0.127352
0.191135 0.132235 0.127352
0.205997 0.132479 0.127565
0.221714 0.133181 0.127901
0.239170 0.133577 0.128115
0.257969 0.133883 0.128176
0.278325 0.134585 0.128786
0.300847 0.135348 0.129122
0.326116 0.136172 0.129335
0.354681 0.137118 0.129885
0.387427 0.137972 0.130037
0.423560 0.138888 0.130007
0.476722 0.139864 0.129580
0.533623 0.140291 0.127962
0.592828 0.139895 0.125093
0.652308 0.138613 0.120974
0.711513 0.136629 0.116091
0.771725 0.134035 0.110170
0.833188 0.131136 0.102632
0.893126 0.127932 0.095521
0.949950 0.126497 0.090455
1.000000 0.127993 0.089845
1.000000 0.133608 0.096559
0.126040 0.131594 0.127077
0.126497 0.131563 0.127077
0.127535 0.131197 0.127382
0.129305 0.130983 0.127626
0.131319 0.131014 0.127840
0.134554 0.130861 0.128054
0.141299 0.132082 0.127474
0.149569 0.133486 0.126833
0.160616 0.134127 0.126955
0.172610 0.134951 0.127016
0.185977 0.135348 0.127077
0.200076 0.136080 0.127260
0.215488 0.136507 0.127382
0.231998 0.137240 0.127626
0.250156 0.138125 0.128206
0.270146 0.138949 0.128328
0.292241 0.140047 0.128939
0.317021 0.141329 0.129213
0.344945 0.142672 0.129549
0.376928 0.143862 0.129824
0.414405 0.145754 0.129854
0.465278 0.148196 0.129122
0.518608 0.149905 0.127474
0.576104 0.150912 0.124697
0.636011 0.151431 0.120607
0.695705 0.151278 0.115419
0.756466 0.150301 0.109224
0.818235 0.149447 0.101289
0.879118 0.148501 0.093050
0.936645 0.148501 0.084840
0.991302 0.149691 0.081605
1.000000 0.154513 0.088472
0.125734 0.135775 0.127535
0.126192 0.135714 0.127535
0.126833 0.135409 0.127565
0.128786 0.134951 0.127871
0.131685 0.134890 0.128084
0.135439 0.134432 0.128573
0.139254 0.134218 0.129305
0.148287 0.136019 0.128054
0.158450 0.137758 0.127260
0.168917 0.138827 0.126558
0.181704 0.139590 0.126833
0.195468 0.140414 0.127016
0.210330 0.141238 0.127138
0.226566 0.142153 0.127382
0.244358 0.143191 0.127687
0.263706 0.144503 0.128084
0.285588 0.145846 0.128450
0.309819 0.147463 0.128725
0.337499 0.149477 0.129274
0.368444 0.151583 0.129274
0.410101 0.154788 0.129305
0.459266 0.158206 0.128359
0.623835 0.173892 0.118624
0.695033 0.177859 0.111971
0.761532 0.180728 0.104433
0.825101 0.182315 0.095796
0.883330 0.183474 0.088014
0.935851 0.185000 0.079469
0.984680 0.187350 0.076631
1.000000 0.190372 0.084810
1.000000 0.196048 0.098299
1.000000 0.204501 0.117769
0.123720 0.145022 0.127718
0.123903 0.144778 0.127749
0.125673 0.144198 0.127810
0.128115 0.143069 0.128206
0.132296 0.142855 0.128664
0.137972 0.142489 0.129122
0.144167 0.142428 0.129763
0.150362 0.141421 0.131289
0.162020 0.143771 0.129641
0.173220 0.145296 0.128023
0.183749 0.146120 0.126772
0.196292 0.147311 0.126406
0.211795 0.148379 0.126711
0.228214 0.149752 0.127108
0.246098 0.151095 0.127352
0.265660 0.152621 0.127657
0.287602 0.154360 0.128176
0.311925 0.156558 0.128298
0.340490 0.159030 0.128664
0.377173 0.163027 0.128542
0.430610 0.169436 0.127810
0.492134 0.176394 0.125399
0.562097 0.183841 0.121248
0.637568 0.190951 0.114382
0.711330 0.197177 0.105959
0.779629 0.201846 0.096345
0.843412 0.205173 0.083772
0.899901 0.207980 0.065003
0.952178 0.210208 0.053071
1.000000 0.212955 0.050935
1.000000 0.216983 0.068269
1.000000 0.223148 0.094606
0.121523 0.153750 0.127840
0.121675 0.153506 0.127871
0.123415 0.152956 0.128206
0.126619 0.151675 0.128359
0.131075 0.150637 0.128969
0.137362 0.150668 0.129366
0.144747 0.150484 0.129976
0.153323 0.150759 0.131014
0.160189 0.149020 0.133608
0.172457 0.151003 0.131991
0.184146 0.152438 0.129854
0.194461 0.153140 0.128115
0.203799 0.153262 0.126680
0.218692 0.154635 0.126650
0.235416 0.156344 0.126925
0.253788 0.157931 0.127321
0.273991 0.160159 0.127657
0.296788 0.162478 0.127687
0.324498 0.165805 0.128054
0.363500 0.171633 0.127749
0.410254 0.178500 0.127230
0.464759 0.186313 0.125002
0.528161 0.194919 0.121309
0.599023 0.204074 0.114870
0.670954 0.212589 0.106111
0.739010 0.219425 0.095644
0.803647 0.225071 0.080751
0.864714 0.229282 0.052155
0.921019 0.233127 0.030396
0.972869 0.236881 0.017670
1.000000 0.240787 0.022614
1.000000 0.246036 0.049805
0.119539 0.163241 0.128481
0.119539 0.163241 0.128481
0.121614 0.162539 0.128573
0.124819 0.161349 0.129000
0.129519 0.159640 0.129732
0.136355 0.159030 0.130220
0.144259 0.159213 0.131014
0.153475 0.159579 0.132021
0.163699 0.159915 0.133425
0.171206 0.157961 0.136690
0.184298 0.159884 0.136019
0.196475 0.161044 0.132753
0.207034 0.161563 0.130007
0.216312 0.161196 0.127901
0.225681 0.161074 0.126467
0.242649 0.163058 0.126894
0.261753 0.165530 0.127047
0.284489 0.168795 0.127199
0.314305 0.173495 0.127199
0.349157 0.179629 0.126955
0.390784 0.186831 0.126192
0.439765 0.195285 0.124392
0.497932 0.204898 0.120760
0.563989 0.215702 0.114748
0.633967 0.226352 0.105684
0.702174 0.235294 0.094636
0.767178 0.243198 0.074983
0.831601 0.249790 0.038819
0.891905 0.255711 0.007324
0.947601 0.260380 0.000000
0.999725 0.265202 0.000000
1.000000 0.270390 0.000000
0.116701 0.173617 0.129580
0.117433 0.173404 0.129610
0.119478 0.172763 0.129702
0.122957 0.171481 0.130129
0.128176 0.169528 0.130678
0.134096 0.167819 0.131167
0.142580 0.167971 0.131960
0.152102 0.168460 0.133150
0.162814 0.169070 0.134707
0.174380 0.169833 0.136904
0.182315 0.167697 0.141024
0.195895 0.169741 0.141848
0.208438 0.170840 0.137331
0.219638 0.170748 0.133303
0.229191 0.170291 0.130007
0.237247 0.169284 0.127504
0.251347 0.170657 0.126284
0.274693 0.175082 0.126467
0.301610 0.180056 0.126375
0.333410 0.186404 0.126131
0.370703 0.193851 0.125521
0.414282 0.202274 0.123690
0.464485 0.211795 0.120699
0.521599 0.222446 0.115480
0.584344 0.233707 0.107759
0.649256 0.244358 0.096651
0.714748 0.254154 0.079866
0.780484 0.263584 0.038941
0.847654 0.272465 0.000000
0.910491 0.280125 0.000000
0.969360 0.286931 0.000000
1.000000 0.293309 0.000000
0.114900 0.183444 0.130831
0.115816 0.183078 0.130892
0.117250 0.182650 0.130953
0.121309 0.181460 0.131411
0.126589 0.179660 0.131960
0.132815 0.177401 0.132540
0.140749 0.176944 0.133455
0.150484 0.177707 0.134798
0.161440 0.178592 0.136294
0.173800 0.179843 0.138796
0.186313 0.181430 0.141573
0.195071 0.179294 0.145937
0.210483 0.181796 0.148867
0.223850 0.182864 0.143221
0.237308 0.183841 0.138399
0.249058 0.183688 0.133608
0.258701 0.182681 0.129854
0.266300 0.181155 0.126406
0.285527 0.184237 0.125643
0.313787 0.190372 0.125277
0.347234 0.197757 0.124941
0.386236 0.206332 0.123232
0.431983 0.216556 0.120394
0.484962 0.228000 0.115572
0.544305 0.240360 0.108309
0.608728 0.253300 0.097139
0.674617 0.265599 0.078370
0.742367 0.277501 0.033112
0.812497 0.288975 0.000000
0.880522 0.299657 0.000000
0.943969 0.308782 0.000000
1.000000 0.316869 0.000000
0.112673 0.195041 0.132509
0.112886 0.194888 0.132540
0.114992 0.194339 0.132876
0.118959 0.193362 0.133272
0.124361 0.191440 0.133639
0.131472 0.189029 0.134279
0.138766 0.186984 0.135317
0.149081 0.187991 0.136782
0.160433 0.189212 0.138399
0.173068 0.190951 0.140719
0.186893 0.192844 0.143313
0.202579 0.196323 0.146944
0.233341 0.211521 0.158541
0.259373 0.218662 0.166110
0.277745 0.220493 0.156710
0.292821 0.220279 0.148104
0.304448 0.218173 0.140261
0.313054 0.214694 0.133486
0.318883 0.210727 0.127840
0.322850 0.206332 0.123140
0.360357 0.216403 0.121309
0.405280 0.228519 0.118379
0.457038 0.242191 0.113008
0.515740 0.257298 0.104677
0.580529 0.273320 0.091310
0.647517 0.288670 0.056733
0.713649 0.302586 0.008667
0.779904 0.315373 0.000000
0.846281 0.327367 0.000000
0.908782 0.337469 0.000000
0.967193 0.346227 0.000000
1.000000 0.354376 0.000000
0.108003 0.214084 0.135714
0.108431 0.213809 0.135775
0.110872 0.212955 0.135744
0.115724 0.211307 0.136080
0.122194 0.208927 0.136568
0.129793 0.205844 0.137179
0.138277 0.202335 0.138064
0.148714 0.202823 0.139376
0.161685 0.205539 0.141451
0.176608 0.209476 0.144198
0.193851 0.214450 0.147372
0.213931 0.221012 0.151736
0.237461 0.228916 0.157168
0.257939 0.232914 0.164981
0.290654 0.243137 0.177188
0.309545 0.244297 0.165164
0.323674 0.242496 0.154177
0.333837 0.238865 0.144686
0.340917 0.234073 0.136446
0.345373 0.228672 0.129793
0.348333 0.223026 0.123903
0.359960 0.222110 0.119814
0.404517 0.235142 0.116121
0.456855 0.250126 0.109743
0.516197 0.266789 0.099397
0.582055 0.284611 0.079896
0.650629 0.302098 0.028717
0.720943 0.318761 0.000000
0.793149 0.334966 0.000000
0.864927 0.350134 0.000000
0.931029 0.362799 0.000000
0.992889 0.373724 0.000000
0.100221 0.232395 0.137758
0.100649 0.232151 0.137819
0.104280 0.230869 0.137911
0.109743 0.229313 0.138277
0.117433 0.226658 0.138888
0.126772 0.223270 0.139406
0.136080 0.219394 0.140230
0.146090 0.216190 0.141512
0.159518 0.218906 0.143252
0.174502 0.222782 0.145693
0.192233 0.228031 0.148653
0.212711 0.234836 0.152377
0.236301 0.243320 0.157076
0.263340 0.253117 0.162783
0.286778 0.258091 0.171054
0.321904 0.268284 0.183719
0.343297 0.269780 0.173342
0.355962 0.266392 0.160037
0.365332 0.261265 0.148684
0.371496 0.255314 0.139010
0.375677 0.249119 0.131014
0.378729 0.242985 0.124208
0.381170 0.237400 0.118349
0.407630 0.242863 0.112825
0.461830 0.259922 0.104860
0.523827 0.278874 0.091402
0.593072 0.299413 0.048951
0.665888 0.319768 0.000000
0.741115 0.339757 0.000000
0.819791 0.359838 0.000000
0.894285 0.377295 0.000000
0.963439 0.392157 0.000000
0.086671 0.252995 0.139254
0.087129 0.252903 0.139284
0.091707 0.251469 0.139437
0.099794 0.249119 0.139834
0.109529 0.245701 0.140291
0.120790 0.241459 0.140902
0.132052 0.236728 0.141848
0.142947 0.231693 0.143008
0.155856 0.231785 0.144472
0.171420 0.235904 0.146517
0.189151 0.241520 0.149264
0.210117 0.248844 0.152682
0.233921 0.257786 0.156893
0.261173 0.268009 0.161746
0.291508 0.279362 0.167483
0.317693 0.284825 0.176059
0.354070 0.294713 0.189273
0.380591 0.298222 0.182040
0.392737 0.293431 0.166262
0.401129 0.287053 0.152743
0.407172 0.280247 0.141268
0.411872 0.273472 0.131411
0.415412 0.266850 0.122835
0.418677 0.260868 0.115419
0.422034 0.255558 0.108553
0.468879 0.270176 0.098390
0.535454 0.292576 0.072450
0.611383 0.317327 0.003845
0.692653 0.342657 0.000000
0.778683 0.368505 0.000000
0.865812 0.393133 0.000000
0.945220 0.413764 0.000000
0.044190 0.272618 0.139681
0.046174 0.272587 0.139651
0.058686 0.271397 0.140017
0.080018 0.269383 0.140383
0.096559 0.266178 0.140871
0.111543 0.261967 0.141817
0.124971 0.257420 0.142824
0.138552 0.252140 0.144198
0.151431 0.247593 0.145480
0.167910 0.252354 0.147646
0.186435 0.258244 0.149905
0.207767 0.265324 0.152804
0.231327 0.273655 0.156191
0.257633 0.283055 0.160372
0.286687 0.293400 0.165042
0.318517 0.304417 0.170779
0.346349 0.310277 0.179629
0.382971 0.319219 0.193271
0.417365 0.326696 0.191073
0.429938 0.321263 0.172335
0.439857 0.315160 0.156374
0.447822 0.308598 0.142458
0.454170 0.301976 0.130251
0.459937 0.295842 0.119142
0.465644 0.290349 0.108919
0.472328 0.285863 0.098482
0.484901 0.284947 0.086244
0.560632 0.312749 0.023407
0.645716 0.342962 0.000000
0.735439 0.373358 0.000000
0.828489 0.403388 0.000000
0.914794 0.428870 0.000000
0.000000 0.293004 0.138949
0.000000 0.292729 0.139040
0.000000 0.291569 0.139437
0.023987 0.289616 0.139834
0.062348 0.286473 0.140627
0.095552 0.282200 0.141512
0.114473 0.277226 0.143008
0.131014 0.271458 0.144228
0.145968 0.265080 0.145785
0.161959 0.265324 0.147524
0.180941 0.271489 0.149599
0.202152 0.278874 0.152102
0.225956 0.287663 0.155001
0.252445 0.297551 0.158511
0.281712 0.308263 0.162539
0.313664 0.319799 0.167483
0.348455 0.332189 0.173312
0.379706 0.339666 0.182956
0.417853 0.348730 0.197940
0.462165 0.361578 0.202182
0.475929 0.355779 0.179446
0.487526 0.349523 0.159762
0.497230 0.343053 0.142367
0.505669 0.336736 0.126436
0.514000 0.331090 0.111086
0.523247 0.326696 0.095125
0.535027 0.324163 0.067781
0.550988 0.324285 0.022370
0.595514 0.338415 0.000000
0.691218 0.374914 0.000000
0.792172 0.411810 0.000000
0.888212 0.444373 0.000000
0.000000 0.318578 0.136934
0.000000 0.318608 0.136904
0.000000 0.347967 0.133639
0.000000 0.345312 0.134585
0.000000 0.341283 0.135897
0.000000 0.335363 0.137697
0.056245 0.328161 0.139925
0.109285 0.319951 0.142428
0.135714 0.311009 0.145022
0.156466 0.302220 0.147524
0.180545 0.310246 0.149050
0.206516 0.319890 0.151095
0.234958 0.330266 0.153658
0.265934 0.341711 0.156649
0.299321 0.353796 0.160311
0.335088 0.366522 0.164828
0.373297 0.379461 0.170535
0.413794 0.393164 0.177462
0.449805 0.401099 0.189761
0.489662 0.408026 0.208652
0.546899 0.426520 0.223606
0.559594 0.417304 0.191714
0.570001 0.407965 0.164065
0.578607 0.398810 0.138643
0.585748 0.389929 0.114534
0.593469 0.382483 0.089235
0.603143 0.376959 0.030671
0.617334 0.374609 0.000000
0.638727 0.376715 0.000000
0.669947 0.384405 0.000000
0.750423 0.415198 0.000000
0.856992 0.455940 0.000000
0.000000 0.356329 0.131197
0.000000 0.359136 0.130922
0.000000 0.361395 0.130678
0.000000 0.362036 0.131228
0.000000 0.360235 0.132265
0.000000 0.355566 0.134188
0.000000 0.348791 0.136324
0.077852 0.340429 0.139284
0.119448 0.331029 0.142214
0.145510 0.320806 0.145022
0.168673 0.320012 0.147219
0.194400 0.329198 0.148775
0.222568 0.339452 0.150942
0.252781 0.350622 0.153231
0.285496 0.362768 0.156130
0.320684 0.375799 0.160067
0.358434 0.389593 0.164523
0.399298 0.404608 0.170382
0.443946 0.421149 0.178164
0.484627 0.432563 0.191470
0.525597 0.439826 0.212802
0.595727 0.466773 0.242832
0.610864 0.457771 0.205661
0.623133 0.448371 0.171847
0.633021 0.438849 0.139681
0.642756 0.430426 0.106874
0.653834 0.423957 0.044343
0.668513 0.420386 0.000000
0.689998 0.421393 0.000000
0.720760 0.428046 0.000000
0.763088 0.441077 0.000000
0.817929 0.460761 0.000000
0.000000 0.380560 0.125429
0.000000 0.383825 0.124697
0.000000 0.386572 0.123995
0.000000 0.387701 0.124208
0.000000 0.386236 0.125490
0.000000 0.381933 0.127596
0.000000 0.375036 0.130556
0.000000 0.366491 0.133944
0.090242 0.356939 0.137301
0.129366 0.345983 0.141054
0.155398 0.334447 0.144503
0.183017 0.343542 0.145876
0.211795 0.353826 0.147219
0.242496 0.365393 0.149203
0.275547 0.377905 0.151369
0.310918 0.391394 0.154391
0.348974 0.405890 0.158175
0.389715 0.421332 0.163088
0.434089 0.438300 0.169589
0.482490 0.457191 0.178164
0.526879 0.470619 0.193790
0.567041 0.476600 0.218967
0.638972 0.504692 0.255436
0.664027 0.500786 0.225772
0.677607 0.490944 0.185519
0.689845 0.481453 0.145663
0.702663 0.473884 0.101289
0.718654 0.469337 0.000000
0.740658 0.469245 0.000000
0.771054 0.474617 0.000000
0.810727 0.485573 0.000000
0.859159 0.501518 0.000000
0.000000 0.409644 0.115389
0.000000 0.413092 0.114229
0.000000 0.415686 0.113619
0.000000 0.416693 0.113558
0.000000 0.415534 0.114839
0.000000 0.411200 0.117861
0.000000 0.404273 0.121340
0.000000 0.395819 0.125277
0.000000 0.385962 0.129702
0.100618 0.374701 0.134493
0.139590 0.362554 0.139040
0.168917 0.360449 0.141543
0.199619 0.370886 0.142550
0.231724 0.382727 0.143893
0.265629 0.395789 0.145296
0.302190 0.410315 0.147433
0.341955 0.426795 0.150423
0.385412 0.445197 0.154025
0.433082 0.465888 0.159731
0.485512 0.488838 0.167880
0.542412 0.513359 0.180392
0.594995 0.532036 0.203159
0.638025 0.538689 0.237430
0.713313 0.569055 0.287114
0.751156 0.572412 0.271397
0.770108 0.563195 0.222293
0.788632 0.555352 0.172274
0.809110 0.550317 0.113985
0.834195 0.549493 0.000000
0.865049 0.553033 0.000000
0.902403 0.561242 0.000000
0.946136 0.573480 0.000000
0.000000 0.470558 0.078370
0.000000 0.472023 0.075624
0.000000 0.472236 0.075624
0.000000 0.470771 0.080018
0.000000 0.466651 0.086122
0.000000 0.460365 0.092561
0.000000 0.452491 0.099153
0.000000 0.442878 0.106142
0.000000 0.432380 0.113100
0.000000 0.420294 0.120058
0.106172 0.407660 0.126802
0.150332 0.393194 0.133394
0.187137 0.403449 0.133852
0.223667 0.416266 0.134005
0.261601 0.430213 0.134798
0.301122 0.445502 0.135897
0.342992 0.462318 0.137819
0.388006 0.480751 0.141238
0.435889 0.500389 0.146883
0.487037 0.521263 0.155459
0.541161 0.543084 0.168612
0.598291 0.565942 0.187167
0.649744 0.582269 0.215396
0.689754 0.585534 0.254337
0.757198 0.610101 0.309514
0.799435 0.616602 0.312932
0.820920 0.607965 0.261845
0.843381 0.601526 0.211673
0.868559 0.598535 0.158511
0.897704 0.599298 0.085817
0.931548 0.604181 0.000000
0.970367 0.612879 0.000000
0.000000 0.511528 0.000000
0.000000 0.513146 0.000000
0.000000 0.513268 0.000000
0.000000 0.511772 0.000000
0.000000 0.508354 0.000000
0.000000 0.502403 0.015991
0.000000 0.494545 0.036866
0.000000 0.485176 0.062379
0.000000 0.474922 0.085389
0.000000 0.462837 0.097688
0.000000 0.449653 0.107820
0.118959 0.434943 0.117311
0.166506 0.431342 0.122225
0.209140 0.444953 0.121370
0.250950 0.459937 0.120851
0.293462 0.476356 0.120668
0.338201 0.494240 0.121798
0.384802 0.513207 0.124483
0.434272 0.533318 0.130251
0.486427 0.554376 0.140047
0.541283 0.576440 0.154879
0.598840 0.599268 0.175296
0.658228 0.622492 0.201266
0.711391 0.639246 0.236790
0.731014 0.623896 0.269535
0.789822 0.642542 0.329381
0.836423 0.653895 0.356573
0.860838 0.646540 0.306462
0.886625 0.641779 0.258854
0.915251 0.640497 0.213474
0.947845 0.643366 0.169070
0.984192 0.649866 0.122316
0.000000 0.577142 0.000000
0.000000 0.580011 0.000000
0.000000 0.580377 0.000000
0.000000 0.577569 0.000000
0.000000 0.572045 0.000000
0.000000 0.563775 0.000000
0.000000 0.553674 0.000000
0.000000 0.541833 0.000000
0.000000 0.528283 0.000000
0.000000 0.514061 0.007721
0.000000 0.498116 0.050446
0.000000 0.481361 0.088136
0.134829 0.462928 0.104402
0.187808 0.471839 0.104433
0.233829 0.484291 0.103395
0.278355 0.497993 0.102785
0.323003 0.513237 0.103365
0.369116 0.530327 0.105928
0.417884 0.549584 0.110933
0.469886 0.570855 0.120638
0.524804 0.593408 0.135439
0.581689 0.616236 0.155978
0.639551 0.638392 0.181735
0.696803 0.658991 0.212100
0.745327 0.671229 0.250065
0.777737 0.668177 0.296971
0.826902 0.680171 0.360143
0.872892 0.693935 0.411505
0.898711 0.686671 0.361700
0.926421 0.682765 0.317876
0.957031 0.682582 0.280430
0.990723 0.686397 0.250797
0.000000 0.615503 0.000000
0.000000 0.618372 0.000000
0.000000 0.619196 0.000000
0.000000 0.617700 0.000000
0.000000 0.613855 0.000000
0.000000 0.608362 0.000000
0.000000 0.601129 0.000000
0.000000 0.592645 0.000000
0.000000 0.582849 0.000000
0.000000 0.571923 0.000000
0.000000 0.558648 0.000000
0.000000 0.544030 0.000000
0.009277 0.526909 0.000732
0.154879 0.519921 0.031128
0.217166 0.532097 0.025818
0.269230 0.545068 0.025727
0.318944 0.559228 0.028016
0.368292 0.575097 0.038056
0.419287 0.593317 0.058656
0.472694 0.613519 0.089906
0.528313 0.635187 0.112734
0.585931 0.657404 0.140658
0.643549 0.678370 0.173526
0.700374 0.697536 0.210025
0.755245 0.714778 0.248966
0.801541 0.724941 0.293614
0.831083 0.720241 0.346197
0.871733 0.727901 0.414343
0.914916 0.745144 0.491005
0.942931 0.740322 0.450080
0.972503 0.738216 0.415564
1.000000 0.739528 0.390082
0.000000 0.676875 0.000000
0.000000 0.678340 0.000000
0.000000 0.678126 0.000000
0.000000 0.676204 0.000000
0.000000 0.672175 0.000000
0.000000 0.666682 0.000000
0.000000 0.659693 0.000000
0.000000 0.651240 0.000000
0.000000 0.641810 0.000000
0.000000 0.631159 0.000000
0.000000 0.618738 0.000000
0.000000 0.605432 0.000000
0.000000 0.589990 0.000000
0.082826 0.571862 0.000000
0.187137 0.578973 0.000000
0.252537 0.590906 0.000000
0.308812 0.603967 0.000000
0.362432 0.618708 0.000000
0.416236 0.635798 0.000000
0.471290 0.655055 0.000000
0.527611 0.675257 0.073884
0.584405 0.694759 0.123781
0.640558 0.712856 0.164920
0.695735 0.729488 0.206119
0.748989 0.744350 0.247471
0.799832 0.757748 0.289921
0.842679 0.765530 0.336522
0.868040 0.758755 0.389715
0.901976 0.762570 0.456062
0.940368 0.779446 0.536706
0.969879 0.780362 0.521294
0.999725 0.780911 0.497414
0.000000 0.730861 0.000000
0.000000 0.732082 0.000000
0.000000 0.732479 0.000000
0.000000 0.731380 0.000000
0.000000 0.729671 0.000000
0.000000 0.727657 0.000000
0.000000 0.726253 0.000000
0.000000 0.724727 0.000000
0.000000 0.723140 0.000000
0.000000 0.721462 0.000000
0.000000 0.718898 0.000000
0.000000 0.714595 0.000000
0.000000 0.708125 0.000000
0.000000 0.698573 0.000000
0.136782 0.694759 0.000000
0.247990 0.706600 0.000000
0.323949 0.717983 0.000000
0.389990 0.729854 0.000000
0.451575 0.743008 0.000000
0.511345 0.756832 0.048737
0.569909 0.770932 0.138094
0.627192 0.784543 0.189700
0.682429 0.796841 0.236606
0.735317 0.807889 0.282139
0.785458 0.817624 0.326879
0.832547 0.826352 0.371679
0.876249 0.834409 0.415381
0.912108 0.838041 0.459846
0.930602 0.828885 0.507774
0.953094 0.828244 0.567864
0.979309 0.842405 0.644556
1.000000 0.847990 0.654810
0.000000 0.826688 0.000000
0.000000 0.826658 0.000000
0.000000 0.825803 0.000000
0.000000 0.824063 0.000000
0.000000 0.821622 0.000000
0.000000 0.818509 0.000000
0.000000 0.815000 0.000000
0.000000 0.810971 0.000000
0.000000 0.806516 0.000000
0.000000 0.801541 0.000000
0.000000 0.796078 0.000000
0.000000 0.789731 0.000000
0.000000 0.782101 0.000000
0.000000 0.772763 0.000000
