20 Preset/Travel Style 2/【3】LUT video cho PR-AE-FCPX/Travel 2 LUT (18).cube
# Created by Adobe Lightroom plugin Export LUT (1.24.0)
# www.johnrellis.com/lightroom/exportlut.htm
# Preset: 18素材江湖 - GREEN
# Color profile: E:\lut插件\exportlut.1.24\exportlut.lrplugin\color profiles\Rec709gamma2.4.icc
LUT_3D_SIZE 32
DOMAIN_MIN 0.0 0.0 0.0
DOMAIN_MAX 1.0 1.0 1.0
0.128298 0.158724 0.124392
0.128298 0.158724 0.124392
0.128298 0.158724 0.124392
0.131380 0.158450 0.124666
0.138125 0.158602 0.125826
0.147127 0.158450 0.126955
0.157473 0.158297 0.127535
0.168521 0.157931 0.128084
0.181064 0.157443 0.128847
0.195438 0.156710 0.129763
0.212497 0.155062 0.130190
0.232731 0.152834 0.130770
0.255619 0.150027 0.131685
0.282170 0.145846 0.132448
0.311681 0.140352 0.133486
0.343694 0.132509 0.134585
0.378424 0.121614 0.136416
0.414618 0.105715 0.138491
0.451942 0.076997 0.140566
0.489845 0.000000 0.142672
0.528435 0.000000 0.145113
0.567834 0.000000 0.147738
0.608667 0.000000 0.150362
0.651667 0.000000 0.153994
0.696681 0.000000 0.157443
0.743008 0.000000 0.162020
0.789517 0.000000 0.167422
0.834195 0.000000 0.173373
0.876890 0.000000 0.180758
0.917144 0.000000 0.188754
0.954101 0.000000 0.198428
0.987243 0.000000 0.208743
0.128298 0.158724 0.124392
0.128298 0.158724 0.124392
0.128298 0.158724 0.124392
0.131685 0.158633 0.124636
0.138979 0.158511 0.125826
0.148013 0.158389 0.126436
0.158450 0.158389 0.127230
0.169955 0.157961 0.128023
0.182956 0.157382 0.128511
0.198032 0.156313 0.129244
0.215518 0.154940 0.129854
0.236027 0.152743 0.130892
0.259831 0.149844 0.131746
0.286961 0.145541 0.132723
0.317082 0.139376 0.133516
0.349371 0.131258 0.135073
0.384436 0.119875 0.136812
0.420813 0.102907 0.138888
0.458564 0.065736 0.140902
0.497078 0.000000 0.143099
0.536187 0.000000 0.145510
0.576287 0.000000 0.148257
0.617578 0.000000 0.151186
0.661097 0.000000 0.154665
0.706355 0.000000 0.158785
0.752895 0.000000 0.163180
0.798856 0.000000 0.168582
0.843046 0.000000 0.175265
0.884977 0.000000 0.182650
0.924468 0.000000 0.190890
0.960479 0.000000 0.200626
0.992767 0.000000 0.211246
0.128267 0.159304 0.124300
0.128267 0.159304 0.124300
0.129030 0.159426 0.124239
0.133089 0.159457 0.124422
0.140658 0.159518 0.125063
0.149416 0.159579 0.125643
0.160311 0.159152 0.126497
0.171847 0.158907 0.127291
0.184817 0.158480 0.127993
0.199954 0.157778 0.128908
0.217990 0.156466 0.129732
0.239109 0.154330 0.130739
0.263188 0.151278 0.131594
0.290990 0.146944 0.132509
0.321538 0.140719 0.133761
0.354437 0.132479 0.135256
0.389624 0.121096 0.137209
0.426123 0.104189 0.139223
0.463996 0.068757 0.141176
0.502373 0.000000 0.143343
0.541619 0.000000 0.146120
0.581567 0.000000 0.148775
0.622919 0.000000 0.151736
0.666560 0.000000 0.155276
0.712032 0.000000 0.159274
0.758572 0.000000 0.164157
0.804257 0.000000 0.169589
0.847959 0.000000 0.176303
0.889555 0.000000 0.183688
0.928679 0.000000 0.192264
0.964080 0.000000 0.202121
0.996033 0.000000 0.213230
0.126009 0.163973 0.123964
0.126314 0.164126 0.123934
0.127993 0.164187 0.123873
0.132662 0.164523 0.123995
0.140932 0.164157 0.124697
0.150454 0.163577 0.125399
0.161410 0.162966 0.126009
0.172854 0.162722 0.126772
0.186313 0.162051 0.127810
0.202029 0.161227 0.128725
0.220706 0.159823 0.129549
0.242557 0.157717 0.130495
0.267582 0.154849 0.131258
0.295872 0.150546 0.132631
0.327276 0.144442 0.134035
0.360754 0.136416 0.135927
0.396826 0.124880 0.137789
0.434485 0.108217 0.139895
0.473243 0.077790 0.142000
0.512566 0.000000 0.144442
0.552422 0.000000 0.146853
0.592676 0.000000 0.149599
0.633692 0.000000 0.152590
0.676417 0.000000 0.156313
0.720516 0.000000 0.160403
0.765499 0.000000 0.165194
0.809506 0.000000 0.170932
0.851804 0.000000 0.177401
0.892393 0.000000 0.184573
0.930938 0.000000 0.193179
0.966247 0.000000 0.203555
0.998444 0.000000 0.214786
0.123568 0.172091 0.124239
0.123781 0.172244 0.124453
0.125521 0.172274 0.124422
0.130770 0.172580 0.124514
0.139437 0.172549 0.124605
0.150668 0.172213 0.125216
0.162295 0.170535 0.126070
0.175265 0.169070 0.126772
0.189639 0.168124 0.127810
0.206424 0.167147 0.128725
0.225956 0.165743 0.129488
0.248692 0.163607 0.130892
0.274723 0.160830 0.131838
0.303624 0.156710 0.133364
0.334997 0.151247 0.134890
0.368933 0.143343 0.136477
0.404303 0.132998 0.138491
0.441596 0.117647 0.140322
0.479866 0.095064 0.142580
0.519127 0.025696 0.144991
0.559014 0.000000 0.147463
0.599145 0.000000 0.150515
0.640040 0.000000 0.153597
0.682277 0.000000 0.157168
0.725734 0.000000 0.161349
0.770108 0.000000 0.166354
0.813474 0.000000 0.171969
0.855253 0.000000 0.178470
0.895720 0.000000 0.186160
0.934051 0.000000 0.194797
0.969085 0.000000 0.205051
1.000000 0.000000 0.216861
0.120912 0.182071 0.125582
0.121340 0.182040 0.125826
0.122927 0.182254 0.125765
0.127169 0.182437 0.125643
0.135805 0.182773 0.125917
0.147616 0.182773 0.125917
0.161685 0.182620 0.126650
0.175967 0.180179 0.127291
0.191775 0.177493 0.128420
0.209506 0.175937 0.129397
0.229862 0.174411 0.130404
0.253361 0.172732 0.131441
0.279637 0.170138 0.132570
0.308721 0.166659 0.133974
0.340429 0.161532 0.135714
0.373816 0.154726 0.137423
0.409033 0.145510 0.139162
0.445899 0.132845 0.141360
0.483955 0.114961 0.143282
0.522545 0.088014 0.145632
0.562036 0.000000 0.148470
0.601862 0.000000 0.151186
0.597223 0.000000 0.150820
0.638880 0.000000 0.153964
0.682704 0.000000 0.157351
0.727810 0.000000 0.161685
0.773922 0.000000 0.166537
0.818875 0.000000 0.172274
0.862242 0.000000 0.178988
0.903838 0.000000 0.187167
0.943084 0.000000 0.196262
0.978973 0.000000 0.207248
0.118502 0.190280 0.126864
0.119020 0.190249 0.126864
0.120180 0.190494 0.126802
0.123568 0.190738 0.126680
0.130831 0.191165 0.126680
0.141848 0.191409 0.126925
0.154879 0.191836 0.127291
0.171359 0.192416 0.127749
0.187289 0.189883 0.128664
0.204929 0.187137 0.129671
0.224765 0.184390 0.130800
0.246952 0.183169 0.131838
0.272343 0.181430 0.133181
0.300664 0.178836 0.134554
0.331670 0.175021 0.135988
0.365026 0.169711 0.137667
0.400183 0.162692 0.139315
0.436652 0.153140 0.141238
0.473762 0.140597 0.143404
0.510979 0.123781 0.145571
0.547784 0.100404 0.147738
0.583734 0.035523 0.150423
0.619928 0.000000 0.152987
0.657832 0.000000 0.155947
0.698024 0.000000 0.159548
0.740871 0.000000 0.163821
0.785550 0.000000 0.168643
0.829465 0.000000 0.174777
0.872068 0.000000 0.181918
0.913207 0.000000 0.190372
0.951324 0.000000 0.200198
0.986084 0.000000 0.211826
0.113069 0.203830 0.128298
0.113588 0.203799 0.128298
0.114961 0.204288 0.128145
0.118502 0.204501 0.128298
0.124849 0.204959 0.128054
0.136416 0.205600 0.128450
0.151034 0.206180 0.128481
0.167880 0.206851 0.128908
0.188235 0.208927 0.129274
0.208103 0.206271 0.130282
0.229984 0.203159 0.131716
0.253971 0.199924 0.132906
0.280797 0.196841 0.134218
0.309941 0.194553 0.135470
0.341711 0.191287 0.136965
0.375494 0.186862 0.138674
0.411170 0.180789 0.140383
0.447761 0.172885 0.142123
0.485206 0.162631 0.144503
0.522515 0.149111 0.146731
0.559289 0.131960 0.149203
0.595453 0.109224 0.151827
0.631647 0.058778 0.154421
0.669245 0.000000 0.157748
0.709316 0.000000 0.161440
0.752010 0.000000 0.165713
0.795468 0.000000 0.171054
0.838499 0.000000 0.177005
0.880156 0.000000 0.184787
0.920317 0.000000 0.193576
0.957336 0.000000 0.203769
0.991089 0.000000 0.215824
0.103914 0.221225 0.130373
0.104799 0.221073 0.130159
0.106538 0.221378 0.130037
0.110353 0.221683 0.129885
0.116670 0.222477 0.129824
0.128573 0.223331 0.129885
0.144961 0.224186 0.130037
0.163973 0.225010 0.130343
0.184726 0.226200 0.130678
0.210391 0.229709 0.130495
0.234012 0.226780 0.131685
0.259831 0.223453 0.132906
0.287846 0.219394 0.134493
0.317998 0.214450 0.136172
0.350164 0.211185 0.137636
0.384222 0.207645 0.139406
0.420020 0.202762 0.141146
0.456886 0.196201 0.143404
0.494118 0.187991 0.145418
0.531579 0.177737 0.147829
0.568170 0.165438 0.150271
0.604273 0.149660 0.153231
0.640803 0.129763 0.155978
0.678706 0.102052 0.159396
0.718624 0.020966 0.163272
0.760830 0.000000 0.167727
0.803464 0.000000 0.173037
0.845579 0.000000 0.179477
0.886503 0.000000 0.187472
0.925719 0.000000 0.196353
0.961791 0.000000 0.207401
0.994690 0.000000 0.219486
0.084718 0.242710 0.131441
0.086305 0.242893 0.131350
0.088838 0.243259 0.131228
0.094240 0.243839 0.131228
0.102693 0.244511 0.130892
0.114260 0.245548 0.130373
0.134981 0.246921 0.130556
0.156832 0.248631 0.130770
0.181186 0.250065 0.131106
0.207187 0.251560 0.131258
0.238865 0.256992 0.130587
0.267124 0.253635 0.131899
0.296574 0.249729 0.133761
0.327764 0.244633 0.135378
0.360235 0.238590 0.137728
0.393774 0.231815 0.140047
0.428687 0.227787 0.141726
0.464729 0.222446 0.143893
0.501488 0.215732 0.146029
0.538598 0.207767 0.148745
0.575586 0.198489 0.151186
0.612634 0.187167 0.154177
0.650568 0.174441 0.157412
0.690242 0.158175 0.161288
0.731136 0.139834 0.165560
0.773434 0.115663 0.170016
0.815091 0.082094 0.176272
0.855955 0.000000 0.183200
0.895598 0.000000 0.191165
0.933013 0.000000 0.200717
0.967224 0.000000 0.211643
0.998596 0.000000 0.224582
0.002502 0.270939 0.131807
0.004791 0.270909 0.131563
0.012604 0.271122 0.131441
0.029175 0.271580 0.131441
0.058534 0.272129 0.131106
0.089540 0.273045 0.130587
0.116060 0.274083 0.130343
0.144320 0.275700 0.130434
0.172885 0.277379 0.130800
0.202762 0.279026 0.130709
0.233951 0.280674 0.131106
0.271305 0.287358 0.129854
0.302953 0.284001 0.131411
0.335119 0.278965 0.133700
0.368475 0.273228 0.136019
0.402564 0.266331 0.138674
0.437354 0.258244 0.141604
0.473243 0.251469 0.144167
0.509850 0.246372 0.146731
0.547051 0.240238 0.149203
0.584131 0.232822 0.152102
0.621302 0.224796 0.155550
0.659510 0.215488 0.158724
0.698817 0.205753 0.162875
0.739773 0.194797 0.167147
0.781186 0.183658 0.172335
0.822080 0.172915 0.178744
0.862089 0.162142 0.185946
0.900847 0.153689 0.194308
0.937072 0.149752 0.204410
0.970275 0.151980 0.215671
1.000000 0.160678 0.229313
0.000000 0.300725 0.131319
0.000000 0.300633 0.131350
0.000000 0.300786 0.130983
0.000000 0.301061 0.131044
0.000000 0.301427 0.130495
0.000000 0.302159 0.129976
0.069520 0.302800 0.129397
0.121706 0.304356 0.129366
0.158724 0.305943 0.129885
0.193362 0.307713 0.130098
0.227695 0.309606 0.129976
0.263035 0.311650 0.130404
0.285740 0.302434 0.129244
0.318151 0.300389 0.131136
0.350622 0.295903 0.133211
0.384100 0.290715 0.136049
0.418616 0.284489 0.138735
0.453498 0.277256 0.141451
0.488746 0.268528 0.144747
0.525017 0.263432 0.147524
0.561669 0.258457 0.150118
0.598840 0.252689 0.153384
0.637934 0.246494 0.156924
0.678187 0.240085 0.160464
0.720119 0.233494 0.164858
0.763302 0.227298 0.169986
0.806058 0.221927 0.175753
0.848173 0.217288 0.183291
0.888975 0.214298 0.191958
0.927153 0.214267 0.201907
0.962066 0.217624 0.213626
0.993652 0.225223 0.227604
0.000000 0.321813 0.130922
0.000000 0.322087 0.131044
0.000000 0.322454 0.130556
0.000000 0.323186 0.130373
0.000000 0.324346 0.129976
0.000000 0.325628 0.129641
0.000000 0.326818 0.128786
0.079713 0.328588 0.128695
0.135195 0.330205 0.128603
0.176211 0.331670 0.128878
0.213382 0.332860 0.129030
0.249210 0.333837 0.129519
0.285252 0.334508 0.130068
0.327520 0.341375 0.127291
0.362005 0.338598 0.129732
0.396307 0.332586 0.133089
0.431373 0.326635 0.136263
0.467109 0.320012 0.140047
0.503105 0.312444 0.143587
0.539300 0.303441 0.147463
0.575372 0.294804 0.151156
0.613001 0.290562 0.154604
0.652064 0.286687 0.158328
0.692287 0.282628 0.162509
0.733822 0.279362 0.167208
0.775784 0.276310 0.172854
0.817044 0.274174 0.179110
0.857481 0.273228 0.186954
0.896513 0.273747 0.196017
0.932830 0.276036 0.206668
0.966125 0.280583 0.219181
0.996460 0.287816 0.234226
0.000000 0.356909 0.130220
0.000000 0.357214 0.130037
0.000000 0.357733 0.129976
0.000000 0.358709 0.129854
0.000000 0.359930 0.129274
0.000000 0.361181 0.128603
0.000000 0.362371 0.127871
0.000000 0.363256 0.126619
0.095857 0.365179 0.126955
0.154696 0.366766 0.127230
0.200870 0.367895 0.127230
0.242649 0.368811 0.128054
0.282261 0.369757 0.128267
0.321263 0.371038 0.129366
0.366857 0.378180 0.126680
0.406256 0.378027 0.128939
0.442512 0.372107 0.133303
0.479133 0.365545 0.137301
0.515831 0.358587 0.141756
0.552239 0.350835 0.146090
0.588495 0.341955 0.150912
0.625025 0.332677 0.155703
0.663416 0.327031 0.159884
0.703334 0.325078 0.164523
0.744137 0.323705 0.169406
0.784909 0.322789 0.175174
0.824979 0.323003 0.182254
0.864317 0.323827 0.190921
0.902098 0.326116 0.200351
0.936858 0.329595 0.212161
0.968750 0.334569 0.225162
0.997986 0.341527 0.240513
0.000000 0.392767 0.129763
0.000000 0.392859 0.129671
0.000000 0.393408 0.129305
0.000000 0.394415 0.129335
0.000000 0.395605 0.128908
0.000000 0.396887 0.128359
0.000000 0.398047 0.127474
0.000000 0.398840 0.125948
0.000000 0.400000 0.125399
0.120211 0.401617 0.125978
0.182040 0.402869 0.126497
0.230838 0.403967 0.126772
0.275151 0.404974 0.127749
0.317754 0.406470 0.128481
0.360174 0.408576 0.129274
0.407996 0.416052 0.127535
0.452003 0.419074 0.129824
0.489662 0.413092 0.134249
0.526604 0.406531 0.139590
0.563378 0.399176 0.145022
0.599878 0.391669 0.149996
0.636835 0.384009 0.154849
0.674769 0.376257 0.160616
0.713313 0.368322 0.166140
0.753262 0.367437 0.171756
0.792813 0.367987 0.178164
0.831785 0.369268 0.185885
0.869688 0.371221 0.194461
0.905577 0.373999 0.204990
0.938567 0.377447 0.216892
0.968872 0.381842 0.230594
0.996796 0.387823 0.246372
0.000000 0.429999 0.130312
0.000000 0.430030 0.129763
0.000000 0.430152 0.129610
0.000000 0.430732 0.129854
0.000000 0.431250 0.129305
0.000000 0.432013 0.128481
0.000000 0.432349 0.127535
0.000000 0.432502 0.125887
0.000000 0.432349 0.123964
0.009796 0.433997 0.125154
0.154116 0.435676 0.125734
0.213687 0.437507 0.126314
0.264561 0.439796 0.127443
0.311528 0.442267 0.128695
0.357305 0.445319 0.129671
0.402960 0.448859 0.131624
0.452644 0.456397 0.131594
0.500694 0.462562 0.132387
0.538170 0.455970 0.138338
0.574487 0.449317 0.144015
0.611078 0.442298 0.149752
0.648066 0.435431 0.155520
0.685664 0.428992 0.160983
0.723507 0.422400 0.167025
0.760922 0.415961 0.173648
0.798428 0.410773 0.181033
0.836149 0.412818 0.189425
0.872953 0.415320 0.199008
0.907652 0.418280 0.210239
0.939696 0.422004 0.222812
0.969421 0.426520 0.237644
0.996857 0.432319 0.255070
0.000000 0.467872 0.131746
0.000000 0.467903 0.131685
0.000000 0.468055 0.131502
0.000000 0.468269 0.131197
0.000000 0.468605 0.130983
0.000000 0.469001 0.129610
0.000000 0.469123 0.129091
0.000000 0.469154 0.127474
0.000000 0.469001 0.125826
0.000000 0.469612 0.125002
0.111971 0.471443 0.125948
0.192630 0.473487 0.126925
0.251682 0.475807 0.128206
0.303441 0.478309 0.129824
0.352331 0.481453 0.131350
0.400183 0.484962 0.133577
0.447089 0.488960 0.135958
0.496895 0.495613 0.137881
0.547875 0.504753 0.139193
0.584649 0.498329 0.144961
0.621454 0.492134 0.150790
0.658350 0.486336 0.156741
0.695674 0.480934 0.162936
0.732570 0.475105 0.169924
0.769009 0.469490 0.177188
0.805112 0.463813 0.185031
0.840757 0.458137 0.194461
0.875944 0.457313 0.204135
0.909178 0.460273 0.216251
0.940185 0.463661 0.230106
0.968994 0.467659 0.245792
0.995697 0.472847 0.263584
0.000000 0.503258 0.134798
0.000000 0.503044 0.134981
0.000000 0.488350 0.132357
0.000000 0.488472 0.132113
0.000000 0.488838 0.131594
0.000000 0.489387 0.130831
0.000000 0.489662 0.129702
0.000000 0.489815 0.128267
0.000000 0.489845 0.126772
0.000000 0.489509 0.124910
0.000000 0.491463 0.125246
0.156069 0.493629 0.127108
0.225803 0.496437 0.127932
0.282261 0.499672 0.130190
0.334081 0.503410 0.131807
0.383276 0.507927 0.134646
0.432563 0.512596 0.138064
0.480507 0.517937 0.141146
0.529717 0.524559 0.144991
0.584222 0.537469 0.146242
0.622065 0.533074 0.152193
0.659907 0.528862 0.158572
0.697200 0.524498 0.165469
0.734432 0.520195 0.172549
0.771359 0.516045 0.180911
0.807828 0.511955 0.190219
0.843717 0.508171 0.200381
0.877989 0.504021 0.211490
0.910155 0.499702 0.224094
0.940398 0.502556 0.238987
0.968536 0.506401 0.255711
0.994690 0.511284 0.274784
0.000000 0.534173 0.139345
0.000000 0.532769 0.138216
0.000000 0.531365 0.138430
0.000000 0.530175 0.137697
0.000000 0.529442 0.136446
0.000000 0.529320 0.136019
0.000000 0.529442 0.134737
0.000000 0.529656 0.133272
0.000000 0.529503 0.131441
0.000000 0.529473 0.129122
0.000000 0.530144 0.128115
0.117952 0.532494 0.129885
0.210697 0.535332 0.132235
0.274571 0.538476 0.134463
0.331090 0.542199 0.136690
0.383673 0.546319 0.140261
0.434028 0.550805 0.144076
0.483345 0.555505 0.148196
0.531701 0.560327 0.153262
0.578698 0.565545 0.159182
0.634577 0.579950 0.161471
0.671931 0.576501 0.168002
0.708339 0.572229 0.174807
0.744411 0.568261 0.182681
0.780331 0.564508 0.191714
0.815793 0.561120 0.201541
0.850217 0.557763 0.212528
0.882902 0.553979 0.224949
0.913451 0.549981 0.238163
0.942260 0.546075 0.252842
0.969390 0.544549 0.269505
0.994598 0.548913 0.289525
0.000000 0.573693 0.147280
0.000000 0.572290 0.146365
0.000000 0.570764 0.145754
0.000000 0.569512 0.144991
0.000000 0.568627 0.144015
0.000000 0.568292 0.143343
0.000000 0.568322 0.142000
0.000000 0.568505 0.140780
0.000000 0.568383 0.138338
0.000000 0.568322 0.136599
0.000000 0.568048 0.133394
0.018158 0.569970 0.134951
0.193790 0.572808 0.137484
0.267308 0.575921 0.140322
0.328099 0.579370 0.143557
0.383520 0.583215 0.147280
0.436316 0.587457 0.151736
0.486824 0.592035 0.157137
0.535790 0.596735 0.162600
0.583062 0.601434 0.169467
0.628565 0.606317 0.176303
0.682704 0.619776 0.181094
0.719142 0.617426 0.189883
0.754116 0.613458 0.198245
0.788998 0.610071 0.207218
0.823209 0.606928 0.217990
0.855863 0.603601 0.229587
0.886839 0.600092 0.242435
0.915984 0.596490 0.256474
0.943450 0.592767 0.272038
0.969512 0.589593 0.288884
0.994263 0.586969 0.307683
0.000000 0.612787 0.157687
0.000000 0.611505 0.156863
0.000000 0.610101 0.156283
0.000000 0.608972 0.155001
0.000000 0.608148 0.154147
0.000000 0.607782 0.153353
0.000000 0.607752 0.151492
0.000000 0.607843 0.150454
0.000000 0.607752 0.148775
0.000000 0.607477 0.146242
0.000000 0.607172 0.143740
0.000000 0.607721 0.142702
0.178958 0.610407 0.145205
0.262852 0.613245 0.149111
0.327672 0.616510 0.152834
0.385870 0.619867 0.157198
0.439399 0.623255 0.162417
0.489876 0.626795 0.167727
0.537987 0.630182 0.174105
0.583917 0.633570 0.180606
0.628229 0.636835 0.187900
0.670954 0.640314 0.195743
0.721370 0.651972 0.201663
0.756405 0.650507 0.211948
0.789425 0.646601 0.220340
0.821836 0.643091 0.230014
0.852964 0.639521 0.241733
0.882750 0.635981 0.254124
0.910857 0.632349 0.268132
0.937591 0.628931 0.283360
0.963104 0.625849 0.300267
0.987396 0.623438 0.319310
0.000000 0.643427 0.167056
0.000000 0.642878 0.166293
0.000000 0.642451 0.165896
0.000000 0.642267 0.165560
0.000000 0.642206 0.164828
0.000000 0.642390 0.164340
0.000000 0.642634 0.163516
0.000000 0.642695 0.162173
0.000000 0.642603 0.160433
0.000000 0.642329 0.157351
0.000000 0.641810 0.154879
0.000000 0.641169 0.151675
0.158877 0.643153 0.154299
0.254673 0.645808 0.157992
0.323919 0.648646 0.162844
0.384314 0.651698 0.167880
0.439155 0.654932 0.173373
0.490822 0.658320 0.179873
0.539544 0.661738 0.187228
0.586267 0.665156 0.195041
0.630976 0.668757 0.203525
0.674189 0.672389 0.212680
0.715724 0.676204 0.222538
0.764462 0.687770 0.231418
0.798215 0.687556 0.244602
0.828733 0.683772 0.254887
0.858030 0.679927 0.266545
0.886046 0.676265 0.279545
0.912810 0.672602 0.293645
0.938354 0.669276 0.309087
0.962768 0.666438 0.326940
0.986114 0.664302 0.346899
0.000000 0.680873 0.184817
0.000000 0.680507 0.184024
0.000000 0.680110 0.183688
0.000000 0.679866 0.183139
0.000000 0.679744 0.182376
0.000000 0.679835 0.182010
0.000000 0.679835 0.180636
0.000000 0.679866 0.179446
0.000000 0.679713 0.177798
0.000000 0.679347 0.175845
0.000000 0.678798 0.173037
0.000000 0.678187 0.169741
0.151736 0.678279 0.168765
0.254704 0.680446 0.173190
0.327306 0.682856 0.177859
0.388006 0.685420 0.183810
0.443671 0.688075 0.190494
0.495125 0.690852 0.197208
0.543755 0.693751 0.204471
0.590021 0.696712 0.213107
0.634394 0.699763 0.221958
0.677058 0.702968 0.231418
0.717739 0.706233 0.241642
0.756924 0.709621 0.252628
0.805936 0.723445 0.269535
0.836454 0.723384 0.285649
0.863890 0.719356 0.297398
0.890288 0.715450 0.310735
0.915496 0.711849 0.325231
0.939727 0.708431 0.341161
0.962890 0.705501 0.359503
0.985077 0.703365 0.379828
0.000000 0.712551 0.202304
0.000000 0.711879 0.201633
0.000000 0.711574 0.201663
0.000000 0.711666 0.201328
0.000000 0.711971 0.200992
0.000000 0.712581 0.200778
0.000000 0.713222 0.200320
0.000000 0.713832 0.200015
0.000000 0.714290 0.198917
0.000000 0.714534 0.197421
0.000000 0.714656 0.195438
0.014221 0.714534 0.192935
0.171603 0.714290 0.190066
0.263432 0.716060 0.193362
0.336950 0.718624 0.199649
0.398810 0.721370 0.206577
0.455055 0.724086 0.214054
0.506462 0.726741 0.221714
0.554589 0.729183 0.230564
0.600153 0.731441 0.239292
0.643427 0.733700 0.248600
0.684871 0.736110 0.258579
0.724605 0.738827 0.269841
0.762722 0.741970 0.282506
0.799313 0.745418 0.295995
0.840208 0.755062 0.310948
0.867765 0.755276 0.330388
0.893095 0.751644 0.344579
0.917296 0.748226 0.359960
0.940490 0.745052 0.376898
0.962585 0.742428 0.395941
0.983764 0.740475 0.417487
0.000000 0.749905 0.231510
0.000000 0.749294 0.230564
0.000000 0.748989 0.230289
0.000000 0.748806 0.229496
0.000000 0.748836 0.229313
0.000000 0.748928 0.228977
0.000000 0.748959 0.227939
0.000000 0.748898 0.226505
0.000000 0.748745 0.225498
0.000000 0.748379 0.222995
0.000000 0.748104 0.221256
0.141176 0.747677 0.218601
0.210605 0.747219 0.215579
0.271641 0.747433 0.214542
0.344488 0.749538 0.221256
0.405798 0.751797 0.229099
0.461250 0.754086 0.237003
0.512200 0.756222 0.245884
0.559655 0.758328 0.255009
0.604578 0.760159 0.264378
0.646754 0.761959 0.274449
0.687343 0.763851 0.284886
0.725826 0.765988 0.296391
0.762661 0.768368 0.308476
0.797696 0.771054 0.321874
0.830991 0.774075 0.336553
0.868101 0.782864 0.352453
0.892546 0.782986 0.375006
0.915801 0.779507 0.390509
0.938109 0.776486 0.407935
0.959503 0.774075 0.427558
0.979980 0.772366 0.450263
0.000000 0.781430 0.261448
0.000000 0.781155 0.261021
0.000000 0.780972 0.260807
0.000000 0.780941 0.260044
0.000000 0.781003 0.260044
0.000000 0.781094 0.259586
0.000000 0.781186 0.258946
0.000000 0.781186 0.258244
0.000000 0.781155 0.256962
0.000000 0.780880 0.255497
0.144442 0.780636 0.253635
0.207279 0.780209 0.251164
0.255497 0.779782 0.248234
0.298222 0.779385 0.245640
0.358160 0.780484 0.250004
0.417853 0.782284 0.257816
0.471534 0.784115 0.266606
0.521386 0.785824 0.275639
0.567895 0.787442 0.285466
0.611475 0.788937 0.295201
0.652674 0.790372 0.305852
0.691829 0.791928 0.317021
0.729183 0.793668 0.328710
0.764889 0.795651 0.341802
0.798642 0.797971 0.355779
0.830625 0.800534 0.370947
0.860899 0.803372 0.386847
0.894224 0.811185 0.404547
0.916136 0.811551 0.429633
0.937438 0.808591 0.447425
0.957702 0.806058 0.467414
0.976654 0.803555 0.487800
0.000000 0.812497 0.299413
0.000000 0.812284 0.299107
0.000000 0.812131 0.298680
0.000000 0.812009 0.298619
0.000000 0.811826 0.297551
0.000000 0.811521 0.296727
0.000000 0.810941 0.294987
0.000000 0.810117 0.292576
0.097597 0.809110 0.290013
0.161685 0.807919 0.286839
0.207736 0.806638 0.283085
0.247013 0.805325 0.278691
0.284398 0.804044 0.274784
0.319646 0.803006 0.270939
0.358953 0.802426 0.268864
0.417517 0.803586 0.276402
0.470192 0.804990 0.284947
0.519219 0.806332 0.294285
0.564752 0.807614 0.303899
0.607538 0.808804 0.314061
0.648005 0.810025 0.324498
0.686610 0.811276 0.335790
0.723293 0.812833 0.347936
0.758389 0.814633 0.361120
0.791501 0.816739 0.375647
0.822873 0.819089 0.390814
0.852598 0.821622 0.407111
0.880705 0.824369 0.424262
0.910948 0.831174 0.443244
0.931334 0.831968 0.468818
0.950866 0.829038 0.487221
0.969635 0.826749 0.507927
0.000000 0.835477 0.329656
0.000000 0.835508 0.329503
0.000000 0.835538 0.329442
0.000000 0.835569 0.329625
0.000000 0.835660 0.329686
0.095888 0.835691 0.329351
0.140261 0.835660 0.328405
0.177096 0.835508 0.327520
0.210452 0.835294 0.326146
0.242405 0.834897 0.324559
0.273289 0.834470 0.322454
0.303380 0.833921 0.319799
0.333349 0.833433 0.316991
0.362829 0.832944 0.314305
