20 Preset/Travel Style 2/【3】LUT video cho PR-AE-FCPX/Travel 2 LUT (16).cube
# Created by Adobe Lightroom plugin Export LUT (1.24.0)
# www.johnrellis.com/lightroom/exportlut.htm
# Preset: 16素材江湖 - WATERS
# Color profile: E:\lut插件\exportlut.1.24\exportlut.lrplugin\color profiles\Rec709gamma2.4.icc
LUT_3D_SIZE 32
DOMAIN_MIN 0.0 0.0 0.0
DOMAIN_MAX 1.0 1.0 1.0
0.089326 0.089326 0.089326
0.089326 0.089326 0.089326
0.090822 0.089174 0.089326
0.094453 0.088746 0.089296
0.099611 0.088533 0.089235
0.107698 0.088258 0.089479
0.120089 0.087404 0.089235
0.137545 0.084840 0.089326
0.158114 0.081392 0.088808
0.179141 0.076143 0.088624
0.200748 0.070161 0.088167
0.224155 0.060456 0.087404
0.248753 0.048981 0.086030
0.274998 0.036622 0.084016
0.302281 0.020935 0.081575
0.330785 0.004181 0.078370
0.361059 0.000000 0.073060
0.393133 0.000000 0.064851
0.428077 0.000000 0.055756
0.466560 0.000000 0.044099
0.507652 0.000000 0.029297
0.576074 0.000000 0.001709
0.645655 0.000000 0.000000
0.711910 0.000000 0.000000
0.774746 0.000000 0.000000
0.833585 0.000000 0.000000
0.887510 0.000000 0.000000
0.938415 0.000000 0.000000
0.987488 0.000000 0.000000
1.000000 0.000000 0.000000
1.000000 0.000000 0.000000
1.000000 0.000000 0.000000
0.089326 0.089326 0.089326
0.089326 0.089326 0.089326
0.090547 0.089601 0.089265
0.093507 0.089265 0.089265
0.098634 0.089052 0.089601
0.106294 0.088869 0.089448
0.118563 0.087831 0.089265
0.135042 0.085664 0.089357
0.154299 0.082918 0.088838
0.174655 0.079744 0.088624
0.196384 0.072969 0.088289
0.219120 0.064607 0.087617
0.243107 0.054719 0.086275
0.268528 0.043366 0.084413
0.295445 0.028504 0.082094
0.323430 0.013001 0.079042
0.353307 0.000000 0.074586
0.385077 0.000000 0.066743
0.419440 0.000000 0.058137
0.456672 0.000000 0.047150
0.496651 0.000000 0.033387
0.559869 0.000000 0.008972
0.624353 0.000000 0.000000
0.686152 0.000000 0.000000
0.745449 0.000000 0.000000
0.803464 0.000000 0.000000
0.858915 0.000000 0.000000
0.911864 0.000000 0.000000
0.963287 0.000000 0.000000
1.000000 0.000000 0.000000
1.000000 0.000000 0.000000
1.000000 0.000000 0.000000
0.089418 0.090150 0.089631
0.089418 0.090150 0.089631
0.090181 0.090059 0.089631
0.092134 0.090242 0.089570
0.097108 0.090486 0.089845
0.104402 0.090394 0.089693
0.115053 0.090059 0.089906
0.130861 0.089021 0.089570
0.149996 0.087984 0.089021
0.170138 0.085298 0.088808
0.191440 0.081788 0.088411
0.214115 0.075319 0.087251
0.237827 0.066529 0.085939
0.262791 0.056764 0.084108
0.289067 0.043885 0.082551
0.316838 0.030182 0.079561
0.346136 0.014313 0.074342
0.377752 0.000000 0.067872
0.411841 0.000000 0.059541
0.448859 0.000000 0.047669
0.488594 0.000000 0.035340
0.550866 0.000000 0.010407
0.612848 0.000000 0.000000
0.672450 0.000000 0.000000
0.729702 0.000000 0.000000
0.786313 0.000000 0.000000
0.842313 0.000000 0.000000
0.896300 0.000000 0.000000
0.949218 0.000000 0.000000
1.000000 0.000000 0.000000
1.000000 0.000000 0.000000
1.000000 0.000000 0.000000
0.088777 0.091859 0.090669
0.089509 0.091768 0.090669
0.089631 0.091768 0.090242
0.092439 0.091890 0.089754
0.095247 0.092348 0.090486
0.101076 0.092866 0.090700
0.110994 0.093172 0.090425
0.124819 0.093446 0.089998
0.143679 0.093111 0.089815
0.164157 0.092073 0.089143
0.185580 0.090211 0.088777
0.207797 0.088289 0.087678
0.231022 0.084077 0.086397
0.255497 0.079103 0.084596
0.281376 0.068818 0.082399
0.308141 0.057282 0.079561
0.336492 0.044007 0.075776
0.366888 0.027955 0.068513
0.399603 0.007935 0.060700
0.435157 0.000000 0.050599
0.475746 0.000000 0.037201
0.532403 0.000000 0.016266
0.589746 0.000000 0.000000
0.647669 0.000000 0.000000
0.705959 0.000000 0.000000
0.765499 0.000000 0.000000
0.826200 0.000000 0.000000
0.884581 0.000000 0.000000
0.940459 0.000000 0.000000
0.993927 0.000000 0.000000
1.000000 0.000000 0.000000
1.000000 0.000000 0.000000
0.088960 0.094240 0.092012
0.089693 0.094148 0.092012
0.089967 0.093751 0.092073
0.090761 0.094087 0.090761
0.094972 0.094026 0.090242
0.099458 0.094667 0.090913
0.104952 0.095888 0.091859
0.117006 0.096925 0.091402
0.134157 0.097993 0.090700
0.154360 0.098238 0.089937
0.175143 0.097902 0.089479
0.197391 0.097017 0.088411
0.220462 0.095888 0.087343
0.244877 0.094179 0.085512
0.270481 0.091432 0.083253
0.297642 0.088533 0.080262
0.326238 0.082582 0.075685
0.357122 0.072969 0.069337
0.390112 0.054932 0.060456
0.425666 0.034577 0.050294
0.469429 0.007202 0.036133
0.522515 0.000000 0.016388
0.577478 0.000000 0.000000
0.634485 0.000000 0.000000
0.692836 0.000000 0.000000
0.752773 0.000000 0.000000
0.814694 0.000000 0.000000
0.873869 0.000000 0.000000
0.930144 0.000000 0.000000
0.983856 0.000000 0.000000
1.000000 0.000000 0.000000
1.000000 0.000000 0.000000
0.088869 0.097658 0.094026
0.088991 0.097658 0.093629
0.089967 0.097169 0.093690
0.090211 0.097169 0.092836
0.093141 0.097261 0.091920
0.099031 0.097414 0.090944
0.105653 0.097719 0.091585
0.113558 0.099672 0.091920
0.125032 0.101961 0.092500
0.144869 0.104005 0.091493
0.165957 0.105348 0.090394
0.188357 0.105928 0.089174
0.211612 0.106294 0.088167
0.236088 0.106233 0.086305
0.261875 0.105409 0.083772
0.289403 0.104433 0.080537
0.318639 0.102480 0.075685
0.349767 0.099672 0.069062
0.383429 0.096010 0.060426
0.419257 0.090364 0.049866
0.467811 0.079500 0.033814
0.520012 0.050172 0.012146
0.692714 0.000000 0.000000
0.762692 0.000000 0.000000
0.828153 0.000000 0.000000
0.885893 0.000000 0.000000
0.937682 0.000000 0.000000
0.985473 0.000000 0.000000
1.000000 0.000000 0.000000
1.000000 0.000000 0.000000
1.000000 0.000000 0.000000
1.000000 0.000000 0.000000
0.086854 0.105226 0.097200
0.086854 0.105226 0.097200
0.088624 0.104433 0.096925
0.089387 0.103700 0.096254
0.090272 0.104372 0.093812
0.096498 0.104494 0.092409
0.107393 0.104372 0.091341
0.118471 0.104341 0.091890
0.130495 0.107668 0.092226
0.144381 0.111574 0.093141
0.164096 0.114900 0.092561
0.188052 0.117800 0.091249
0.213107 0.119722 0.089387
0.238865 0.120912 0.087739
0.265873 0.121675 0.084504
0.294011 0.122072 0.080629
0.324132 0.121553 0.074830
0.356146 0.121126 0.066743
0.391028 0.119753 0.056550
0.437446 0.119142 0.041138
0.497444 0.117281 0.017914
0.564202 0.112734 0.000000
0.636378 0.104219 0.000000
0.710750 0.086915 0.000000
0.784726 0.016724 0.000000
0.850492 0.000000 0.000000
0.906950 0.000000 0.000000
0.957183 0.000000 0.000000
1.000000 0.000000 0.000000
1.000000 0.000000 0.000000
1.000000 0.000000 0.000000
1.000000 0.000000 0.000000
0.081117 0.114076 0.100740
0.081575 0.113741 0.100801
0.083894 0.113039 0.100526
0.088136 0.111574 0.100343
0.087526 0.111696 0.096925
0.092256 0.112001 0.094484
0.102602 0.112001 0.093050
0.116243 0.111177 0.091188
0.130800 0.111482 0.091524
0.144137 0.115602 0.092409
0.158755 0.119631 0.093141
0.174807 0.123995 0.094392
0.198428 0.127871 0.093202
0.224033 0.131075 0.090883
0.250523 0.133242 0.088808
0.278325 0.135103 0.085389
0.307927 0.136782 0.080476
0.339757 0.137819 0.073640
0.377508 0.139834 0.062226
0.426734 0.142550 0.045441
0.480934 0.144900 0.023713
0.542138 0.146700 0.000000
0.610193 0.146395 0.000000
0.681147 0.143740 0.000000
0.752712 0.136416 0.000000
0.820188 0.121218 0.000000
0.879026 0.094301 0.000000
0.931914 0.000000 0.000000
0.981170 0.000000 0.000000
1.000000 0.000000 0.000000
1.000000 0.000000 0.000000
1.000000 0.000000 0.000000
0.068635 0.126680 0.106752
0.068635 0.126680 0.106752
0.073030 0.125795 0.106538
0.080659 0.123964 0.105776
0.083284 0.123079 0.103517
0.081666 0.123842 0.097536
0.095857 0.123568 0.095430
0.111299 0.122805 0.093263
0.128206 0.121828 0.091310
0.145113 0.120699 0.091371
0.159457 0.124788 0.092470
0.175204 0.129458 0.093690
0.191623 0.134401 0.095338
0.210727 0.139376 0.096681
0.237095 0.143435 0.094057
0.264408 0.146853 0.091005
0.293706 0.150057 0.087800
0.328191 0.153964 0.081788
0.370062 0.159030 0.071321
0.415961 0.163912 0.055482
0.466835 0.168978 0.034852
0.524346 0.173800 0.008484
0.589166 0.178256 0.000000
0.657649 0.181094 0.000000
0.727291 0.181125 0.000000
0.794919 0.176516 0.000000
0.855924 0.167056 0.000000
0.910887 0.151461 0.000000
0.962188 0.127413 0.000000
1.000000 0.084321 0.000000
1.000000 0.000000 0.000000
1.000000 0.000000 0.000000
0.049165 0.141726 0.114717
0.050172 0.141482 0.114473
0.054902 0.140688 0.113985
0.065705 0.139101 0.113588
0.079286 0.136446 0.112764
0.074342 0.136751 0.105898
0.085939 0.136721 0.099794
0.103120 0.135897 0.097017
0.121920 0.134798 0.094453
0.141787 0.133150 0.091737
0.159518 0.130220 0.092134
0.174563 0.134981 0.093294
0.190799 0.139712 0.094972
0.207767 0.145083 0.097078
0.225711 0.151064 0.100221
0.250309 0.156741 0.099428
0.284367 0.163455 0.096376
0.321386 0.170321 0.092653
0.361730 0.177218 0.087129
0.405615 0.183993 0.075624
0.453895 0.190524 0.054841
0.506615 0.197116 0.029786
0.564874 0.203281 0.000000
0.627008 0.208469 0.000000
0.690669 0.211521 0.000000
0.754971 0.211856 0.000000
0.818082 0.209628 0.000000
0.877043 0.202823 0.000000
0.932555 0.192264 0.000000
0.984863 0.176272 0.000000
1.000000 0.153109 0.000000
1.000000 0.117708 0.000000
0.035431 0.156405 0.123323
0.036133 0.156191 0.123354
0.040833 0.155520 0.122896
0.053651 0.154086 0.122560
0.069917 0.151766 0.121798
0.073976 0.150759 0.117678
0.064973 0.151369 0.107637
0.092134 0.151034 0.103029
0.113375 0.149905 0.099641
0.135439 0.148653 0.095888
0.156893 0.146334 0.092073
0.176028 0.141726 0.092409
0.191897 0.146609 0.094057
0.208652 0.151858 0.096498
0.229038 0.159304 0.099794
0.250828 0.167849 0.104372
0.274662 0.176730 0.109102
0.310491 0.184665 0.105013
0.349218 0.192447 0.100099
0.391180 0.200229 0.093874
0.436652 0.208194 0.083467
0.486580 0.216312 0.059571
0.542718 0.224552 0.026123
0.603449 0.232303 0.000000
0.666163 0.238651 0.000000
0.729885 0.242832 0.000000
0.794430 0.244755 0.000000
0.855589 0.243320 0.000000
0.913237 0.238254 0.000000
0.967712 0.230045 0.000000
1.000000 0.217350 0.000000
1.000000 0.200443 0.000000
0.020478 0.174441 0.134859
0.020478 0.174441 0.134859
0.027619 0.173648 0.134737
0.040406 0.172427 0.134432
0.060365 0.170047 0.133577
0.079438 0.167788 0.132204
0.067842 0.168399 0.123232
0.071962 0.168704 0.112642
0.102815 0.167788 0.108339
0.126619 0.166659 0.102998
0.151034 0.164767 0.097993
0.175692 0.162631 0.092897
0.217258 0.170443 0.094667
0.240513 0.179751 0.099153
0.264897 0.189334 0.104494
0.291051 0.199527 0.109712
0.319066 0.210391 0.115023
0.348821 0.222110 0.120821
0.386938 0.233982 0.121279
0.435859 0.245335 0.112703
0.488777 0.256504 0.101381
0.545434 0.267796 0.083803
0.605524 0.278691 0.035065
0.668238 0.287999 0.000000
0.731472 0.295323 0.000000
0.793790 0.300145 0.000000
0.850370 0.301396 0.000000
0.902617 0.299321 0.000000
0.951812 0.294621 0.000000
0.999084 0.287480 0.000000
1.000000 0.277836 0.000000
1.000000 0.265751 0.000000
0.000000 0.204746 0.154818
0.000000 0.204471 0.154665
0.000000 0.203555 0.154238
0.013764 0.201572 0.153353
0.037629 0.198642 0.152224
0.073274 0.194766 0.151003
0.072663 0.193484 0.144015
0.055512 0.193545 0.131106
0.089357 0.194827 0.122683
0.120027 0.195743 0.117678
0.150973 0.196597 0.112123
0.182437 0.197116 0.105257
0.213626 0.196231 0.097505
0.241581 0.188602 0.097658
0.266545 0.198886 0.102632
0.291997 0.208774 0.107576
0.318425 0.218814 0.112947
0.345983 0.229282 0.118410
0.375341 0.240513 0.123720
0.406836 0.252567 0.129305
0.453071 0.264469 0.122255
0.506065 0.276493 0.110628
0.563317 0.288945 0.094179
0.623804 0.300603 0.053010
0.686275 0.310857 0.000000
0.749966 0.319127 0.000000
0.811612 0.325078 0.000000
0.868894 0.327276 0.000000
0.922850 0.326757 0.000000
0.974334 0.323766 0.000000
1.000000 0.318303 0.000000
1.000000 0.310399 0.000000
0.000000 0.232029 0.172671
0.000000 0.231693 0.172396
0.000000 0.230350 0.171786
0.000000 0.228519 0.171054
0.002991 0.225803 0.169772
0.044038 0.222263 0.168765
0.072786 0.219577 0.165286
0.053010 0.220066 0.153750
0.033173 0.221317 0.137423
0.102541 0.221622 0.132052
0.139101 0.222080 0.126101
0.173342 0.222324 0.118990
0.207340 0.221866 0.110536
0.239414 0.219150 0.100923
0.267063 0.208408 0.100252
0.292180 0.217746 0.105013
0.317449 0.227207 0.109987
0.343603 0.237034 0.114931
0.371557 0.247623 0.120424
0.401373 0.258885 0.125460
0.433783 0.271244 0.130800
0.473335 0.284977 0.132174
0.528466 0.298802 0.119722
0.587976 0.312779 0.102022
0.650446 0.325841 0.072358
0.714534 0.337194 0.004395
0.779232 0.346777 0.000000
0.840024 0.352911 0.000000
0.897307 0.355993 0.000000
0.951934 0.356542 0.000000
1.000000 0.354650 0.000000
1.000000 0.350225 0.000000
0.000000 0.266728 0.195041
0.000000 0.266331 0.194827
0.000000 0.264622 0.193820
0.000000 0.261967 0.192416
0.000000 0.258213 0.190585
0.000000 0.253544 0.188724
0.053986 0.248600 0.187106
0.042267 0.247715 0.176974
0.017365 0.248173 0.161624
0.047852 0.248997 0.147280
0.119356 0.249210 0.140688
0.160281 0.249485 0.133608
0.198032 0.249058 0.125185
0.233158 0.247044 0.115267
0.265354 0.242283 0.103975
0.291539 0.229007 0.102693
0.317510 0.236454 0.106661
0.342870 0.245914 0.111513
0.369879 0.256016 0.116762
0.398627 0.266850 0.121828
0.430030 0.278721 0.126711
0.464607 0.292332 0.131685
0.502464 0.307195 0.136416
0.554833 0.323064 0.129061
0.616388 0.338445 0.111757
0.680720 0.352636 0.088991
0.747555 0.365789 0.021881
0.813535 0.376532 0.000000
0.876036 0.383948 0.000000
0.935607 0.388830 0.000000
0.992096 0.390845 0.000000
1.000000 0.390448 0.000000
0.000000 0.299413 0.215732
0.000000 0.299413 0.215732
0.000000 0.298192 0.215091
0.000000 0.295995 0.213962
0.000000 0.292882 0.212497
0.000000 0.289006 0.210880
0.000000 0.284672 0.209537
0.013092 0.282078 0.204288
0.000000 0.282780 0.189944
0.000000 0.284001 0.169833
0.074586 0.283696 0.158480
0.140688 0.282292 0.150362
0.184695 0.280125 0.140963
0.223148 0.276371 0.130465
0.257969 0.271092 0.118441
0.288518 0.262943 0.105653
0.313390 0.247562 0.103944
0.339910 0.253269 0.107668
0.366247 0.263249 0.112490
0.394690 0.274174 0.117403
0.426215 0.286442 0.122194
0.460975 0.300237 0.126864
0.499153 0.315648 0.131350
0.541314 0.332647 0.135561
0.587640 0.350866 0.139528
0.654017 0.368658 0.123018
0.723079 0.385504 0.100649
0.792721 0.400336 0.050050
0.858061 0.411322 0.000000
0.919524 0.418921 0.000000
0.976867 0.423407 0.000000
1.000000 0.425360 0.000000
0.000000 0.332616 0.236423
0.000000 0.332372 0.236362
0.000000 0.331395 0.235782
0.000000 0.329351 0.234836
0.000000 0.326421 0.233249
0.000000 0.322759 0.231785
0.000000 0.318395 0.230259
0.000000 0.313603 0.229129
0.000000 0.313817 0.215793
0.000000 0.314336 0.197330
0.000000 0.314763 0.174685
0.099092 0.313146 0.166323
0.161654 0.310704 0.156832
0.208072 0.306920 0.146090
0.247776 0.301549 0.134096
0.282872 0.294438 0.120699
0.313085 0.284916 0.106233
0.337774 0.268437 0.104372
0.366186 0.272770 0.107698
0.394110 0.283635 0.112398
0.425177 0.295933 0.116976
0.459724 0.309880 0.121340
0.497780 0.325475 0.125429
0.540124 0.342931 0.129030
0.585473 0.361761 0.133944
0.634363 0.381933 0.142550
0.697475 0.402716 0.136934
0.770596 0.421820 0.116609
0.839750 0.436927 0.094606
0.904234 0.448035 0.059632
0.964172 0.455848 0.033661
1.000000 0.460548 0.038880
0.000000 0.373266 0.261692
0.000000 0.373693 0.262089
0.000000 0.419745 0.290990
0.000000 0.417456 0.289677
0.000000 0.414008 0.288029
0.000000 0.409094 0.285435
0.000000 0.402960 0.282841
0.000000 0.396216 0.280552
0.000000 0.392645 0.270481
0.000000 0.392279 0.249577
0.000000 0.392004 0.220829
0.000000 0.389685 0.198459
0.119448 0.384649 0.186435
0.199496 0.377752 0.173037
0.254002 0.368750 0.158114
0.297673 0.358190 0.142123
0.334417 0.345617 0.124727
0.364538 0.330968 0.106538
0.388220 0.309545 0.104646
0.418555 0.311040 0.106996
0.449012 0.322545 0.111269
0.483619 0.336278 0.115084
0.521813 0.351781 0.118471
0.562860 0.368444 0.121614
0.605493 0.385473 0.125978
0.651148 0.404059 0.135012
0.699458 0.423651 0.146059
0.753567 0.444556 0.155367
0.822751 0.461891 0.140749
0.888334 0.475807 0.129519
0.950011 0.486336 0.124880
1.000000 0.493721 0.128725
0.000000 0.432441 0.298405
0.000000 0.436927 0.301152
0.000000 0.441108 0.303807
0.000000 0.443732 0.305669
0.000000 0.443977 0.306096
0.000000 0.440711 0.304601
0.000000 0.435370 0.302281
0.000000 0.428351 0.299443
0.000000 0.421546 0.295750
0.000000 0.420478 0.276371
0.000000 0.419532 0.250706
0.000000 0.418402 0.215824
0.000000 0.413550 0.201846
0.148074 0.407172 0.188846
0.222446 0.399023 0.174441
0.275792 0.389166 0.158480
0.319158 0.377996 0.141482
0.356695 0.365789 0.123171
0.388006 0.351873 0.103883
0.413245 0.331029 0.101534
0.446723 0.332006 0.103151
0.481544 0.346288 0.106294
0.519860 0.362127 0.109071
0.560754 0.379065 0.111299
0.603204 0.396429 0.115602
0.648585 0.415076 0.124697
0.696559 0.434821 0.135714
0.747890 0.456184 0.149203
0.799771 0.477943 0.167819
0.863188 0.496712 0.169375
0.927886 0.511040 0.166995
0.987793 0.521965 0.171756
0.000000 0.469917 0.321019
0.000000 0.474983 0.324193
0.000000 0.479927 0.327306
0.000000 0.483162 0.329564
0.000000 0.484016 0.330327
0.000000 0.481483 0.329198
0.000000 0.476204 0.326604
0.000000 0.469337 0.323613
0.000000 0.461616 0.320928
0.000000 0.457649 0.307378
0.000000 0.456123 0.283085
0.000000 0.454627 0.251835
0.000000 0.451392 0.219791
0.000000 0.445228 0.206607
0.176150 0.437537 0.191836
0.248722 0.428260 0.176059
0.302647 0.417395 0.158755
0.347204 0.405463 0.139986
0.385626 0.392981 0.119692
0.418311 0.378759 0.097597
0.444404 0.357427 0.095308
0.481117 0.357275 0.096010
0.519615 0.373816 0.097230
0.560601 0.391180 0.098848
0.603235 0.409003 0.103090
0.648524 0.427893 0.112428
0.696162 0.447822 0.123964
0.747158 0.469245 0.138003
0.798734 0.491096 0.157565
0.850126 0.513237 0.183658
0.905272 0.534142 0.205814
0.967681 0.548577 0.211734
0.000000 0.512902 0.347051
0.000000 0.517845 0.350256
0.000000 0.522210 0.353124
0.000000 0.525231 0.355138
0.000000 0.526177 0.355993
0.000000 0.523583 0.354742
0.000000 0.518883 0.352331
0.000000 0.512383 0.349279
0.000000 0.505058 0.346502
0.000000 0.498207 0.340276
0.000000 0.496773 0.317662
0.000000 0.495003 0.288334
0.000000 0.492592 0.249149
0.000000 0.487526 0.225376
0.006836 0.480598 0.210819
0.205051 0.472511 0.194430
0.278782 0.463783 0.177005
0.335943 0.454353 0.157626
0.385046 0.444709 0.136721
0.429023 0.434668 0.111696
0.467720 0.422766 0.077577
0.499916 0.402930 0.070497
0.543786 0.403113 0.066102
0.589685 0.423835 0.063600
0.637812 0.445258 0.078218
0.687587 0.467079 0.094484
0.739223 0.489387 0.110689
0.790158 0.511009 0.132937
0.840543 0.532525 0.161379
0.889799 0.554192 0.195163
0.936980 0.576226 0.235111
0.980896 0.598993 0.281254
0.000000 0.593103 0.397772
0.000000 0.595300 0.399298
0.000000 0.596185 0.399969
0.000000 0.595361 0.399481
0.000000 0.592859 0.397955
0.000000 0.588342 0.395422
0.000000 0.582696 0.392340
0.000000 0.575952 0.388922
0.000000 0.568566 0.385687
0.000000 0.560418 0.382940
0.000000 0.557733 0.364904
0.000000 0.556237 0.336645
0.000000 0.553948 0.299901
0.000000 0.550683 0.253086
0.000000 0.543725 0.237125
0.104952 0.535576 0.219425
0.242130 0.526268 0.200046
0.319707 0.516106 0.179202
0.380316 0.505333 0.156039
0.432502 0.493874 0.128847
0.478309 0.481819 0.095155
0.517876 0.467414 0.009979
0.548669 0.443549 0.007233
0.591852 0.438361 0.006256
0.638819 0.459571 0.023651
0.688838 0.482033 0.050996
0.740932 0.505150 0.089235
0.792294 0.527367 0.117189
0.842618 0.549096 0.149416
0.891417 0.570550 0.186435
0.937987 0.592035 0.228611
0.981323 0.614130 0.276707
0.000000 0.641810 0.428656
0.000000 0.643549 0.429847
0.000000 0.644343 0.430396
0.000000 0.643915 0.430304
0.000000 0.641718 0.428962
0.000000 0.637903 0.426764
0.000000 0.632441 0.423743
0.000000 0.626307 0.420569
0.000000 0.619501 0.417609
0.000000 0.611872 0.414801
0.000000 0.606073 0.405493
0.000000 0.605005 0.379126
0.000000 0.603265 0.345159
0.000000 0.601251 0.300450
0.000000 0.596918 0.262425
0.000000 0.590173 0.244663
0.158175 0.582422 0.224613
0.280735 0.573785 0.202762
0.359991 0.564508 0.178531
0.424720 0.554284 0.150240
0.480751 0.543572 0.115480
0.531090 0.531975 0.035370
0.574334 0.517723 0.000000
0.608087 0.492805 0.000000
0.634363 0.470222 0.000000
0.682551 0.492012 0.000000
0.735103 0.515862 0.028931
0.786679 0.538689 0.093172
0.837308 0.560876 0.131289
0.886687 0.582696 0.172030
0.934234 0.604700 0.217411
0.978515 0.627008 0.268040
0.000000 0.708217 0.474403
0.000000 0.710872 0.476539
0.000000 0.711635 0.477302
0.000000 0.709804 0.476020
0.000000 0.706050 0.473457
0.000000 0.700435 0.469642
0.000000 0.693324 0.464942
0.000000 0.685145 0.459968
0.000000 0.676081 0.454871
0.000000 0.666712 0.450263
0.000000 0.655879 0.445624
0.000000 0.651972 0.421149
0.000000 0.648493 0.388098
0.000000 0.644526 0.346777
0.000000 0.639521 0.291539
0.000000 0.631312 0.265660
0.000000 0.622217 0.244877
0.200748 0.613367 0.222751
0.312474 0.604974 0.198825
0.391943 0.596979 0.171603
0.458625 0.588464 0.138369
0.517266 0.579461 0.097078
0.569848 0.568627 0.000000
0.614405 0.553857 0.000000
0.645594 0.524926 0.000000
0.689876 0.511711 0.000000
0.737301 0.532433 0.000000
0.786282 0.553796 0.031830
0.834989 0.574792 0.110109
0.883085 0.595819 0.156405
0.929900 0.617151 0.204501
0.974243 0.639033 0.257145
0.000000 0.740627 0.497230
0.000000 0.742885 0.499214
0.000000 0.743893 0.500145
0.000000 0.743160 0.499794
0.000000 0.741024 0.498451
0.000000 0.737789 0.496376
0.000000 0.733822 0.494026
0.000000 0.728847 0.491341
0.000000 0.723354 0.488594
0.000000 0.717220 0.486152
0.000000 0.709834 0.483742
0.000000 0.704891 0.470924
0.000000 0.703059 0.440711
0.000000 0.700496 0.402594
0.000000 0.696956 0.353765
0.000000 0.692042 0.300481
0.000000 0.684047 0.278233
0.000000 0.676051 0.254551
0.249088 0.668544 0.229343
0.358007 0.662135 0.204990
0.440742 0.655695 0.177646
0.511650 0.648554 0.144198
0.574853 0.639979 0.096315
0.632319 0.629511 0.000000
0.682338 0.615137 0.000000
0.715694 0.583673 0.000000
0.761624 0.565606 0.000000
0.806302 0.584039 0.000000
0.853819 0.604456 0.097230
0.900114 0.624506 0.155367
0.944610 0.644587 0.209415
0.986450 0.665217 0.266545
0.000000 0.783993 0.531518
0.000000 0.785000 0.532555
0.000000 0.785000 0.532616
0.000000 0.784054 0.532097
0.000000 0.781949 0.530663
0.000000 0.779019 0.528832
0.000000 0.775204 0.526390
0.000000 0.770687 0.523919
0.000000 0.765591 0.521324
0.000000 0.760006 0.519127
0.000000 0.753384 0.516869
0.000000 0.746151 0.514672
0.000000 0.745235 0.487648
0.000000 0.743679 0.453620
0.000000 0.741268 0.410285
0.000000 0.738521 0.355840
0.000000 0.733974 0.318669
0.000000 0.728115 0.298314
0.097810 0.722621 0.276951
0.297704 0.717586 0.254368
0.401984 0.712428 0.229313
0.485389 0.706569 0.200412
0.558251 0.699245 0.165042
0.624170 0.690394 0.115785
0.684352 0.679683 0.000000
0.737575 0.665278 0.000000
0.770474 0.630732 0.000000
0.814969 0.606683 0.000000
0.856443 0.622827 0.036591
0.902159 0.642634 0.140749
0.946197 0.662318 0.201144
0.987549 0.682490 0.262272
0.000000 0.817075 0.558618
0.000000 0.817838 0.559503
0.000000 0.818051 0.559930
0.000000 0.817624 0.559869
0.000000 0.816678 0.559594
0.000000 0.815671 0.559503
0.000000 0.815061 0.560418
0.000000 0.814511 0.561822
0.000000 0.814237 0.564569
0.000000 0.813779 0.568109
0.000000 0.812924 0.572320
0.000000 0.811032 0.576715
0.000000 0.810819 0.571496
0.000000 0.813535 0.548394
0.000000 0.815335 0.518456
0.000000 0.815763 0.479133
0.000000 0.815671 0.428260
0.000000 0.812863 0.400305
0.000000 0.809598 0.379767
0.269963 0.806302 0.357824
0.388830 0.802914 0.334112
0.482124 0.798764 0.307927
0.563867 0.793271 0.277806
0.638697 0.786465 0.242924
0.708583 0.778012 0.200443
0.774594 0.768063 0.142733
0.835355 0.755215 0.000000
0.869047 0.715572 0.014191
0.912322 0.683711 0.110689
0.946380 0.695125 0.179049
0.984619 0.711971 0.245487
1.000000 0.729671 0.312963
0.000000 0.873991 0.621454
0.000000 0.873960 0.621485
0.000000 0.873472 0.621210
0.000000 0.872557 0.620691
0.000000 0.871153 0.619989
0.000000 0.869413 0.619348
0.000000 0.867430 0.618921
0.000000 0.865141 0.618830
0.000000 0.862669 0.619287
0.000000 0.859831 0.620142
0.000000 0.856535 0.621607
0.000000 0.852781 0.623682
0.010956 0.848234 0.626215
0.101595 0.846860 0.614801
