20 Preset/Travel Style 2/【3】LUT video cho PR-AE-FCPX/Travel 2 LUT (11).cube
# Created by Adobe Lightroom plugin Export LUT (1.24.0)
# www.johnrellis.com/lightroom/exportlut.htm
# Preset: 11素材江湖 - PINETREE
# Color profile: E:\lut插件\exportlut.1.24\exportlut.lrplugin\color profiles\Rec709gamma2.4.icc
LUT_3D_SIZE 8
DOMAIN_MIN 0.000000 0.000000 0.000000
DOMAIN_MAX 0.903226 0.903226 0.903226
0.115206 0.115206 0.115206
0.123781 0.115694 0.115572
0.197635 0.120211 0.115053
0.351476 0.133791 0.109224
0.683223 0.182101 0.021942
0.993652 0.247196 0.000000
1.000000 0.306645 0.068666
1.000000 0.389319 0.262821
0.119112 0.121096 0.117617
0.125734 0.123629 0.117403
0.188327 0.134401 0.120607
0.339513 0.157473 0.118654
0.667048 0.218448 0.078187
0.982788 0.283696 0.000000
1.000000 0.335729 0.119783
1.000000 0.414435 0.285588
0.145754 0.165560 0.130831
0.156558 0.167849 0.132662
0.210056 0.195346 0.136294
0.319554 0.230808 0.184085
0.657771 0.327398 0.170718
0.973449 0.406561 0.177798
1.000000 0.460609 0.280125
1.000000 0.540703 0.428168
0.215335 0.263920 0.172183
0.228794 0.262638 0.176181
0.279057 0.296635 0.179843
0.467140 0.421057 0.179629
0.707393 0.509972 0.323583
0.933440 0.599390 0.443275
1.000000 0.658045 0.529870
1.000000 0.719570 0.633783
0.355871 0.474983 0.228611
0.373968 0.473915 0.234806
0.441352 0.509606 0.248112
0.582422 0.602014 0.274022
0.819883 0.743435 0.368078
0.927886 0.763638 0.598474
0.983398 0.822599 0.753872
1.000000 0.857725 0.800839
0.554376 0.723537 0.384436
0.573938 0.726040 0.395880
0.631495 0.736416 0.426276
0.720974 0.784695 0.480995
0.837003 0.841123 0.564782
0.958556 0.903563 0.694484
0.995178 0.907164 0.815732
1.000000 0.930755 0.891569
0.750820 0.883024 0.642908
0.760220 0.882963 0.648524
0.793118 0.880980 0.667170
0.837980 0.900389 0.703853
0.894682 0.924651 0.752285
0.953277 0.949248 0.807767
1.000000 0.971374 0.871122
1.000000 0.967224 0.918853
0.887816 0.965789 0.831205
0.891356 0.965545 0.833188
0.905730 0.964691 0.841764
0.926238 0.968780 0.858305
0.947845 0.975463 0.876432
0.973236 0.983734 0.903075
0.994171 0.990051 0.928344
1.000000 0.993744 0.951629
0.115969 0.117922 0.120699
0.122744 0.116121 0.123842
0.192660 0.109041 0.123873
0.334874 0.125795 0.129641
0.660243 0.156924 0.113741
0.979736 0.222507 0.048371
1.000000 0.295262 0.147951
1.000000 0.390875 0.290929
0.115663 0.123415 0.124392
0.125551 0.125551 0.125551
0.193545 0.133639 0.130190
0.335515 0.154025 0.138003
0.655421 0.201297 0.126680
0.974426 0.266026 0.098207
1.000000 0.328313 0.173312
1.000000 0.417731 0.313756
0.140078 0.172763 0.142489
0.156954 0.171115 0.146365
0.204471 0.193820 0.153445
0.320256 0.231724 0.192538
0.648432 0.319249 0.191165
0.961028 0.396124 0.207187
1.000000 0.454139 0.297795
1.000000 0.540734 0.440467
0.206332 0.267552 0.181003
0.222171 0.266423 0.185000
0.273198 0.292088 0.193668
0.442237 0.401282 0.203311
0.671626 0.488319 0.333440
0.917449 0.584009 0.435401
1.000000 0.647425 0.524010
1.000000 0.714443 0.632044
0.342107 0.477241 0.239994
0.362127 0.475502 0.245670
0.430365 0.498970 0.263310
0.566583 0.588312 0.291417
0.803098 0.730251 0.383459
0.916655 0.756649 0.602167
0.980713 0.818540 0.750820
1.000000 0.855741 0.800046
0.541222 0.720943 0.392157
0.558556 0.720668 0.399969
0.620142 0.725093 0.431006
0.711513 0.776089 0.486580
0.829801 0.835416 0.571496
0.953857 0.900877 0.701350
0.992279 0.906310 0.818845
1.000000 0.930602 0.892943
0.743130 0.880980 0.643305
0.751186 0.880064 0.646693
0.785092 0.877989 0.665126
0.832792 0.895933 0.702907
0.891569 0.921965 0.753597
0.950958 0.947539 0.809323
0.999573 0.970367 0.871916
1.000000 0.966674 0.919097
0.884367 0.965118 0.830289
0.888426 0.965087 0.832914
0.902983 0.964202 0.841367
0.924651 0.967620 0.858091
0.948760 0.975891 0.880705
0.973297 0.983795 0.905760
0.993866 0.990021 0.929961
1.000000 0.993805 0.952911
0.110811 0.133333 0.166049
0.117556 0.130007 0.171084
0.176486 0.116518 0.182589
0.282506 0.107057 0.192660
0.591699 0.000000 0.210025
0.959899 0.000000 0.215579
1.000000 0.270207 0.295323
1.000000 0.432624 0.416541
0.127077 0.149050 0.170596
0.135897 0.149966 0.173648
0.179202 0.134249 0.184115
0.293065 0.126528 0.194369
0.610071 0.000000 0.191775
0.960235 0.138857 0.229801
1.000000 0.307744 0.303929
1.000000 0.457954 0.431861
0.123720 0.182467 0.188022
0.139803 0.183810 0.188418
0.189425 0.189425 0.189425
0.338689 0.218997 0.211856
0.659663 0.277073 0.239536
0.964691 0.361089 0.290867
1.000000 0.460304 0.394446
1.000000 0.577874 0.530053
0.121462 0.293462 0.222171
0.156100 0.293614 0.220096
0.259098 0.290501 0.235325
0.409094 0.381781 0.271946
0.638880 0.485603 0.409491
0.919646 0.589319 0.484901
1.000000 0.665949 0.583734
1.000000 0.740627 0.685756
0.260044 0.502403 0.285283
0.296849 0.501732 0.291173
0.403693 0.499947 0.317754
0.543847 0.574731 0.367132
0.778927 0.720790 0.476905
0.895445 0.763821 0.662226
0.980560 0.826505 0.770413
1.000000 0.865110 0.820066
0.501335 0.733761 0.444465
0.522942 0.733577 0.451698
0.597436 0.731685 0.479652
0.698085 0.764309 0.535912
0.817136 0.828000 0.622950
0.941650 0.898070 0.740444
0.984100 0.910094 0.841794
1.000000 0.936370 0.907286
0.733394 0.887053 0.674525
0.742031 0.886259 0.677760
0.776547 0.884001 0.693324
0.829618 0.891356 0.726650
0.888457 0.919280 0.775875
0.947814 0.946868 0.830167
0.996033 0.971374 0.889464
1.000000 0.969696 0.930846
0.880217 0.967346 0.840970
0.883696 0.967010 0.842527
0.898680 0.966094 0.850462
0.924010 0.966339 0.866850
0.948363 0.975219 0.889372
0.972992 0.983734 0.914275
0.993103 0.990265 0.937713
1.000000 0.994232 0.959075
0.091615 0.186191 0.277440
0.106294 0.183810 0.282719
0.171695 0.164797 0.293980
0.287114 0.121828 0.300694
0.450660 0.000000 0.327947
0.823514 0.000000 0.408881
1.000000 0.000000 0.394079
1.000000 0.402045 0.515160
0.128084 0.209628 0.285771
0.136843 0.207218 0.289616
0.180514 0.185916 0.298711
0.291051 0.141482 0.304173
0.458839 0.056764 0.330236
0.840665 0.000000 0.405768
1.000000 0.000000 0.393896
1.000000 0.459907 0.542077
0.142794 0.250706 0.306584
0.165774 0.253758 0.307713
0.222232 0.256779 0.310002
0.301427 0.203983 0.311559
0.504845 0.167269 0.340337
0.904845 0.000000 0.390723
1.000000 0.393408 0.485512
1.000000 0.627008 0.642115
0.000000 0.318059 0.334447
0.060914 0.318425 0.333898
0.199680 0.320348 0.331334
0.323369 0.323369 0.323369
0.637690 0.418769 0.405798
0.916197 0.539635 0.514305
1.000000 0.658534 0.633814
1.000000 0.755276 0.735286
0.000000 0.541131 0.424872
0.000000 0.540215 0.419837
0.191836 0.538415 0.403906
0.481086 0.536278 0.439704
0.716854 0.683375 0.561791
0.855680 0.762936 0.720912
0.982849 0.830014 0.790951
1.000000 0.873411 0.843687
0.346654 0.757412 0.517937
0.393622 0.758907 0.526787
0.518395 0.755764 0.550347
0.665766 0.753353 0.598413
0.794186 0.813443 0.684291
0.922087 0.891844 0.788724
0.971954 0.914977 0.872648
1.000000 0.942901 0.922393
0.698878 0.896269 0.714046
0.710140 0.895995 0.717952
0.752010 0.894560 0.732845
0.816373 0.892699 0.760586
0.881376 0.913634 0.806119
0.942046 0.945159 0.858732
0.990600 0.972229 0.912474
1.000000 0.973663 0.946502
0.870146 0.972198 0.858701
0.874205 0.971923 0.860349
0.890196 0.970947 0.867460
0.917571 0.969574 0.881163
0.946654 0.973663 0.901915
0.971801 0.983246 0.926268
0.991730 0.990509 0.948852
1.000000 0.994965 0.968322
0.000000 0.307530 0.541283
0.000000 0.302525 0.545983
0.000000 0.262608 0.553796
0.323186 0.199893 0.554437
0.508293 0.000000 0.536248
0.707607 0.000000 0.546593
0.967559 0.000000 0.579980
1.000000 0.133364 0.600732
0.000000 0.338140 0.551568
0.000000 0.333227 0.555413
0.000000 0.295659 0.560937
0.325505 0.226474 0.558679
0.510887 0.012360 0.538476
0.713100 0.000000 0.547967
0.976135 0.000000 0.581231
1.000000 0.243168 0.607782
0.113588 0.416968 0.574182
0.182650 0.421515 0.575402
0.251560 0.404852 0.576623
0.340276 0.324315 0.568475
0.517266 0.196078 0.542351
0.727474 0.047303 0.546807
1.000000 0.000000 0.586847
1.000000 0.452308 0.643305
0.000000 0.480690 0.595178
0.118044 0.482795 0.594812
0.312047 0.494789 0.594293
0.447303 0.499763 0.584833
0.534539 0.361364 0.552331
0.759182 0.333318 0.550622
1.000000 0.502190 0.637781
1.000000 0.693751 0.742275
0.000000 0.567498 0.600855
0.000000 0.567590 0.599664
0.159426 0.567956 0.595239
0.397284 0.566278 0.582818
0.555230 0.555230 0.555230
0.843809 0.688746 0.681056
0.990997 0.792508 0.782528
1.000000 0.860838 0.851591
0.000000 0.772457 0.671351
0.000000 0.772000 0.669032
0.027649 0.767269 0.656825
0.484474 0.758511 0.642664
0.718624 0.759274 0.690272
0.881926 0.864347 0.807065
0.953643 0.911559 0.892638
1.000000 0.942809 0.927428
0.582910 0.906584 0.751156
0.597711 0.905730 0.752010
0.656062 0.903105 0.758236
0.753750 0.900481 0.781277
0.851408 0.899351 0.817807
0.926482 0.935241 0.874510
0.983307 0.970581 0.929931
0.998322 0.976471 0.959991
0.833066 0.977447 0.869291
0.838315 0.977111 0.870878
0.859281 0.975860 0.877714
0.896117 0.974517 0.892363
0.936156 0.972900 0.910979
0.967468 0.980896 0.935515
0.989502 0.990173 0.958892
1.000000 0.995575 0.977020
0.000000 0.496040 0.804105
0.000000 0.494179 0.805814
0.204929 0.478462 0.808255
0.344152 0.410590 0.809476
0.533562 0.284550 0.800443
0.734157 0.000000 0.775051
0.933135 0.000000 0.762234
1.000000 0.000000 0.734401
0.118685 0.523522 0.803311
0.167788 0.521172 0.804105
0.273594 0.505455 0.806363
0.364874 0.437720 0.806058
0.533593 0.312261 0.796933
0.731930 0.000000 0.772061
0.931426 0.000000 0.759396
1.000000 0.000000 0.732052
0.410742 0.620874 0.811032
0.417517 0.618219 0.811398
0.444312 0.605280 0.812436
0.467414 0.549035 0.808560
0.556695 0.430304 0.799466
0.737026 0.227298 0.774502
0.936797 0.160098 0.759609
1.000000 0.193942 0.731502
0.472694 0.679164 0.820706
0.495399 0.683589 0.820157
0.578943 0.704250 0.819791
0.630915 0.702052 0.817990
0.627588 0.607721 0.806119
0.750393 0.438514 0.780026
0.939910 0.421393 0.761227
1.000000 0.526207 0.765927
0.455756 0.724239 0.822812
0.477394 0.726741 0.822629
0.554070 0.736843 0.821469
0.658381 0.754879 0.819547
0.730251 0.758236 0.809384
0.757076 0.618769 0.773281
0.928161 0.605554 0.756130
1.000000 0.766140 0.832303
0.356054 0.782498 0.816068
0.382147 0.783749 0.816190
0.462470 0.785061 0.813657
0.569818 0.786343 0.807950
0.675319 0.783627 0.795712
0.768765 0.768765 0.768765
0.954864 0.873899 0.870237
1.000000 0.928862 0.924895
0.209781 0.923796 0.861570
0.278294 0.923430 0.860533
0.431708 0.920623 0.854917
0.601129 0.915740 0.846494
0.756893 0.910063 0.843015
0.886839 0.909056 0.871885
0.971740 0.964446 0.941466
0.994018 0.979522 0.972930
0.753689 0.986938 0.893889
0.760891 0.986481 0.894255
0.790921 0.984802 0.897063
0.842893 0.982300 0.904784
0.904051 0.979400 0.920409
0.955505 0.977325 0.940887
0.985901 0.988861 0.967346
0.999756 0.996307 0.985595
0.529656 0.700465 0.926848
0.545983 0.705165 0.928740
0.578515 0.705440 0.929503
0.607477 0.685512 0.932097
0.628168 0.613428 0.934051
0.710475 0.473640 0.931884
0.874632 0.227268 0.920165
1.000000 0.198032 0.906462
0.533593 0.702174 0.919249
0.550500 0.707515 0.921721
0.579339 0.706630 0.922789
0.603723 0.684749 0.924163
0.618860 0.609369 0.924987
0.697841 0.465461 0.920226
0.859983 0.212924 0.904997
1.000000 0.147799 0.889128
0.645624 0.769558 0.923339
0.649714 0.769284 0.923644
0.661402 0.764340 0.923461
0.682338 0.751247 0.923461
0.674830 0.684932 0.922210
0.720668 0.557946 0.918914
0.868833 0.365057 0.910124
1.000000 0.362463 0.897917
0.725826 0.826932 0.929747
0.733425 0.829007 0.929076
0.762203 0.837613 0.927520
0.771603 0.829313 0.928435
0.764920 0.791226 0.925566
0.776974 0.704952 0.922454
0.882078 0.548180 0.914946
1.000000 0.540185 0.898283
0.717372 0.841886 0.929076
0.721248 0.841459 0.927459
0.749325 0.847623 0.925841
0.802274 0.864164 0.926452
0.831266 0.864317 0.924437
0.814969 0.801785 0.915435
0.879026 0.675319 0.901823
1.000000 0.680537 0.892027
0.697566 0.865385 0.929229
0.706081 0.867063 0.929473
0.736080 0.872343 0.929717
0.786343 0.882383 0.930510
0.845365 0.895842 0.931304
0.890135 0.904051 0.930510
0.896910 0.813687 0.907256
1.000000 0.803922 0.893828
0.659998 0.907713 0.932403
0.670405 0.909178 0.933196
0.696803 0.910521 0.932525
0.744167 0.913573 0.931762
0.798703 0.915373 0.928496
0.854276 0.914672 0.921782
0.902220 0.902220 0.902220
0.998444 0.967407 0.966033
0.558343 0.999390 0.965850
0.567742 0.999176 0.965606
0.632624 0.997833 0.963317
0.722591 0.993957 0.957458
0.819150 0.988647 0.951049
0.907713 0.983825 0.950561
0.972839 0.982147 0.966705
0.998108 0.996460 0.991424
0.726619 0.822324 0.974578
0.733150 0.824643 0.975158
0.746120 0.825284 0.975158
0.774746 0.829648 0.976776
0.773281 0.800992 0.979828
0.780636 0.743893 0.983337
0.825742 0.632990 0.988525
0.947509 0.447364 0.990570
0.727291 0.823209 0.972045
0.733730 0.825498 0.972717
0.748165 0.827298 0.973266
0.773739 0.829801 0.974670
0.773434 0.802487 0.977569
0.779446 0.745418 0.980926
0.821683 0.631128 0.985290
0.943236 0.440711 0.986236
0.761807 0.847440 0.970123
0.765286 0.848234 0.970428
0.774990 0.848325 0.970794
0.800870 0.853666 0.973785
0.802487 0.832792 0.975463
0.799466 0.779110 0.977569
0.832334 0.678340 0.981506
0.943145 0.504448 0.983124
0.810727 0.882597 0.968414
0.813840 0.883574 0.968994
0.821073 0.883940 0.969757
0.836027 0.885252 0.971862
0.849393 0.879301 0.973541
0.839750 0.837888 0.975463
0.857298 0.759823 0.978515
0.947631 0.620630 0.980682
0.806577 0.891814 0.970703
0.812741 0.894194 0.971008
0.829984 0.899626 0.970459
0.868070 0.914611 0.970733
0.881926 0.913848 0.972168
0.878325 0.891081 0.972808
0.881437 0.833433 0.974365
0.951873 0.727993 0.976684
0.805631 0.908324 0.973877
0.807980 0.908446 0.973388
0.821439 0.910887 0.972351
0.851804 0.919097 0.972076
0.894652 0.933684 0.973297
0.927520 0.944549 0.976684
0.925200 0.917449 0.978271
0.965087 0.847990 0.979400
0.812680 0.935698 0.980102
0.815854 0.936126 0.979980
0.829892 0.938231 0.979614
0.858946 0.943877 0.979797
0.897490 0.952575 0.980499
0.939452 0.964691 0.982635
0.969116 0.974701 0.985473
0.971832 0.924254 0.977966
0.810391 0.968566 0.985840
0.812894 0.968658 0.985718
0.826261 0.969696 0.985565
0.853422 0.972320 0.985748
0.887419 0.975586 0.985809
0.922881 0.978973 0.985626
0.954925 0.981628 0.984894
0.976623 0.976623 0.976623
