20 Preset/Travel Style 2/【3】LUT video cho PR-AE-FCPX/Travel 2 LUT (24).cube
# Created by Adobe Lightroom plugin Export LUT (1.24.0)
# www.johnrellis.com/lightroom/exportlut.htm
# Preset: 24素材江湖 - DRONE
# Color profile: E:\lut插件\exportlut.1.24\exportlut.lrplugin\color profiles\Rec709gamma2.4.icc
LUT_3D_SIZE 8
DOMAIN_MIN 0.000000 0.000000 0.000000
DOMAIN_MAX 0.903226 0.903226 0.903226
0.167178 0.167178 0.167178
0.170565 0.167819 0.168093
0.228305 0.173373 0.177920
0.317357 0.210788 0.212985
0.474098 0.274846 0.271519
0.736141 0.386938 0.375952
0.923369 0.543450 0.531914
1.000000 0.719234 0.712062
0.161288 0.176364 0.166323
0.175174 0.176730 0.165652
0.209934 0.190433 0.187350
0.298100 0.227726 0.221805
0.453376 0.292607 0.280522
0.700404 0.397528 0.377752
0.901213 0.545922 0.527947
0.998627 0.719234 0.708949
0.000000 0.345708 0.115450
0.157565 0.331212 0.121859
0.263584 0.277623 0.141390
0.307317 0.272099 0.246738
0.419104 0.358862 0.342199
0.667811 0.481758 0.446418
0.875883 0.634150 0.603632
0.978851 0.773281 0.755886
0.000000 0.802518 0.000000
0.000000 0.782040 0.000000
0.371618 0.696925 0.000000
0.486610 0.520439 0.000000
0.615991 0.496437 0.261021
0.599420 0.593347 0.590906
0.816403 0.728695 0.705226
0.940520 0.832059 0.812467
0.000000 1.000000 0.000000
0.000000 0.994751 0.000000
0.220768 0.971191 0.000000
0.582605 0.914763 0.000000
0.731746 0.786099 0.000000
0.884306 0.740078 0.222599
0.873381 0.776059 0.705379
0.898741 0.880095 0.873625
0.000000 1.000000 0.063294
0.000000 1.000000 0.030549
0.142580 1.000000 0.000000
0.478248 1.000000 0.000000
0.698177 0.993835 0.000000
0.865629 0.931640 0.000000
1.000000 0.901640 0.323674
1.000000 0.913634 0.825742
0.440040 1.000000 0.536370
0.455299 1.000000 0.537072
0.472175 1.000000 0.501091
0.522454 1.000000 0.424201
0.622126 1.000000 0.273167
0.766720 1.000000 0.000000
0.927794 1.000000 0.000000
1.000000 0.982849 0.524651
0.666133 1.000000 0.716823
0.675502 1.000000 0.721462
0.693324 1.000000 0.722927
0.695155 1.000000 0.691279
0.691829 1.000000 0.613214
0.729976 1.000000 0.503410
0.815274 1.000000 0.299992
0.945769 1.000000 0.000000
0.167056 0.167819 0.169406
0.169162 0.169162 0.169162
0.229953 0.174044 0.179751
0.311955 0.217563 0.218662
0.470222 0.280125 0.278019
0.710689 0.379400 0.371923
0.906401 0.526055 0.516838
1.000000 0.703059 0.696925
0.164065 0.175143 0.170382
0.178164 0.176425 0.170779
0.214908 0.195315 0.192538
0.301549 0.234195 0.228946
0.458473 0.298222 0.288212
0.695094 0.397833 0.381384
0.892607 0.538262 0.522515
0.994018 0.707668 0.698421
0.089723 0.325933 0.144137
0.169558 0.317052 0.145388
0.266392 0.274907 0.151247
0.300175 0.275639 0.260960
0.420661 0.357671 0.341344
0.657954 0.473243 0.440314
0.862821 0.614313 0.584344
0.973358 0.758511 0.741268
0.000000 0.766415 0.000000
0.000000 0.746975 0.000000
0.362371 0.663722 0.000000
0.464698 0.492012 0.000000
0.580194 0.469734 0.276280
0.582757 0.570825 0.566094
0.802579 0.708400 0.683803
0.934356 0.818845 0.798489
0.000000 0.995911 0.000000
0.000000 0.989990 0.000000
0.233555 0.965026 0.000000
0.579858 0.904570 0.000000
0.720577 0.770321 0.000000
0.870268 0.726619 0.248203
0.860838 0.768887 0.704616
0.895506 0.874571 0.867430
0.000000 1.000000 0.235508
0.000000 1.000000 0.217105
0.214389 1.000000 0.088533
0.487404 1.000000 0.000000
0.699306 0.990723 0.000000
0.864195 0.927642 0.000000
1.000000 0.897124 0.346044
0.998047 0.911192 0.826413
0.476081 1.000000 0.564569
0.492042 1.000000 0.567895
0.503777 1.000000 0.533379
0.544213 1.000000 0.460426
0.632685 1.000000 0.323308
0.769039 1.000000 0.000000
0.927459 0.998932 0.000000
1.000000 0.980224 0.528618
0.676967 1.000000 0.727016
0.688014 1.000000 0.733150
0.709102 1.000000 0.738369
0.709682 1.000000 0.707942
0.716274 1.000000 0.648981
0.743801 1.000000 0.540612
0.819211 1.000000 0.339483
0.946685 1.000000 0.000000
0.162325 0.174655 0.199008
0.177310 0.174960 0.191958
0.195560 0.195560 0.195560
0.322637 0.228336 0.248631
0.544213 0.272313 0.303716
0.771847 0.390204 0.408148
0.933288 0.552758 0.558556
1.000000 0.722133 0.723537
0.172030 0.184817 0.205783
0.189853 0.187808 0.200473
0.214786 0.212924 0.213626
0.354894 0.234012 0.250858
0.526116 0.302068 0.313695
0.753811 0.413489 0.417060
0.920531 0.564630 0.563134
1.000000 0.727413 0.725551
0.170108 0.266026 0.218204
0.192203 0.283268 0.218326
0.282628 0.268254 0.218296
0.322667 0.305303 0.300206
0.490120 0.386358 0.369207
0.719173 0.500908 0.475288
0.889189 0.637629 0.617426
0.984253 0.769986 0.758358
0.000000 0.698390 0.081392
0.000000 0.728206 0.063386
0.367498 0.647211 0.075685
0.474250 0.483772 0.124056
0.577874 0.479164 0.370459
0.647425 0.608423 0.594995
0.834867 0.730831 0.707637
0.948638 0.830350 0.812711
0.000000 0.980926 0.191104
0.000000 0.984619 0.221866
0.317693 0.960906 0.004517
0.594720 0.900206 0.000000
0.730922 0.766384 0.000000
0.869108 0.724514 0.377234
0.845609 0.788052 0.754788
0.910185 0.882780 0.874174
0.375097 1.000000 0.503990
0.425940 1.000000 0.521324
0.465888 1.000000 0.468208
0.562982 1.000000 0.345129
0.716426 0.987304 0.000000
0.870176 0.923430 0.000000
1.000000 0.892241 0.464302
0.989502 0.916777 0.853513
0.633326 1.000000 0.692683
0.647333 1.000000 0.699001
0.665309 1.000000 0.690791
0.670375 1.000000 0.634211
0.701747 1.000000 0.523400
0.789395 1.000000 0.302586
0.933928 0.998535 0.000000
1.000000 0.978027 0.618769
0.747768 1.000000 0.789395
0.754391 1.000000 0.792691
0.783658 1.000000 0.808896
0.784573 1.000000 0.788937
0.781033 1.000000 0.740475
0.791745 1.000000 0.653315
0.840208 1.000000 0.485573
0.950988 1.000000 0.000000
0.174655 0.188663 0.255100
0.195377 0.194827 0.251164
0.230289 0.226566 0.231815
0.263890 0.263890 0.263890
0.461158 0.327001 0.366491
0.794400 0.376806 0.465553
0.976074 0.535088 0.586969
1.000000 0.720333 0.740230
0.188968 0.206485 0.267063
0.209903 0.212009 0.262760
0.242222 0.241917 0.242405
0.280369 0.280369 0.280369
0.499672 0.334539 0.378943
0.819181 0.386816 0.467262
0.966155 0.561059 0.599390
1.000000 0.731868 0.747127
0.190524 0.264988 0.290898
0.216342 0.268620 0.296025
0.284489 0.284489 0.284489
0.388495 0.321447 0.336065
0.623194 0.380285 0.404334
0.814023 0.508598 0.519005
0.936431 0.660151 0.662348
1.000000 0.782589 0.783322
0.000000 0.452033 0.320653
0.113558 0.483040 0.331548
0.364538 0.604639 0.359777
0.502190 0.464088 0.312078
0.535515 0.527520 0.524498
0.732876 0.645502 0.626276
0.879210 0.749599 0.731472
0.970794 0.838926 0.826993
0.000000 0.930327 0.462226
0.229282 0.937469 0.489052
0.528283 0.948516 0.549737
0.638972 0.886870 0.382177
0.748104 0.750668 0.118898
0.850401 0.732204 0.577569
0.827543 0.823545 0.821988
0.935210 0.894835 0.884642
0.628687 1.000000 0.706050
0.659754 1.000000 0.722316
0.722591 1.000000 0.744961
0.726436 1.000000 0.664240
0.771176 0.981811 0.477272
0.885496 0.918212 0.000000
0.999664 0.890043 0.641871
0.973388 0.927672 0.896452
0.762905 1.000000 0.808560
0.774136 1.000000 0.814664
0.815061 1.000000 0.837675
0.816678 1.000000 0.812039
0.812619 1.000000 0.738521
0.839780 1.000000 0.580652
0.946258 0.996735 0.192752
1.000000 0.974365 0.735653
0.825406 1.000000 0.859953
0.830991 1.000000 0.863035
0.852934 1.000000 0.875517
0.875425 1.000000 0.884398
0.864836 1.000000 0.850462
0.859342 1.000000 0.787442
0.879149 1.000000 0.664057
0.960266 1.000000 0.396674
0.199222 0.226596 0.354009
0.223087 0.232364 0.350896
0.283787 0.258824 0.332952
0.309880 0.309880 0.309880
0.376623 0.376623 0.376623
0.633417 0.496712 0.542504
0.908751 0.608179 0.678462
1.000000 0.739651 0.784634
0.210056 0.242802 0.367742
0.234409 0.248051 0.364538
0.297124 0.273686 0.345617
0.322057 0.322057 0.322057
0.393042 0.393042 0.393042
0.665248 0.504967 0.556573
0.919860 0.617426 0.683894
1.000000 0.745266 0.787076
0.224308 0.309270 0.414374
0.247440 0.304967 0.410834
0.334447 0.322240 0.389776
0.366430 0.366430 0.366430
0.457221 0.457221 0.457221
0.768643 0.535851 0.594110
0.957824 0.650507 0.698878
1.000000 0.771359 0.798428
0.160647 0.385290 0.400061
0.196902 0.391638 0.407538
0.335271 0.422583 0.444007
0.498817 0.477180 0.482979
0.706203 0.549889 0.561486
0.838529 0.657984 0.661555
0.937652 0.755612 0.757046
1.000000 0.838956 0.840665
0.000000 0.711360 0.483742
0.000000 0.738399 0.506462
0.464637 0.833707 0.604120
0.701228 0.850584 0.638087
0.781094 0.724056 0.500237
0.782162 0.765499 0.757504
0.883207 0.841459 0.831510
0.965118 0.899229 0.889921
0.638880 0.986023 0.751949
0.669947 0.987823 0.765988
0.767269 0.993164 0.813626
0.832578 0.992523 0.828122
0.831846 0.967315 0.703456
0.905638 0.901305 0.414099
0.967895 0.890776 0.793301
0.944884 0.941039 0.939361
0.821469 1.000000 0.869566
0.829160 1.000000 0.873411
0.860014 1.000000 0.889738
0.912596 1.000000 0.921386
0.898283 1.000000 0.877623
0.894163 1.000000 0.770291
0.962127 0.991272 0.479133
1.000000 0.970001 0.838834
0.858000 1.000000 0.896513
0.863371 1.000000 0.899351
0.884276 1.000000 0.910857
0.919707 1.000000 0.932250
0.931334 1.000000 0.931792
0.919097 1.000000 0.891508
0.919524 1.000000 0.805203
0.973449 1.000000 0.603021
0.217350 0.283146 0.529931
0.251987 0.288731 0.526574
0.345556 0.314672 0.507164
0.430793 0.384619 0.466377
0.447303 0.447303 0.447303
0.558434 0.558434 0.558434
0.775692 0.712917 0.735012
0.961791 0.807279 0.846921
0.223484 0.296391 0.536980
0.258061 0.301396 0.532738
0.352575 0.326085 0.513146
0.436316 0.392645 0.470039
0.452735 0.452735 0.452735
0.567437 0.567437 0.567437
0.787839 0.713344 0.738918
0.965332 0.807523 0.846921
0.215366 0.357733 0.587915
0.251835 0.355505 0.583551
0.381811 0.380316 0.563867
0.484535 0.446754 0.516381
0.501884 0.501884 0.501884
0.628748 0.628748 0.628748
0.847654 0.737026 0.770687
0.984375 0.823941 0.858762
0.000000 0.503349 0.652827
0.158328 0.500481 0.651209
0.405646 0.501030 0.645838
0.578027 0.553674 0.612146
0.615839 0.615839 0.615839
0.766812 0.715236 0.731991
0.930938 0.786069 0.816129
1.000000 0.856718 0.879545
0.000000 0.531060 0.520012
0.000000 0.539117 0.528069
0.241825 0.576471 0.566186
0.573754 0.659541 0.654749
0.773129 0.737789 0.737484
0.873442 0.798245 0.797696
0.950927 0.853910 0.854490
1.000000 0.903990 0.906004
0.000000 0.863035 0.638117
0.243198 0.874998 0.662074
0.594141 0.911894 0.751614
0.833494 0.962860 0.867521
0.891386 0.957885 0.860166
0.929076 0.888304 0.749233
0.921752 0.915526 0.912749
0.973602 0.952178 0.947509
0.815549 1.000000 0.886564
0.827207 1.000000 0.891997
0.865568 1.000000 0.910399
0.926421 1.000000 0.944213
0.964019 1.000000 0.965270
0.945495 1.000000 0.906249
0.984283 0.984558 0.712001
1.000000 0.973327 0.931121
0.898070 1.000000 0.934844
0.900694 1.000000 0.935943
0.914214 1.000000 0.942473
0.937896 1.000000 0.954894
0.965515 1.000000 0.971069
0.967559 1.000000 0.963561
0.958160 1.000000 0.914305
0.987976 1.000000 0.774228
0.263645 0.379675 0.756924
0.309026 0.388891 0.758053
0.428717 0.417426 0.742916
0.566217 0.489174 0.713436
0.640467 0.612573 0.651850
0.651911 0.651911 0.651911
0.752895 0.752895 0.752895
0.863859 0.859220 0.860960
0.255070 0.380285 0.743801
0.301549 0.389807 0.746181
0.421210 0.416785 0.732143
0.554376 0.481758 0.699825
0.625635 0.598596 0.636591
0.633143 0.633143 0.633143
0.734737 0.734737 0.734737
0.852964 0.841581 0.845823
0.253513 0.438880 0.779294
0.305028 0.444923 0.776425
0.440253 0.469551 0.760403
0.585412 0.530938 0.729427
0.659327 0.637293 0.668482
0.668421 0.668421 0.668421
0.775570 0.775570 0.775570
0.897459 0.866026 0.877043
0.317540 0.581231 0.823301
0.360204 0.580499 0.820218
0.459602 0.570336 0.808164
0.637140 0.623529 0.784695
0.728756 0.710903 0.737270
0.739956 0.739956 0.739956
0.835233 0.835233 0.835233
0.946807 0.891844 0.908446
0.000000 0.669795 0.804715
0.000000 0.670008 0.805509
0.328283 0.685878 0.820493
0.630396 0.713893 0.826108
0.779049 0.763394 0.796262
0.805722 0.805722 0.805722
0.900786 0.869047 0.879179
0.987945 0.918547 0.933379
0.000000 0.664820 0.632715
0.000000 0.671015 0.639063
0.000000 0.695430 0.665248
0.249638 0.744533 0.722866
0.738430 0.821927 0.819760
0.919005 0.890379 0.893034
0.972778 0.930053 0.931395
1.000000 0.955657 0.957580
0.000000 0.945525 0.686854
0.000000 0.950530 0.699245
0.165469 0.962982 0.754147
0.721645 0.978485 0.859617
0.938903 0.993561 0.956481
0.978637 0.996246 0.974090
0.992889 0.973144 0.911254
0.983459 0.982666 0.982361
0.802792 1.000000 0.908629
0.816953 1.000000 0.913787
0.871061 1.000000 0.935149
0.936675 1.000000 0.964050
0.970642 1.000000 0.980346
0.992554 1.000000 0.993652
0.986755 1.000000 0.979339
0.999420 1.000000 0.897673
0.451637 0.542687 0.908171
0.479622 0.552483 0.907744
0.558892 0.576410 0.896483
0.679408 0.638209 0.880064
0.777371 0.718471 0.849454
0.802121 0.802121 0.802121
0.815610 0.815610 0.815610
0.881621 0.881621 0.881621
0.435492 0.536980 0.902251
0.464942 0.546807 0.902068
0.550652 0.573816 0.892851
0.671138 0.632471 0.875334
0.771084 0.712398 0.844663
0.797055 0.797055 0.797055
0.808621 0.808621 0.808621
0.876677 0.876677 0.876677
0.431312 0.565698 0.908354
0.459083 0.572686 0.906920
0.548455 0.596521 0.897154
0.682307 0.659937 0.885832
0.780819 0.729183 0.854765
0.806821 0.806821 0.806821
0.819486 0.819486 0.819486
0.888884 0.888884 0.888884
0.449317 0.642084 0.921263
0.472450 0.644587 0.920928
0.541924 0.648188 0.914855
0.682124 0.695216 0.901762
0.797177 0.759945 0.877134
0.836790 0.835660 0.837095
0.850340 0.850340 0.850340
0.917144 0.917144 0.917144
0.252628 0.718410 0.937713
0.323247 0.721736 0.937865
0.479683 0.727749 0.932952
0.656855 0.748196 0.925017
0.797391 0.790311 0.905943
0.870787 0.859281 0.876219
0.886839 0.886839 0.886839
0.945068 0.945068 0.945068
0.000000 0.798032 0.921538
0.000000 0.797360 0.921477
0.000000 0.800076 0.924681
0.494697 0.819211 0.935912
0.768063 0.854307 0.945006
0.915587 0.905699 0.936736
0.937163 0.937163 0.937163
0.972992 0.969879 0.971008
0.000000 0.918303 0.874571
0.000000 0.917571 0.874754
0.000000 0.915190 0.876768
0.000000 0.913817 0.886198
0.337652 0.912718 0.905943
0.844083 0.933928 0.944945
0.969726 0.969726 0.969726
1.000000 0.984436 0.986908
0.000000 1.000000 0.771969
0.000000 1.000000 0.772244
0.000000 1.000000 0.779049
0.000000 1.000000 0.818204
0.668055 1.000000 0.899870
0.947112 1.000000 0.974975
0.999359 1.000000 0.999451
1.000000 0.998596 0.987549
