20 Preset/Travel Style 2/【3】LUT video cho PR-AE-FCPX/Travel 2 LUT (23).cube
# Created by Adobe Lightroom plugin Export LUT (1.24.0)
# www.johnrellis.com/lightroom/exportlut.htm
# Preset: 23素材江湖 - DRONE
# Color profile: E:\lut插件\exportlut.1.24\exportlut.lrplugin\color profiles\Rec709gamma2.4.icc
LUT_3D_SIZE 8
DOMAIN_MIN 0.000000 0.000000 0.000000
DOMAIN_MAX 0.903226 0.903226 0.903226
0.111482 0.111482 0.111482
0.112612 0.111360 0.111482
0.147402 0.107301 0.111788
0.222354 0.104036 0.110506
0.334905 0.106844 0.104128
0.523186 0.105104 0.079896
0.798123 0.098116 0.000000
1.000000 0.097017 0.000000
0.111177 0.114290 0.111727
0.115846 0.114961 0.111543
0.149477 0.116640 0.111086
0.221775 0.119509 0.109041
0.332128 0.127504 0.102419
0.515953 0.138003 0.074037
0.778042 0.152316 0.000000
1.000000 0.163668 0.000000
0.120577 0.148806 0.114107
0.129305 0.149691 0.115267
0.168643 0.152010 0.110231
0.237125 0.164004 0.105196
0.352819 0.192905 0.092927
0.548974 0.230961 0.014801
0.817411 0.276951 0.000000
1.000000 0.299992 0.000000
0.159121 0.232273 0.136263
0.170230 0.234348 0.138918
0.211948 0.241459 0.135317
0.282719 0.241947 0.116060
0.403754 0.265354 0.092134
0.610956 0.362371 0.000000
0.852995 0.424750 0.000000
1.000000 0.447272 0.000000
0.229007 0.394751 0.160800
0.243626 0.398596 0.163912
0.302861 0.417090 0.173709
0.391882 0.424872 0.134981
0.484810 0.405646 0.067536
0.640314 0.416938 0.000000
0.873106 0.527886 0.000000
1.000000 0.598718 0.000000
0.346288 0.655726 0.191379
0.368261 0.666011 0.200809
0.440955 0.684535 0.232029
0.544762 0.695399 0.216220
0.668605 0.689845 0.082246
0.777951 0.645899 0.000000
0.915038 0.600519 0.000000
1.000000 0.668605 0.000000
0.536431 0.872557 0.418372
0.552300 0.874876 0.429053
0.607874 0.880491 0.465217
0.696376 0.889769 0.522759
0.768948 0.886351 0.453498
0.882567 0.880247 0.350439
0.988037 0.829709 0.205447
1.000000 0.735042 0.041535
0.772335 0.980224 0.721553
0.778714 0.980285 0.725917
0.804807 0.980713 0.744869
0.848844 0.981445 0.778897
0.878691 0.979980 0.770932
0.922911 0.980529 0.738308
0.995300 0.979065 0.685603
1.000000 0.941314 0.602777
0.111330 0.111757 0.113344
0.113039 0.111208 0.113985
0.145937 0.107790 0.114870
0.218509 0.104738 0.115267
0.327825 0.100496 0.113741
0.506279 0.088319 0.104005
0.762936 0.009766 0.024781
1.000000 0.000000 0.000000
0.109194 0.114717 0.114199
0.115572 0.114900 0.114656
0.149935 0.116457 0.114839
0.221073 0.118410 0.114870
0.330083 0.121187 0.112673
0.507500 0.125582 0.101564
0.757046 0.126284 0.009583
0.999756 0.127871 0.000000
0.119356 0.149386 0.120516
0.129366 0.150149 0.122408
0.167056 0.151644 0.118013
0.234623 0.165042 0.114443
0.347051 0.187381 0.109468
0.530266 0.218235 0.087221
0.783505 0.256107 0.000000
1.000000 0.280217 0.000000
0.155428 0.227604 0.143374
0.166751 0.229526 0.146120
0.206790 0.236728 0.146181
0.271427 0.234165 0.128359
0.382361 0.254520 0.111788
0.575860 0.343420 0.000000
0.818051 0.401587 0.000000
1.000000 0.431189 0.000000
0.220951 0.386450 0.170260
0.235691 0.389563 0.173159
0.294316 0.407843 0.187076
0.378149 0.412146 0.153017
0.466682 0.391455 0.107729
0.621302 0.405951 0.000000
0.857450 0.518761 0.000000
1.000000 0.588647 0.000000
0.332067 0.641779 0.201205
0.351385 0.646784 0.207462
0.424598 0.666651 0.236210
0.531151 0.682673 0.231540
0.655970 0.679286 0.128054
0.768338 0.638544 0.000000
0.907683 0.596429 0.000000
1.000000 0.665583 0.000000
0.522545 0.864652 0.412116
0.535637 0.865324 0.418708
0.592584 0.871366 0.454108
0.687861 0.883146 0.521935
0.762570 0.881498 0.457984
0.876097 0.875395 0.356451
0.980865 0.823850 0.212894
1.000000 0.730953 0.088136
0.764218 0.978149 0.715297
0.772122 0.978546 0.721279
0.798795 0.979034 0.740291
0.844175 0.980041 0.775051
0.882597 0.980987 0.782254
0.923522 0.980835 0.746853
0.994079 0.978790 0.691157
1.000000 0.941314 0.608484
0.102968 0.116274 0.137545
0.108125 0.112337 0.139986
0.149813 0.106752 0.146059
0.220706 0.098543 0.154849
0.333196 0.053864 0.162661
0.521904 0.000000 0.160983
0.784512 0.000000 0.153811
1.000000 0.000000 0.135805
0.107027 0.119814 0.140597
0.111971 0.116945 0.142672
0.153109 0.114046 0.148135
0.223789 0.110262 0.154208
0.336004 0.092103 0.159640
0.520653 0.000000 0.160494
0.778408 0.000000 0.150179
1.000000 0.000000 0.129183
0.107210 0.151461 0.146609
0.118288 0.153017 0.148379
0.162997 0.157137 0.153628
0.236698 0.164523 0.156680
0.356207 0.173465 0.159609
0.545525 0.185092 0.155825
0.799985 0.196506 0.134676
1.000000 0.207340 0.107393
0.135561 0.227329 0.166354
0.153017 0.229892 0.170840
0.203067 0.239994 0.184787
0.269871 0.238163 0.169314
0.392645 0.268162 0.160647
0.591180 0.333165 0.136995
0.836027 0.380011 0.079133
1.000000 0.403296 0.000000
0.191531 0.376043 0.201389
0.208896 0.380346 0.204837
0.275517 0.400641 0.221012
0.372564 0.418555 0.212497
0.469825 0.396857 0.170169
0.635279 0.418738 0.127749
0.867704 0.526818 0.000000
1.000000 0.575860 0.000000
0.292821 0.628229 0.246738
0.315251 0.634180 0.253117
0.397345 0.655116 0.280491
0.521111 0.683345 0.314519
0.644831 0.678340 0.237278
0.762142 0.635828 0.134951
0.909758 0.602258 0.000000
1.000000 0.672663 0.116609
0.509087 0.861357 0.446418
0.523766 0.862364 0.453529
0.584009 0.868193 0.487465
0.685603 0.880827 0.557488
0.763363 0.882567 0.527611
0.870878 0.877195 0.434394
0.978882 0.827939 0.312657
1.000000 0.741695 0.242130
0.759823 0.977508 0.725704
0.766201 0.977447 0.729549
0.793820 0.977996 0.748165
0.842161 0.979553 0.784298
0.886778 0.980743 0.806180
0.924346 0.981109 0.774685
0.990387 0.979522 0.723629
1.000000 0.944366 0.645808
0.066224 0.114015 0.196384
0.096376 0.111971 0.198917
0.150790 0.106630 0.206638
0.225711 0.094789 0.216800
0.328985 0.048829 0.237339
0.508812 0.000000 0.273442
0.773434 0.000000 0.299565
1.000000 0.000000 0.277531
0.073304 0.121645 0.200931
0.095216 0.120089 0.202731
0.151705 0.116274 0.209659
0.229129 0.108705 0.219303
0.334447 0.088380 0.239200
0.516381 0.000000 0.271794
0.779873 0.000000 0.291173
1.000000 0.000000 0.263249
0.109133 0.171786 0.204471
0.120516 0.171481 0.206668
0.155917 0.162875 0.215183
0.237613 0.158968 0.224674
0.356878 0.149660 0.242649
0.555596 0.025391 0.261540
0.828275 0.000000 0.253269
1.000000 0.000000 0.266117
0.105623 0.221012 0.211002
0.118807 0.222660 0.212589
0.165072 0.230533 0.220066
0.260227 0.245457 0.236332
0.396826 0.264317 0.242802
0.597620 0.283574 0.247044
0.846799 0.305516 0.249241
1.000000 0.326787 0.262333
0.000000 0.347234 0.234623
0.081910 0.352575 0.236973
0.209262 0.376318 0.260502
0.355840 0.424750 0.310552
0.465217 0.401678 0.263676
0.657801 0.445960 0.248631
0.884428 0.532067 0.246525
1.000000 0.548821 0.276646
0.149508 0.601312 0.303624
0.198123 0.612055 0.312627
0.326055 0.635554 0.341497
0.496193 0.680415 0.410163
0.635309 0.690974 0.387304
0.758419 0.640711 0.294560
0.917479 0.622217 0.267582
1.000000 0.693141 0.330327
0.451972 0.848386 0.482521
0.473762 0.851041 0.492317
0.552636 0.860136 0.531334
0.670924 0.876493 0.601923
0.774044 0.889097 0.642542
0.863249 0.882963 0.563745
0.970703 0.834745 0.446296
1.000000 0.763241 0.397803
0.746456 0.977417 0.742458
0.754177 0.977539 0.747036
0.784421 0.978058 0.765286
0.835355 0.979217 0.798978
0.893309 0.980896 0.842039
0.925750 0.981598 0.819821
0.983581 0.980529 0.774868
1.000000 0.949798 0.706142
0.000000 0.116335 0.291417
0.000000 0.114931 0.294224
0.139803 0.107973 0.303197
0.246281 0.081300 0.321538
0.353948 0.000000 0.337896
0.507225 0.000000 0.379889
0.754452 0.000000 0.447486
1.000000 0.000000 0.482673
0.000000 0.127871 0.296361
0.000000 0.126833 0.299168
0.138888 0.121675 0.307591
0.247745 0.102235 0.324163
0.357427 0.031281 0.340551
0.513481 0.000000 0.382238
0.762142 0.000000 0.447211
1.000000 0.000000 0.478401
0.000000 0.192874 0.305089
0.012726 0.187747 0.307500
0.127016 0.170443 0.316014
0.247990 0.158999 0.331731
0.367224 0.139193 0.346502
0.530907 0.004517 0.383978
0.786862 0.000000 0.439765
1.000000 0.000000 0.458473
0.000000 0.261295 0.309148
0.055116 0.262669 0.311559
0.157015 0.268925 0.323247
0.245701 0.252506 0.345464
0.392889 0.244785 0.362860
0.585657 0.223056 0.393225
0.843748 0.144717 0.422461
1.000000 0.097322 0.433112
0.000000 0.322026 0.303380
0.000000 0.324346 0.305669
0.121187 0.335729 0.316045
0.241245 0.359777 0.337499
0.435584 0.402686 0.381628
0.653376 0.441413 0.398840
0.882383 0.469490 0.420813
1.000000 0.499489 0.454994
0.000000 0.491493 0.331334
0.000000 0.498909 0.334813
0.000000 0.527916 0.349523
0.324743 0.589471 0.410803
0.593317 0.676539 0.533196
0.725765 0.631830 0.441993
0.910185 0.656672 0.451484
1.000000 0.726528 0.519310
0.000000 0.805631 0.455543
0.083192 0.808011 0.469673
0.373693 0.820645 0.519097
0.572808 0.846860 0.597955
0.752010 0.879423 0.703273
0.845212 0.883665 0.683497
0.948913 0.838437 0.580255
1.000000 0.795285 0.558160
0.664088 0.971313 0.725246
0.675807 0.971496 0.730556
0.720974 0.972503 0.752651
0.797391 0.975738 0.796506
0.874846 0.978759 0.846769
0.926848 0.981262 0.869352
0.973175 0.980560 0.829526
1.000000 0.954040 0.765774
0.000000 0.123384 0.461799
0.000000 0.120577 0.465003
0.004486 0.107271 0.474189
0.266667 0.019867 0.495033
0.428412 0.000000 0.527153
0.573663 0.000000 0.546258
0.770718 0.000000 0.597925
1.000000 0.000000 0.646723
0.000000 0.137514 0.460182
0.000000 0.135561 0.462379
0.000000 0.123934 0.471901
0.260746 0.083009 0.491310
0.422919 0.000000 0.521752
0.569818 0.000000 0.541863
0.768795 0.000000 0.594232
1.000000 0.000000 0.642359
0.000000 0.208133 0.475593
0.000000 0.198581 0.477852
0.000000 0.178897 0.487312
0.244511 0.157534 0.502159
0.424353 0.083589 0.531670
0.584741 0.000000 0.552575
0.792508 0.000000 0.602686
1.000000 0.000000 0.638697
0.000000 0.325170 0.487221
0.000000 0.322484 0.489265
0.000000 0.310185 0.502556
0.189181 0.265202 0.527825
0.429572 0.240391 0.559319
0.623011 0.201511 0.580926
0.838834 0.092470 0.617426
1.000000 0.000000 0.636866
0.000000 0.408423 0.475502
0.000000 0.410346 0.478920
0.000000 0.418677 0.493477
0.223087 0.438300 0.525872
0.410224 0.415595 0.567681
0.649165 0.405737 0.593805
0.868681 0.406561 0.614374
1.000000 0.458412 0.640345
0.000000 0.471748 0.440253
0.000000 0.475685 0.443732
0.000000 0.487068 0.454261
0.000000 0.513420 0.478248
0.360693 0.558160 0.520073
0.686976 0.645960 0.620356
0.893309 0.693477 0.659785
1.000000 0.721889 0.695644
0.000000 0.683925 0.466682
0.000000 0.691341 0.470985
0.000000 0.717464 0.486946
0.000000 0.765957 0.533501
0.584588 0.828885 0.664088
0.841337 0.891569 0.811154
0.922393 0.849943 0.722408
1.000000 0.852323 0.736812
0.301671 0.960662 0.660029
0.342321 0.960876 0.665766
0.475044 0.963104 0.694148
0.662715 0.967163 0.761807
0.813657 0.973236 0.833890
0.919677 0.980011 0.900694
0.963989 0.981720 0.894072
1.000000 0.961181 0.838895
0.000000 0.129274 0.708034
0.000000 0.124239 0.714229
0.000000 0.095491 0.718898
0.247440 0.000000 0.733272
0.465858 0.000000 0.752377
0.661006 0.000000 0.776547
0.823575 0.000000 0.784970
0.989746 0.000000 0.793484
0.000000 0.144167 0.687831
0.000000 0.140505 0.695491
0.000000 0.118227 0.701381
0.228885 0.000000 0.712825
0.448554 0.000000 0.730648
0.638880 0.000000 0.751919
0.795224 0.000000 0.757290
0.959197 0.000000 0.767117
0.000000 0.212131 0.707179
0.000000 0.197818 0.708888
0.000000 0.183719 0.711147
0.160952 0.147524 0.721004
0.432685 0.000000 0.734585
0.638941 0.000000 0.758419
0.816526 0.000000 0.774960
0.994537 0.000000 0.789242
0.000000 0.376440 0.725673
0.000000 0.367254 0.725154
0.000000 0.327214 0.727474
0.000000 0.271427 0.741604
0.401648 0.233616 0.756405
0.647242 0.139986 0.783597
0.849210 0.000000 0.801266
1.000000 0.000000 0.801724
0.000000 0.513756 0.709621
0.000000 0.508202 0.706722
0.000000 0.495430 0.709957
0.000000 0.472541 0.727596
0.318364 0.404211 0.750973
0.618006 0.377386 0.776425
0.848203 0.360327 0.794766
1.000000 0.397772 0.801297
0.000000 0.594293 0.677729
0.000000 0.596124 0.680751
0.000000 0.602045 0.691524
0.000000 0.615747 0.714046
0.403906 0.645441 0.749783
0.637079 0.644038 0.795193
0.871061 0.654261 0.820462
1.000000 0.679957 0.819852
0.000000 0.677974 0.630121
0.000000 0.682399 0.634272
0.000000 0.688991 0.640620
0.000000 0.704585 0.655970
0.000000 0.729244 0.682307
0.564538 0.768948 0.730709
0.878172 0.853086 0.838010
1.000000 0.883909 0.868650
0.000000 0.899229 0.635615
0.000000 0.902464 0.637690
0.000000 0.918486 0.651087
0.000000 0.935302 0.678004
0.422400 0.950317 0.746456
0.803586 0.966674 0.859129
0.962676 0.983459 0.952300
1.000000 0.969055 0.911192
0.000000 0.145571 0.891752
0.000000 0.140902 0.894194
0.000000 0.110384 0.893065
0.000000 0.000000 0.900237
0.422309 0.000000 0.909117
0.628168 0.000000 0.919615
0.823484 0.000000 0.935454
0.981872 0.000000 0.938537
0.000000 0.158511 0.882078
0.000000 0.154238 0.884947
0.000000 0.129549 0.886412
0.000000 0.000000 0.892424
0.412116 0.000000 0.901610
0.620356 0.000000 0.912535
0.815000 0.000000 0.926970
0.972320 0.000000 0.929046
0.000000 0.211063 0.880858
0.000000 0.208042 0.881987
0.000000 0.191867 0.882322
0.000000 0.155978 0.894865
0.381598 0.000000 0.901152
0.605280 0.000000 0.909392
0.808682 0.000000 0.924926
0.973175 0.000000 0.928405
0.000000 0.365972 0.879484
0.000000 0.357763 0.881834
0.000000 0.313115 0.885008
0.000000 0.269139 0.893767
0.306065 0.229099 0.903014
0.580499 0.127932 0.914061
0.803922 0.000000 0.930632
0.983886 0.000000 0.936400
0.000000 0.528618 0.873136
0.000000 0.526421 0.875731
0.000000 0.508141 0.877531
0.000000 0.459388 0.887114
0.000000 0.384710 0.898466
0.529442 0.349248 0.910369
0.785702 0.294255 0.929412
0.990265 0.285893 0.941192
0.000000 0.663508 0.865751
0.000000 0.661250 0.864439
0.000000 0.656977 0.864073
0.000000 0.651728 0.870817
0.267857 0.630274 0.886320
0.521324 0.589593 0.914977
0.793851 0.604608 0.941314
0.998627 0.637385 0.956329
0.000000 0.783902 0.871946
0.000000 0.783444 0.872129
0.000000 0.782681 0.873777
0.000000 0.786954 0.881712
0.324804 0.800259 0.895415
0.662501 0.833799 0.918334
0.827451 0.836088 0.943694
0.985229 0.842863 0.955108
0.000000 0.925902 0.864836
0.000000 0.925048 0.864164
0.000000 0.924651 0.864317
0.000000 0.927245 0.868681
0.000000 0.927306 0.873442
0.387823 0.924590 0.880400
0.754696 0.932097 0.903380
0.977325 0.968536 0.963348
