20 Preset/Travel Style 2/【3】LUT video cho PR-AE-FCPX/Travel 2 LUT (8).cube
# Created by Adobe Lightroom plugin Export LUT (1.24.0)
# www.johnrellis.com/lightroom/exportlut.htm
# Preset: 08素材江湖 - LANDSCAPE
# Color profile: E:\lut插件\exportlut.1.24\exportlut.lrplugin\color profiles\Rec709gamma2.4.icc
LUT_3D_SIZE 8
DOMAIN_MIN 0.000000 0.000000 0.000000
DOMAIN_MAX 0.903226 0.903226 0.903226
0.126223 0.126223 0.126223
0.135103 0.126497 0.126558
0.195224 0.125032 0.126619
0.285863 0.119875 0.125612
0.433356 0.100679 0.120699
0.650355 0.000000 0.103365
0.932219 0.000000 0.001740
1.000000 0.000000 0.000000
0.128969 0.130983 0.128939
0.133425 0.131716 0.129000
0.172946 0.136049 0.128695
0.253056 0.136660 0.127749
0.380713 0.133730 0.125002
0.590997 0.112612 0.112062
0.855650 0.000000 0.041535
1.000000 0.000000 0.000000
0.144594 0.167758 0.147402
0.150942 0.169284 0.146822
0.192294 0.177096 0.150851
0.212192 0.166781 0.143191
0.307652 0.178958 0.141176
0.521477 0.206332 0.129976
0.832456 0.229953 0.065949
1.000000 0.219059 0.000000
0.185275 0.247013 0.193606
0.189487 0.246128 0.191196
0.231296 0.263462 0.194705
0.385443 0.332128 0.219730
0.390967 0.279881 0.186007
0.390051 0.241489 0.160891
0.686000 0.315465 0.129793
0.973571 0.362249 0.064393
0.249943 0.422889 0.277287
0.257450 0.421912 0.273808
0.309911 0.441505 0.274815
0.468452 0.519554 0.304601
0.698848 0.596368 0.371435
0.671077 0.475380 0.259617
0.509483 0.325170 0.179477
0.803494 0.419471 0.143618
0.397833 0.652216 0.436957
0.419562 0.668605 0.449744
0.447059 0.670344 0.438483
0.572137 0.713771 0.477760
0.736629 0.765743 0.537499
0.890806 0.801755 0.638025
0.922148 0.719753 0.521691
0.909117 0.602838 0.330571
0.636561 0.831937 0.662470
0.642451 0.834348 0.664454
0.649042 0.833494 0.654932
0.699062 0.844968 0.666590
0.785458 0.866056 0.699214
0.887663 0.893797 0.746822
0.966888 0.906157 0.804959
0.997070 0.864744 0.749081
0.817441 0.936828 0.831937
0.818021 0.936858 0.831113
0.822690 0.937987 0.829557
0.838560 0.941863 0.831418
0.858549 0.939422 0.824186
0.912902 0.952056 0.849821
0.966064 0.963195 0.875273
0.999908 0.960357 0.897795
0.127871 0.129000 0.131258
0.134859 0.126497 0.135409
0.195407 0.119905 0.137728
0.287602 0.108492 0.135897
0.427771 0.075898 0.135225
0.634485 0.000000 0.125460
0.868376 0.000000 0.097169
1.000000 0.000000 0.024933
0.131136 0.132143 0.132052
0.135653 0.135653 0.135653
0.187930 0.135439 0.136507
0.267033 0.134096 0.138033
0.397284 0.125399 0.137942
0.599054 0.077272 0.128298
0.822812 0.000000 0.101961
1.000000 0.000000 0.025299
0.154025 0.170535 0.159335
0.156008 0.171939 0.157931
0.190463 0.179782 0.162081
0.213687 0.170047 0.150973
0.317510 0.181155 0.149569
0.506920 0.196750 0.141512
0.760922 0.202518 0.112795
0.998962 0.186130 0.034150
0.187289 0.239597 0.198642
0.190555 0.240024 0.197116
0.223880 0.254490 0.199954
0.335637 0.295842 0.218173
0.333623 0.247929 0.184512
0.362829 0.227909 0.163668
0.606134 0.280919 0.144320
0.903685 0.328618 0.092988
0.251987 0.412207 0.284367
0.256901 0.409033 0.279942
0.294316 0.416205 0.274235
0.428290 0.477852 0.295933
0.636255 0.544488 0.345647
0.609613 0.434180 0.249180
0.455604 0.296056 0.179995
0.751614 0.390814 0.148257
0.381994 0.626642 0.426581
0.388678 0.628107 0.425055
0.416419 0.631830 0.416266
0.536553 0.679316 0.451789
0.709377 0.740932 0.515435
0.876341 0.788144 0.625544
0.904723 0.702083 0.503166
0.875273 0.574640 0.303197
0.611231 0.813962 0.641779
0.608087 0.811185 0.635370
0.613947 0.809659 0.624201
0.666835 0.822995 0.636469
0.767208 0.852018 0.680964
0.875212 0.882658 0.731655
0.958465 0.895232 0.789273
0.988403 0.848020 0.723751
0.803189 0.928801 0.819883
0.806851 0.930327 0.821866
0.811032 0.931212 0.819699
0.826078 0.935058 0.820371
0.868376 0.944610 0.838163
0.915099 0.953521 0.855772
0.964965 0.962615 0.876066
0.999115 0.960113 0.898528
0.130282 0.140200 0.160250
0.131441 0.137240 0.168276
0.191043 0.122957 0.195285
0.298741 0.106294 0.205509
0.498939 0.000000 0.225010
0.791226 0.000000 0.211002
0.989410 0.000000 0.182650
1.000000 0.000000 0.174594
0.142947 0.151003 0.159731
0.145388 0.152865 0.168490
0.190341 0.139162 0.193912
0.295079 0.127199 0.201175
0.489448 0.000000 0.211856
0.768429 0.000000 0.188571
0.950866 0.000000 0.176638
1.000000 0.000000 0.167300
0.170321 0.175296 0.175875
0.175570 0.179355 0.179812
0.195041 0.195041 0.195041
0.291630 0.192050 0.194308
0.450111 0.183597 0.192996
0.670130 0.155642 0.186282
0.885679 0.078248 0.173251
1.000000 0.000000 0.166201
0.231113 0.260319 0.247257
0.235660 0.266667 0.250980
0.240391 0.277806 0.245029
0.355261 0.325933 0.274601
0.325658 0.249058 0.206760
0.478248 0.268620 0.194675
0.737758 0.303899 0.179995
0.982635 0.320623 0.169924
0.304295 0.443153 0.355016
0.303685 0.443549 0.350195
0.323033 0.447547 0.340063
0.439857 0.502312 0.364446
0.658961 0.584497 0.441505
0.600763 0.436194 0.289982
0.482277 0.307347 0.196445
0.829465 0.413916 0.183688
0.438453 0.646326 0.496712
0.443977 0.649042 0.496712
0.460212 0.651148 0.486885
0.535302 0.675654 0.495552
0.700465 0.738705 0.560906
0.865690 0.794156 0.669123
0.887510 0.700069 0.531243
0.854826 0.559686 0.312261
0.659998 0.827451 0.695674
0.657527 0.825376 0.690761
0.656886 0.821927 0.678096
0.677394 0.824125 0.667842
0.770840 0.853056 0.709224
0.875853 0.886809 0.761776
0.958221 0.906462 0.821897
0.986450 0.861723 0.757198
0.819028 0.931426 0.838895
0.818082 0.930785 0.836881
0.821012 0.931426 0.834318
0.835477 0.936400 0.836393
0.870939 0.944823 0.849302
0.918212 0.955566 0.869902
0.965667 0.965270 0.890715
0.997742 0.964233 0.911894
0.141085 0.164584 0.205844
0.141360 0.164096 0.215610
0.167971 0.155154 0.247410
0.303655 0.109468 0.313298
0.479042 0.000000 0.347845
0.765011 0.000000 0.405646
0.992554 0.000000 0.396796
1.000000 0.000000 0.353094
0.155276 0.177554 0.209628
0.157473 0.179416 0.218906
0.174472 0.170565 0.250919
0.308659 0.129488 0.318120
0.489754 0.000000 0.351202
0.770901 0.000000 0.400336
0.992096 0.000000 0.386297
1.000000 0.000000 0.342931
0.185672 0.202640 0.214878
0.189853 0.205722 0.218296
0.203403 0.218204 0.247501
0.307225 0.193271 0.314458
0.530785 0.136141 0.356390
0.814969 0.000000 0.380987
1.000000 0.000000 0.364843
1.000000 0.000000 0.339361
0.249943 0.265568 0.267308
0.254887 0.269718 0.271244
0.279515 0.289891 0.290959
0.333806 0.333806 0.333806
0.527672 0.318944 0.324224
0.728176 0.300481 0.315526
0.919799 0.281010 0.310979
1.000000 0.271244 0.315801
0.430762 0.480446 0.465400
0.431098 0.482307 0.465797
0.442725 0.499825 0.474861
0.456214 0.524926 0.464424
0.658656 0.618128 0.550713
0.544182 0.407965 0.324681
0.686488 0.395911 0.275975
0.952392 0.444587 0.295598
0.598077 0.699825 0.644160
0.608881 0.711269 0.653193
0.591363 0.710597 0.633204
0.599420 0.714839 0.613855
0.716365 0.761044 0.658076
0.862882 0.817685 0.744198
0.860380 0.695094 0.568933
0.796109 0.510643 0.300572
0.728389 0.843931 0.766323
0.728328 0.845274 0.765408
0.730678 0.846708 0.761227
0.739681 0.849241 0.752987
0.789578 0.864897 0.764920
0.881773 0.897826 0.811124
0.956786 0.919890 0.861662
0.979065 0.870268 0.786465
0.854978 0.941039 0.877348
0.854948 0.941009 0.876585
0.855955 0.941405 0.874083
0.861112 0.943084 0.870787
0.877195 0.946838 0.869871
0.921538 0.958007 0.889708
0.965881 0.968658 0.910826
0.995941 0.970703 0.931914
0.147585 0.200992 0.278721
0.148043 0.202731 0.291722
0.153262 0.192477 0.328985
0.268009 0.164401 0.417029
0.526574 0.000000 0.545892
0.743893 0.000000 0.574212
0.971588 0.000000 0.589471
1.000000 0.000000 0.560510
0.161105 0.212833 0.282933
0.161440 0.215549 0.296086
0.161196 0.206485 0.336156
0.268437 0.180056 0.419348
0.530663 0.000000 0.549645
0.750576 0.000000 0.575891
0.973907 0.000000 0.586358
1.000000 0.000000 0.556847
0.201266 0.239780 0.277012
0.202457 0.243534 0.286778
0.208286 0.255253 0.332403
0.267582 0.238499 0.420905
0.526513 0.137026 0.544121
0.746975 0.000000 0.558953
0.970611 0.000000 0.565576
1.000000 0.000000 0.537407
0.255802 0.299687 0.322759
0.260258 0.302800 0.326146
0.281437 0.317754 0.342779
0.327672 0.358892 0.418738
0.544152 0.330907 0.557244
0.787961 0.296818 0.563134
0.983917 0.270726 0.553368
1.000000 0.280430 0.538750
0.397955 0.434394 0.438087
0.405646 0.440558 0.444160
0.433570 0.462287 0.465309
0.487160 0.503319 0.505058
0.556085 0.556085 0.556085
0.747097 0.525383 0.530175
0.913329 0.500114 0.511284
1.000000 0.486305 0.504265
0.635554 0.664790 0.658381
0.637903 0.668055 0.661158
0.637476 0.672694 0.663020
0.645197 0.688289 0.670558
0.651667 0.705898 0.658015
0.822843 0.797940 0.759457
0.760189 0.600977 0.507591
0.894438 0.555047 0.416724
0.787167 0.844053 0.818235
0.785458 0.843076 0.816342
0.784817 0.844114 0.813626
0.783871 0.851591 0.808621
0.786343 0.856260 0.794583
0.862974 0.888060 0.828031
0.946777 0.921202 0.881773
0.956756 0.847044 0.771542
0.879728 0.937285 0.902495
0.878477 0.937194 0.901213
0.874662 0.937560 0.896788
0.878141 0.943175 0.896086
0.883940 0.945647 0.891081
0.914641 0.954620 0.899931
0.961089 0.968139 0.923400
0.992523 0.973541 0.944732
0.107912 0.263737 0.417914
0.102815 0.265721 0.432319
0.017578 0.248478 0.472267
0.218692 0.230167 0.559686
0.465156 0.131716 0.685756
0.754635 0.000000 0.782650
0.960082 0.000000 0.780606
1.000000 0.000000 0.748409
0.136568 0.267216 0.404059
0.134798 0.268467 0.415167
0.111360 0.258793 0.457893
0.214969 0.239078 0.540642
0.448310 0.158999 0.663264
0.739956 0.000000 0.767147
0.947051 0.000000 0.767941
1.000000 0.000000 0.739925
0.198550 0.305882 0.408667
0.198245 0.308782 0.419501
0.202213 0.320287 0.471473
0.231113 0.297490 0.547143
0.443641 0.251377 0.665003
0.744472 0.000000 0.770626
0.956237 0.000000 0.768582
1.000000 0.000000 0.736294
0.283635 0.362371 0.419501
0.286839 0.362829 0.419837
0.302922 0.376135 0.441260
0.349279 0.428809 0.559075
0.475319 0.421546 0.688228
0.769497 0.372412 0.791470
0.971649 0.364324 0.778134
1.000000 0.386145 0.745541
0.391791 0.471504 0.505455
0.396612 0.474098 0.508019
0.417639 0.486305 0.520043
0.459022 0.510674 0.544701
0.533959 0.567315 0.634760
0.752682 0.571679 0.765377
0.943542 0.569512 0.753109
1.000000 0.582544 0.739101
0.595148 0.638697 0.643244
0.605554 0.647395 0.651759
0.623590 0.659297 0.663081
0.656703 0.682033 0.684810
0.700282 0.713191 0.714626
0.761746 0.761746 0.761746
0.901884 0.740536 0.743679
1.000000 0.722377 0.728908
0.843626 0.852018 0.850675
0.846220 0.855131 0.853666
0.848051 0.859434 0.857298
0.851377 0.867247 0.863340
0.855070 0.877134 0.868345
0.851316 0.881834 0.854826
0.940795 0.928008 0.908812
0.921324 0.793271 0.724849
0.908782 0.938079 0.927031
0.908080 0.937804 0.926421
0.908873 0.939361 0.926787
0.913695 0.944793 0.929900
0.914733 0.949950 0.928038
0.914061 0.952697 0.918486
0.955718 0.967895 0.937774
0.990143 0.978515 0.961089
0.000000 0.357610 0.599359
0.000000 0.360937 0.613031
0.000000 0.348974 0.645655
0.133181 0.322789 0.705715
0.380102 0.282017 0.778683
0.625360 0.139254 0.856443
0.875700 0.000000 0.907927
1.000000 0.000000 0.903075
0.000000 0.355047 0.578271
0.000000 0.359380 0.593133
0.000000 0.353552 0.627863
0.132967 0.323888 0.685237
0.368292 0.285527 0.760342
0.610986 0.155215 0.839658
0.861112 0.000000 0.892668
1.000000 0.000000 0.886412
0.180362 0.394202 0.578149
0.182681 0.396277 0.587091
0.197147 0.400641 0.621790
0.199100 0.376623 0.683528
0.373724 0.347784 0.756191
0.609369 0.270634 0.838621
0.868803 0.000000 0.899168
1.000000 0.000000 0.895201
0.305608 0.445258 0.558343
0.304814 0.446113 0.563592
0.312718 0.457374 0.595850
0.355810 0.484932 0.673304
0.422034 0.467292 0.755550
0.624720 0.440009 0.842405
0.879393 0.385534 0.905791
1.000000 0.385657 0.894347
0.410040 0.522148 0.592187
0.408850 0.518944 0.588861
0.416907 0.518029 0.588342
0.438056 0.521996 0.594507
0.509911 0.582696 0.713619
0.633112 0.584314 0.816983
0.872923 0.574182 0.892210
1.000000 0.597833 0.884947
0.570886 0.657038 0.690242
0.574640 0.659205 0.692103
0.587274 0.665248 0.697749
0.610254 0.676204 0.708095
0.639155 0.687892 0.720058
0.713588 0.739284 0.793851
0.886107 0.767117 0.895201
1.000000 0.769039 0.884123
0.771237 0.805142 0.808774
0.775265 0.808194 0.811704
0.783749 0.813779 0.817014
0.801328 0.825834 0.828489
0.824674 0.841764 0.843626
0.854887 0.863371 0.864317
0.890837 0.890837 0.890837
0.983459 0.870481 0.872587
0.934142 0.934813 0.934722
0.934752 0.935698 0.935576
0.937957 0.940185 0.939879
0.941222 0.945739 0.945037
0.944823 0.952544 0.950774
0.948974 0.960327 0.955932
0.948150 0.964477 0.949981
0.988464 0.983307 0.975586
0.290990 0.526024 0.799771
0.302617 0.528862 0.805722
0.309545 0.519097 0.818021
0.312993 0.489418 0.847227
0.415076 0.461799 0.883482
0.562005 0.402930 0.924315
0.752834 0.277134 0.967285
0.957641 0.000000 0.991577
0.282322 0.520287 0.786984
0.294621 0.523613 0.793576
0.315343 0.521050 0.809598
0.308049 0.488624 0.838437
0.409003 0.462318 0.875944
0.556817 0.405829 0.918364
0.747066 0.282200 0.961791
0.953063 0.000000 0.986847
0.329808 0.543114 0.774014
0.335576 0.544579 0.778805
0.353735 0.544640 0.794522
0.382238 0.538964 0.832639
0.435584 0.506065 0.869505
0.562951 0.456184 0.911376
0.746609 0.361761 0.957183
0.952056 0.189700 0.984436
0.401190 0.579004 0.749233
0.406744 0.582300 0.755306
0.420050 0.587060 0.773312
0.463661 0.600916 0.812039
0.490089 0.580285 0.857664
0.590661 0.551171 0.904540
0.755734 0.494575 0.952941
0.954223 0.412787 0.982940
0.486915 0.620508 0.723262
0.490730 0.622339 0.725216
0.490761 0.618372 0.725063
0.512627 0.637293 0.767086
0.569390 0.662501 0.825711
0.622980 0.646357 0.884428
0.765042 0.623316 0.940551
0.954559 0.592126 0.977295
0.611688 0.714473 0.775143
0.609064 0.711727 0.772976
0.605463 0.705715 0.768490
0.609277 0.701930 0.767117
0.620661 0.699306 0.769009
0.701106 0.753689 0.857725
0.802640 0.767758 0.933745
0.962432 0.772580 0.976257
0.762417 0.825315 0.848020
0.762722 0.825162 0.847868
0.764920 0.825254 0.848081
0.773678 0.829007 0.851743
0.786831 0.834379 0.857389
0.804013 0.840665 0.865049
0.852903 0.871733 0.912688
0.965118 0.889677 0.971130
0.888121 0.913268 0.915984
0.888609 0.913481 0.916167
0.892393 0.915831 0.918364
0.901701 0.921996 0.924193
0.914519 0.930480 0.932219
0.930571 0.941222 0.942412
0.949676 0.954650 0.955200
0.968902 0.968902 0.968902
