20 Preset/Travel Style 2/【3】LUT video cho PR-AE-FCPX/Travel 2 LUT (17).cube
# Created by Adobe Lightroom plugin Export LUT (1.24.0)
# www.johnrellis.com/lightroom/exportlut.htm
# Preset: 17素材江湖 - FLAT
# Color profile: E:\lut插件\exportlut.1.24\exportlut.lrplugin\color profiles\Rec709gamma2.4.icc
LUT_3D_SIZE 8
DOMAIN_MIN 0.000000 0.000000 0.000000
DOMAIN_MAX 0.903226 0.903226 0.903226
0.123140 0.081758 0.099947
0.126650 0.081392 0.100618
0.141909 0.081178 0.102327
0.192996 0.066682 0.103578
0.305089 0.000000 0.103853
0.475166 0.000000 0.102846
0.672358 0.000000 0.101045
0.873136 0.000000 0.110964
0.124636 0.092164 0.103304
0.128389 0.091951 0.102144
0.150820 0.091981 0.101106
0.208133 0.088106 0.101595
0.323217 0.020691 0.100832
0.491798 0.000000 0.097688
0.684382 0.000000 0.094148
0.878874 0.000000 0.102998
0.106905 0.168460 0.125277
0.119448 0.166842 0.121309
0.169070 0.167849 0.110109
0.274723 0.174960 0.092531
0.414130 0.168063 0.060700
0.582391 0.129885 0.009003
0.759121 0.000000 0.000000
0.925750 0.000000 0.000977
0.000000 0.363470 0.209995
0.000000 0.362066 0.201083
0.146181 0.353613 0.189059
0.309239 0.363317 0.146670
0.521447 0.371130 0.034211
0.709102 0.363073 0.000000
0.853269 0.357214 0.000000
0.976013 0.358770 0.000000
0.000000 0.587243 0.343511
0.000000 0.585962 0.340246
0.206302 0.579309 0.319951
0.382788 0.565332 0.298192
0.550439 0.573571 0.235569
0.742885 0.579828 0.138827
0.894469 0.580682 0.000000
1.000000 0.580652 0.000000
0.403937 0.755276 0.499794
0.420569 0.756222 0.500237
0.444495 0.752987 0.482765
0.525841 0.743557 0.465888
0.625208 0.735409 0.435126
0.750088 0.741024 0.379492
0.891051 0.748898 0.311345
0.989624 0.747951 0.282261
0.668147 0.858946 0.658534
0.673091 0.858732 0.658412
0.674464 0.857725 0.646509
0.701625 0.853727 0.636530
0.742885 0.847013 0.619409
0.798611 0.846525 0.593378
0.874083 0.850370 0.552270
0.964385 0.856687 0.500755
0.826169 0.921965 0.783566
0.825742 0.921996 0.782010
0.827909 0.921782 0.778286
0.837583 0.920806 0.774563
0.849424 0.917540 0.763790
0.872404 0.915190 0.754055
0.902342 0.918730 0.739101
0.943816 0.921782 0.714168
0.123995 0.084504 0.107759
0.127321 0.084260 0.106691
0.145083 0.083253 0.106935
0.205325 0.076295 0.108034
0.324529 0.014862 0.102388
0.492714 0.000000 0.097566
0.682185 0.000000 0.094606
0.873136 0.000000 0.105013
0.124605 0.095369 0.113497
0.129976 0.094850 0.113405
0.154360 0.093996 0.112551
0.219394 0.091096 0.110201
0.340917 0.048066 0.103243
0.511467 0.000000 0.091829
0.695766 0.000000 0.085725
0.879789 0.000000 0.096101
0.111330 0.173037 0.153292
0.123568 0.173648 0.151003
0.173342 0.174044 0.137575
0.281102 0.175296 0.121401
0.414557 0.163821 0.106477
0.584222 0.131624 0.063111
0.759823 0.005585 0.000000
0.921172 0.000000 0.000000
0.000000 0.363378 0.239597
0.000000 0.362860 0.236423
0.154330 0.357763 0.219669
0.310063 0.360967 0.184756
0.514427 0.364935 0.133639
0.692622 0.352789 0.046448
0.838468 0.345953 0.000000
0.969726 0.359686 0.000000
0.000000 0.587030 0.366430
0.035859 0.585351 0.363165
0.221012 0.579644 0.342901
0.386328 0.563287 0.321660
0.546960 0.568750 0.265537
0.737331 0.574792 0.192691
0.889952 0.576837 0.120089
0.997406 0.576074 0.000000
0.409339 0.753231 0.511284
0.422065 0.752529 0.510094
0.447974 0.750149 0.494270
0.527459 0.741268 0.478645
0.625391 0.732540 0.450813
0.748836 0.739223 0.399634
0.888548 0.747127 0.338445
0.987152 0.746548 0.310948
0.666957 0.857389 0.661860
0.670558 0.856718 0.660975
0.674189 0.855650 0.650477
0.701228 0.851926 0.640986
0.742977 0.845823 0.625422
0.797787 0.844846 0.600427
0.872038 0.848447 0.559991
0.961913 0.854704 0.510399
0.827359 0.921019 0.785855
0.827787 0.921172 0.785031
0.827848 0.921111 0.779843
0.837400 0.920195 0.776181
0.852354 0.918425 0.769345
0.873686 0.915618 0.758480
0.902525 0.918547 0.742824
0.943542 0.921599 0.718502
0.116335 0.092042 0.166903
0.126009 0.091737 0.166079
0.160311 0.091341 0.162814
0.229404 0.083833 0.172396
0.364355 0.000000 0.178561
0.532769 0.000000 0.163210
0.707607 0.000000 0.160189
0.901701 0.000000 0.110964
0.113344 0.111421 0.185855
0.123262 0.108003 0.185031
0.168276 0.109407 0.180514
0.242130 0.107820 0.186801
0.376806 0.032349 0.188449
0.540826 0.000000 0.174228
0.717098 0.000000 0.164248
0.905547 0.000000 0.113497
0.068299 0.198581 0.234379
0.104097 0.198825 0.234440
0.180270 0.198489 0.236057
0.284825 0.204623 0.238041
0.423011 0.180575 0.220890
0.587030 0.160311 0.209934
0.764309 0.103182 0.183566
0.932097 0.061707 0.127657
0.000000 0.383276 0.331823
0.000000 0.384466 0.332799
0.205570 0.385565 0.329229
0.341405 0.381201 0.306065
0.535607 0.378241 0.282261
0.687373 0.361822 0.259373
0.835050 0.357427 0.226658
0.967285 0.369421 0.169711
0.190097 0.599725 0.451881
0.220676 0.598810 0.449592
0.315190 0.594965 0.441016
0.428199 0.585321 0.417456
0.569848 0.581537 0.378973
0.748928 0.584863 0.338933
0.890593 0.584222 0.310002
0.989929 0.580743 0.267155
0.458442 0.758267 0.568475
0.469245 0.757778 0.567742
0.509422 0.754696 0.562310
0.562707 0.748745 0.544091
0.646052 0.735103 0.521019
0.754788 0.742275 0.481422
0.886717 0.750118 0.441596
0.982666 0.752316 0.424384
0.685878 0.859770 0.691157
0.689357 0.859159 0.690364
0.704585 0.857145 0.687709
0.722103 0.854398 0.675868
0.757290 0.848539 0.661830
0.805844 0.845670 0.641047
0.873991 0.850340 0.609339
0.958648 0.857237 0.573968
0.831571 0.921996 0.796780
0.832914 0.921813 0.796536
0.839506 0.921233 0.796414
0.844450 0.921050 0.790249
0.857877 0.919310 0.783871
0.877775 0.916808 0.774228
0.904784 0.919005 0.760433
0.943572 0.922210 0.738888
0.000000 0.110842 0.305943
0.024994 0.111635 0.307439
0.158297 0.115236 0.309606
0.268345 0.118471 0.310460
0.400336 0.088899 0.317723
0.604974 0.000000 0.344793
0.769924 0.000000 0.327459
0.922362 0.000000 0.286931
0.000000 0.137331 0.325872
0.005432 0.138460 0.326207
0.163272 0.142031 0.326421
0.280552 0.148379 0.325505
0.414496 0.129122 0.330785
0.615106 0.081666 0.355261
0.775051 0.000000 0.335607
0.924224 0.000000 0.291997
0.000000 0.240513 0.364752
0.000000 0.242161 0.367437
0.166354 0.234897 0.372747
0.316014 0.246525 0.371801
0.463935 0.249607 0.377539
0.650111 0.253361 0.394720
0.800504 0.199008 0.369421
0.930907 0.137697 0.325994
0.000000 0.404761 0.437659
0.000000 0.404425 0.437354
0.189578 0.404395 0.436683
0.368261 0.407874 0.444129
0.534356 0.421881 0.450080
0.684352 0.411566 0.442329
0.810941 0.392340 0.410559
0.943755 0.400214 0.381781
0.264897 0.598901 0.534569
0.288762 0.599359 0.535058
0.371008 0.602411 0.538415
0.491676 0.607172 0.542840
0.606714 0.600397 0.529351
0.750393 0.596979 0.510674
0.865934 0.591943 0.488411
0.968780 0.593866 0.457435
0.538048 0.770504 0.654444
0.548577 0.771084 0.654994
0.577813 0.768124 0.650629
0.630152 0.762875 0.642420
0.689448 0.754055 0.624384
0.769253 0.750607 0.597070
0.883940 0.758663 0.577508
0.973022 0.764950 0.566583
0.714107 0.864103 0.736416
0.717769 0.863890 0.736172
0.731838 0.862547 0.734524
0.757351 0.859892 0.730861
0.783963 0.855680 0.718929
0.821286 0.848203 0.701625
0.877317 0.853239 0.678004
0.953246 0.860685 0.657496
0.839170 0.924620 0.816678
0.840696 0.924468 0.816617
0.846860 0.923919 0.816281
0.858579 0.922972 0.815671
0.868070 0.921691 0.808469
0.884642 0.919188 0.799649
0.908507 0.919707 0.787869
0.943969 0.923369 0.770779
0.000000 0.160372 0.473915
0.000000 0.162722 0.475563
0.112215 0.169100 0.479011
0.298589 0.177554 0.484565
0.469245 0.182467 0.490455
0.620691 0.139956 0.492500
0.817380 0.181918 0.532158
0.958434 0.187564 0.531456
0.000000 0.189914 0.486824
0.000000 0.191775 0.488197
0.128664 0.197086 0.490669
0.310399 0.204959 0.494789
0.480537 0.213077 0.499153
0.629603 0.183322 0.501061
0.821500 0.228000 0.539452
0.958434 0.231571 0.535851
0.000000 0.298558 0.519646
0.000000 0.293584 0.520684
0.155245 0.286625 0.522911
0.342901 0.296208 0.525475
0.514672 0.312139 0.528801
0.657404 0.305394 0.530907
0.832792 0.356176 0.565240
0.956023 0.346410 0.550072
0.000000 0.427100 0.546136
0.000000 0.428779 0.548150
0.224063 0.436683 0.558099
0.386786 0.435431 0.571557
0.563592 0.456641 0.576593
0.700771 0.470405 0.582727
0.848325 0.518395 0.610163
0.952453 0.478798 0.570642
0.255528 0.601648 0.619348
0.279667 0.601587 0.619318
0.357427 0.600916 0.618860
0.466316 0.599603 0.617945
0.610193 0.607691 0.628687
0.741054 0.628260 0.637629
0.851102 0.638972 0.639063
0.939574 0.606348 0.592554
0.523400 0.750088 0.692164
0.532586 0.750210 0.692378
0.567468 0.749508 0.691798
0.627649 0.749844 0.691737
0.706966 0.753445 0.694240
0.785336 0.758145 0.695766
0.872740 0.762142 0.685939
0.948180 0.763729 0.669581
0.745571 0.869810 0.787808
0.747433 0.869413 0.787015
0.756374 0.868070 0.783993
0.777371 0.866087 0.779904
0.807370 0.862455 0.773983
0.837552 0.856413 0.760800
0.880247 0.855314 0.742702
0.947723 0.863127 0.732479
0.842557 0.927031 0.839017
0.843992 0.926879 0.838865
0.850034 0.926329 0.838346
0.862608 0.925811 0.838254
0.878691 0.924437 0.836637
0.892576 0.922362 0.828916
0.912352 0.919890 0.817899
0.943816 0.923827 0.804257
0.000000 0.241825 0.635492
0.000000 0.243687 0.636835
0.147860 0.249851 0.638788
0.351415 0.259159 0.643275
0.526604 0.271061 0.648493
0.685328 0.293004 0.654414
0.820432 0.285832 0.664240
0.955932 0.371679 0.689509
0.000000 0.264591 0.637964
0.000000 0.265904 0.638361
0.165560 0.270878 0.640253
0.356817 0.279393 0.644373
0.529564 0.291905 0.649836
0.687160 0.316106 0.656184
0.820645 0.312200 0.666194
0.954223 0.393408 0.691127
0.000000 0.348913 0.657710
0.000000 0.346807 0.658137
0.221500 0.351415 0.659693
0.389685 0.359380 0.661280
0.553765 0.375067 0.665888
0.704097 0.405615 0.671809
0.829618 0.410773 0.681941
0.952026 0.480659 0.704250
0.211398 0.488380 0.675135
0.244938 0.489906 0.676295
0.338445 0.491859 0.681605
0.439002 0.482155 0.688014
0.591333 0.501030 0.692836
0.728908 0.531395 0.698421
0.842344 0.547997 0.708583
0.946380 0.605188 0.727749
0.287266 0.606317 0.694759
0.304021 0.606073 0.694484
0.364782 0.604700 0.693538
0.497810 0.615320 0.703029
0.622583 0.622583 0.715969
0.749935 0.649378 0.722438
0.850858 0.671595 0.733150
0.939483 0.714717 0.751369
0.523949 0.743099 0.744961
0.532372 0.743526 0.745235
0.561669 0.743313 0.744625
0.612116 0.742977 0.743557
0.677943 0.742519 0.741909
0.778408 0.756069 0.752895
0.867552 0.780148 0.766293
0.934142 0.785672 0.762905
0.720607 0.853849 0.805631
0.724483 0.854185 0.805936
0.738186 0.854704 0.806058
0.764431 0.855924 0.806363
0.802060 0.858152 0.807065
0.848447 0.863005 0.810727
0.888487 0.861112 0.805783
0.943420 0.868132 0.801572
0.858640 0.930449 0.872496
0.859983 0.930510 0.872496
0.865721 0.930877 0.872709
0.872618 0.930541 0.870054
0.884459 0.929503 0.865995
0.902892 0.927550 0.862516
0.919463 0.924254 0.853605
0.944945 0.925444 0.842252
0.170291 0.351202 0.764889
0.211643 0.353796 0.766110
0.316930 0.358984 0.766873
0.450813 0.369574 0.769100
0.590295 0.386389 0.771542
0.722927 0.414313 0.774136
0.838163 0.450752 0.776913
0.933989 0.459907 0.782956
0.183536 0.365515 0.762875
0.221927 0.368078 0.764218
0.321386 0.372686 0.765042
0.450355 0.381567 0.766659
0.587335 0.396765 0.768673
0.718257 0.422309 0.770596
0.832700 0.456855 0.772854
0.928435 0.463508 0.778531
0.256229 0.432532 0.771511
0.279942 0.433417 0.771695
0.360479 0.436744 0.771786
0.476051 0.444923 0.772824
0.602380 0.459144 0.774014
0.727382 0.484382 0.776272
0.838621 0.523186 0.780240
0.929808 0.536156 0.788296
0.393957 0.553246 0.780087
0.400153 0.550286 0.780148
0.427863 0.539574 0.781247
0.515496 0.541802 0.783352
0.630365 0.556115 0.784756
0.745968 0.581567 0.787747
0.846983 0.619928 0.791867
0.927428 0.633204 0.799924
0.430274 0.644923 0.781888
0.441871 0.644678 0.781674
0.493233 0.647456 0.783200
0.583124 0.657099 0.787900
0.652674 0.650202 0.792630
0.758663 0.671229 0.795834
0.850462 0.701991 0.800687
0.925658 0.722957 0.812467
0.539086 0.747158 0.800015
0.544488 0.747005 0.799863
0.564843 0.745632 0.798947
0.601831 0.742397 0.796902
0.685328 0.748074 0.800656
0.779263 0.760464 0.811917
0.864134 0.786740 0.819333
0.928832 0.806027 0.830472
0.711513 0.844724 0.835752
0.714839 0.844999 0.835935
0.725704 0.844907 0.835599
0.747189 0.845029 0.835080
0.777798 0.844816 0.833829
0.817197 0.844724 0.832029
0.879240 0.855375 0.839811
0.937133 0.877043 0.854246
0.838743 0.918761 0.881712
0.840208 0.918944 0.881834
0.847074 0.920012 0.882689
0.858610 0.921386 0.883391
0.875608 0.923339 0.884123
0.898650 0.927459 0.886503
0.929229 0.932219 0.891264
0.947448 0.928191 0.881132
0.471473 0.509026 0.860166
0.483131 0.510918 0.860472
0.521996 0.513664 0.859770
0.592584 0.523308 0.859953
0.679408 0.538109 0.859831
0.770474 0.559442 0.859312
0.856107 0.591455 0.859129
0.926543 0.620600 0.859007
0.473457 0.516899 0.858701
0.485054 0.518761 0.859037
0.524376 0.522271 0.858793
0.593042 0.530877 0.858793
0.679103 0.545006 0.858671
0.769436 0.565759 0.858244
0.854337 0.595666 0.857816
0.924651 0.623835 0.857481
0.497749 0.558221 0.858915
0.507073 0.559258 0.859007
0.542535 0.561852 0.858579
0.609644 0.572351 0.859617
0.689143 0.583948 0.859098
0.773953 0.601709 0.858305
0.855009 0.629114 0.858152
0.922759 0.655940 0.858152
0.546441 0.629419 0.859434
0.551293 0.628504 0.859831
0.574121 0.626246 0.860197
0.632471 0.633814 0.860502
0.705837 0.645136 0.860594
0.784054 0.661311 0.860502
0.858366 0.684688 0.860929
0.921752 0.709834 0.861479
0.611444 0.715663 0.859220
0.618738 0.716579 0.859586
0.642145 0.717220 0.859800
0.664729 0.707607 0.861814
0.718837 0.708186 0.862974
0.791714 0.721553 0.863340
0.861418 0.741665 0.864561
0.921965 0.767239 0.866423
0.624964 0.779294 0.863706
0.629389 0.778958 0.863554
0.650080 0.778653 0.863462
0.691737 0.780240 0.864256
0.752163 0.786069 0.866484
0.804105 0.786465 0.870939
0.871550 0.805997 0.874174
0.927794 0.828763 0.877806
0.746517 0.859617 0.883482
0.747738 0.859373 0.883268
0.752865 0.858183 0.882475
0.764004 0.856138 0.881224
0.781277 0.852201 0.878874
0.821195 0.851591 0.878355
0.879667 0.859373 0.884245
0.934356 0.878050 0.889128
0.839384 0.915465 0.904082
0.840146 0.915435 0.903990
0.844022 0.915526 0.903868
0.852567 0.916075 0.903960
0.865446 0.916808 0.903899
0.882902 0.917632 0.903441
0.906554 0.918547 0.902403
0.944396 0.925261 0.906645
