20 Preset/Travel Style 2/【3】LUT video cho PR-AE-FCPX/Travel 2 LUT (5).cube
# Created by Adobe Lightroom plugin Export LUT (1.24.0)
# www.johnrellis.com/lightroom/exportlut.htm
# Preset: 05素材江湖 - DARK
# Color profile: E:\lut插件\exportlut.1.24\exportlut.lrplugin\color profiles\Rec709gamma2.4.icc
LUT_3D_SIZE 5
DOMAIN_MIN 0.000000 0.000000 0.000000
DOMAIN_MAX 0.903226 0.903226 0.903226
0.000000 0.000000 0.000000
0.165408 0.010010 0.000000
0.535302 0.080201 0.000000
1.000000 0.170443 0.000000
1.000000 0.277806 0.113283
0.126833 0.146151 0.000000
0.230289 0.177584 0.000000
0.547051 0.243259 0.000000
1.000000 0.328405 0.000000
1.000000 0.375372 0.164858
0.375860 0.434485 0.000000
0.451545 0.442756 0.000000
0.873289 0.680110 0.104921
1.000000 0.616693 0.000000
1.000000 0.587457 0.265568
0.691218 0.795804 0.113619
0.742458 0.783749 0.103578
0.938994 0.874388 0.305455
1.000000 0.914122 0.692226
1.000000 0.854185 0.658564
0.878935 0.975372 0.533471
0.904753 0.972137 0.529259
0.982300 0.968200 0.557519
1.000000 0.985687 0.775174
1.000000 0.983368 0.929168
0.000000 0.051392 0.135042
0.142611 0.000000 0.146975
0.460731 0.000000 0.177615
0.967864 0.000000 0.214420
1.000000 0.296056 0.302770
0.000000 0.158114 0.164248
0.160952 0.160952 0.160952
0.495338 0.200107 0.182101
0.973327 0.280552 0.211093
1.000000 0.384527 0.317449
0.272313 0.447211 0.198428
0.378210 0.425422 0.194980
0.768154 0.617182 0.293736
0.993866 0.582940 0.212100
1.000000 0.605066 0.398474
0.640284 0.806455 0.288792
0.699825 0.795590 0.283177
0.904509 0.857237 0.399115
1.000000 0.919554 0.745663
1.000000 0.866392 0.706538
0.862089 0.977264 0.596338
0.886564 0.973999 0.590448
0.975494 0.969299 0.614435
1.000000 0.987701 0.808774
1.000000 0.986725 0.944244
0.000000 0.198032 0.414832
0.000000 0.122377 0.421118
0.411475 0.000000 0.424964
0.799008 0.000000 0.494636
1.000000 0.191196 0.538964
0.000000 0.297002 0.437690
0.000000 0.267704 0.436713
0.424506 0.176730 0.436103
0.838163 0.000000 0.502708
1.000000 0.409277 0.576837
0.000000 0.510765 0.531609
0.086366 0.503197 0.520226
0.472236 0.472236 0.472236
0.912932 0.588891 0.576806
1.000000 0.716274 0.702052
0.356207 0.861753 0.606714
0.454749 0.844968 0.591547
0.738369 0.794644 0.564630
0.983459 0.921599 0.838315
1.000000 0.878721 0.784451
0.805020 0.983917 0.754452
0.826352 0.981628 0.751186
0.910826 0.970764 0.733028
1.000000 0.985016 0.847715
1.000000 0.991272 0.965911
0.000000 0.387732 0.795285
0.000000 0.341405 0.798215
0.299962 0.211307 0.796994
0.759243 0.000000 0.784024
1.000000 0.000000 0.777920
0.000000 0.462409 0.800687
0.000000 0.438331 0.799680
0.294743 0.310796 0.796231
0.755978 0.168460 0.779355
1.000000 0.186374 0.772152
0.000000 0.640833 0.816800
0.000000 0.638178 0.809171
0.452430 0.606317 0.795315
0.756161 0.485023 0.772061
1.000000 0.554253 0.782071
0.486641 0.856718 0.878752
0.531487 0.854063 0.874235
0.670985 0.847898 0.860594
0.809293 0.809293 0.809293
1.000000 0.901854 0.898558
0.796780 0.998932 0.921233
0.808713 0.997498 0.918517
0.850889 0.991730 0.906065
0.946685 0.972259 0.879271
1.000000 0.995483 0.985992
0.000000 0.542657 0.980438
0.000000 0.527459 0.980499
0.000000 0.433112 0.984527
0.607691 0.378912 0.981079
0.948150 0.267948 0.976715
0.000000 0.583825 0.976074
0.000000 0.583612 0.975586
0.000000 0.497353 0.979522
0.613214 0.438605 0.976135
0.945068 0.342199 0.972412
0.000000 0.718441 0.971893
0.000000 0.717800 0.970336
0.522148 0.725154 0.966278
0.666194 0.636439 0.966278
0.945556 0.565728 0.966827
0.522850 0.864134 0.977478
0.553246 0.864836 0.975738
0.670008 0.873014 0.971008
0.820218 0.875853 0.965972
0.960021 0.826810 0.969299
0.810910 0.976806 0.989105
0.822751 0.977203 0.988769
0.871855 0.979919 0.988342
0.931518 0.982513 0.986633
0.971649 0.971649 0.971649
