20 Preset/Travel Style 2/【3】LUT video cho PR-AE-FCPX/Travel 2 LUT (25).cube
# Created by Adobe Lightroom plugin Export LUT (1.24.0)
# www.johnrellis.com/lightroom/exportlut.htm
# Preset: 25素材江湖 - DRONE
# Color profile: E:\lut插件\exportlut.1.24\exportlut.lrplugin\color profiles\Rec709gamma2.4.icc
LUT_3D_SIZE 5
DOMAIN_MIN 0.000000 0.000000 0.000000
DOMAIN_MAX 0.903226 0.903226 0.903226
0.000000 0.000000 0.000000
0.312474 0.000000 0.000000
0.933898 0.053254 0.000000
1.000000 0.165682 0.000000
1.000000 0.210147 0.000000
0.423651 0.488838 0.000000
0.300877 0.197177 0.000000
0.955932 0.455024 0.000000
1.000000 0.404608 0.000000
1.000000 0.356481 0.000000
0.894865 0.983825 0.127016
0.965728 0.952239 0.000000
0.726436 0.472206 0.000000
1.000000 0.674006 0.000000
1.000000 0.620600 0.000000
0.961639 1.000000 0.770779
0.975463 1.000000 0.733700
1.000000 0.989654 0.478889
1.000000 0.728328 0.000000
1.000000 0.733028 0.000000
0.983673 1.000000 0.928771
0.985748 1.000000 0.922545
0.999451 1.000000 0.882628
1.000000 0.987762 0.731930
1.000000 0.801419 0.000000
0.030762 0.009705 0.153017
0.302495 0.000000 0.202579
0.945525 0.000000 0.131075
1.000000 0.192569 0.093996
1.000000 0.264866 0.178622
0.256687 0.379400 0.204166
0.348821 0.238254 0.137270
0.960479 0.436164 0.000000
1.000000 0.411566 0.007263
1.000000 0.386786 0.194003
0.902922 0.979492 0.554955
0.955627 0.950317 0.394385
0.708034 0.453193 0.000000
1.000000 0.690913 0.000000
1.000000 0.638666 0.285283
0.970001 1.000000 0.845212
0.979126 1.000000 0.816648
1.000000 0.989807 0.618402
1.000000 0.724269 0.000000
1.000000 0.746090 0.215946
0.985382 1.000000 0.943084
0.988037 1.000000 0.942016
0.998169 1.000000 0.908782
1.000000 0.990448 0.779324
1.000000 0.804196 0.000000
0.177584 0.078157 0.472755
0.380865 0.000000 0.514916
0.906828 0.000000 0.589960
1.000000 0.165194 0.526055
1.000000 0.530053 0.603296
0.289555 0.352422 0.502403
0.447578 0.324651 0.539727
0.954345 0.297124 0.564538
1.000000 0.506249 0.581079
1.000000 0.596735 0.621332
0.813382 0.934020 0.794614
0.915190 0.952575 0.838224
0.840238 0.566796 0.308110
1.000000 0.795804 0.647822
1.000000 0.756435 0.672267
0.979706 1.000000 0.945312
0.987518 1.000000 0.949493
1.000000 0.991669 0.857145
1.000000 0.708186 0.000000
1.000000 0.836301 0.634791
0.988464 1.000000 0.972076
0.990784 1.000000 0.973724
0.996246 1.000000 0.967407
1.000000 0.997925 0.895384
1.000000 0.822965 0.376165
0.354711 0.220737 0.850553
0.489845 0.169070 0.862455
0.865751 0.000000 0.896330
1.000000 0.124697 0.809171
1.000000 0.629938 0.790280
0.443702 0.446693 0.854520
0.543542 0.423743 0.865263
0.891600 0.316381 0.894774
1.000000 0.495277 0.813718
1.000000 0.735012 0.829770
0.698268 0.812985 0.852964
0.757656 0.822202 0.856626
0.912383 0.829557 0.872221
1.000000 0.873411 0.890043
1.000000 0.895323 0.906554
0.964385 0.994446 0.968109
0.974884 0.995666 0.973693
0.994568 0.996857 0.980652
1.000000 0.837736 0.693782
1.000000 0.950591 0.917937
0.992981 1.000000 0.991455
0.993927 1.000000 0.992004
0.997101 1.000000 0.993866
1.000000 1.000000 0.981750
1.000000 0.891844 0.721309
0.569360 0.508995 1.000000
0.612421 0.492226 1.000000
0.780087 0.398566 1.000000
1.000000 0.337224 1.000000
1.000000 0.632746 0.929046
0.666773 0.656367 1.000000
0.693080 0.643915 1.000000
0.812436 0.578943 1.000000
1.000000 0.550591 1.000000
1.000000 0.725612 0.937072
0.838102 0.878843 0.983581
0.859068 0.885496 0.985046
0.901305 0.871275 0.992401
1.000000 0.852781 0.998657
1.000000 0.893065 0.961456
0.898283 0.973022 0.983001
0.910185 0.973205 0.983307
0.948547 0.974578 0.984619
0.990997 0.973480 0.989868
1.000000 0.981628 0.987579
0.980774 1.000000 0.990814
0.983734 1.000000 0.991913
0.992523 1.000000 0.995514
0.999298 1.000000 0.999054
1.000000 0.995117 0.989899
