20 Preset/Travel Style 2/【3】LUT video cho PR-AE-FCPX/Travel 2 LUT (5).cube
# Created by Adobe Lightroom plugin Export LUT (1.24.0)
# www.johnrellis.com/lightroom/exportlut.htm
# Preset: 05素材江湖 - DARK
# Color profile: E:\lut插件\exportlut.1.24\exportlut.lrplugin\color profiles\Rec709gamma2.4.icc
LUT_3D_SIZE 32
DOMAIN_MIN 0.0 0.0 0.0
DOMAIN_MAX 1.0 1.0 1.0
0.000000 0.000000 0.000000
0.001984 0.000000 0.000000
0.008911 0.000092 0.000946
0.023407 0.000702 0.000580
0.053315 0.002899 0.000824
0.096529 0.003510 0.000610
0.129427 0.006806 0.000092
0.165408 0.010010 0.000000
0.205264 0.014374 0.000000
0.248692 0.018769 0.000000
0.295659 0.025879 0.000000
0.347875 0.034424 0.000000
0.404822 0.046937 0.000000
0.467659 0.062898 0.000000
0.535302 0.080201 0.000000
0.607721 0.093690 0.000000
0.683040 0.105257 0.000000
0.757992 0.117525 0.000000
0.832029 0.129274 0.000000
0.899535 0.141115 0.000000
0.957427 0.155550 0.000000
1.000000 0.170443 0.000000
1.000000 0.186160 0.000000
1.000000 0.200687 0.000000
1.000000 0.215702 0.000000
1.000000 0.230045 0.000000
1.000000 0.245609 0.000000
1.000000 0.260838 0.002045
1.000000 0.277806 0.113283
1.000000 0.296483 0.159213
1.000000 0.316564 0.198581
1.000000 0.339055 0.237247
0.000275 0.002167 0.000824
0.002258 0.001953 0.000824
0.008209 0.001282 0.000793
0.022675 0.001892 0.000427
0.052613 0.004120 0.000671
0.095918 0.005921 0.001465
0.127840 0.008667 0.001099
0.163363 0.012543 0.000000
0.202396 0.017060 0.000000
0.244846 0.023438 0.000000
0.290929 0.029847 0.000000
0.342138 0.038849 0.000000
0.398322 0.050263 0.000000
0.459998 0.067567 0.000000
0.526757 0.083772 0.000000
0.598230 0.096803 0.000000
0.673579 0.107729 0.000000
0.748501 0.119570 0.000000
0.822934 0.131472 0.000000
0.891173 0.143435 0.000000
0.949645 0.155947 0.000000
1.000000 0.171145 0.000000
1.000000 0.185763 0.000000
1.000000 0.199802 0.000000
1.000000 0.213016 0.000000
1.000000 0.227390 0.000000
1.000000 0.241581 0.000000
1.000000 0.256687 0.000000
1.000000 0.273350 0.093202
1.000000 0.291295 0.145815
1.000000 0.311315 0.187533
1.000000 0.333257 0.226749
0.004364 0.007294 0.001190
0.006348 0.007080 0.001160
0.010315 0.006622 0.001160
0.024079 0.008453 0.000641
0.056001 0.010437 0.000885
0.097292 0.014405 0.001343
0.128420 0.019562 0.000702
0.163668 0.024659 0.000000
0.202029 0.030823 0.000000
0.243656 0.038331 0.000000
0.289097 0.049470 0.000000
0.339727 0.061433 0.000000
0.394842 0.076417 0.000000
0.455787 0.089357 0.000000
0.521630 0.098024 0.000000
0.592645 0.108034 0.000000
0.667231 0.119051 0.000000
0.742367 0.130587 0.000000
0.816678 0.142824 0.000000
0.886015 0.154452 0.000000
0.945434 0.165408 0.000000
1.000000 0.180179 0.000000
1.000000 0.193118 0.000000
1.000000 0.206027 0.000000
1.000000 0.218540 0.000000
1.000000 0.231205 0.000000
1.000000 0.244877 0.000000
1.000000 0.259434 0.000000
1.000000 0.274968 0.081239
1.000000 0.292393 0.139712
1.000000 0.311498 0.181674
1.000000 0.332738 0.221286
0.013519 0.018524 0.002869
0.017487 0.018067 0.002838
0.024018 0.019562 0.002502
0.031678 0.018677 0.003601
0.069001 0.024598 0.002075
0.101595 0.031952 0.000977
0.132265 0.040040 0.000000
0.166476 0.050721 0.000000
0.203891 0.060487 0.000000
0.244999 0.072572 0.000000
0.289708 0.084138 0.000000
0.339300 0.092836 0.000000
0.393561 0.100618 0.000000
0.453407 0.108980 0.000000
0.517967 0.118105 0.000000
0.587060 0.128450 0.000000
0.660517 0.139498 0.000000
0.734096 0.150729 0.000000
0.807492 0.162417 0.000000
0.876738 0.172763 0.000000
0.938750 0.183719 0.000000
0.997925 0.195834 0.000000
1.000000 0.207675 0.000000
1.000000 0.218723 0.000000
1.000000 0.229679 0.000000
1.000000 0.241215 0.000000
1.000000 0.254246 0.000000
1.000000 0.267704 0.000000
1.000000 0.282963 0.078065
1.000000 0.299382 0.137972
1.000000 0.317174 0.180697
1.000000 0.336950 0.219577
0.033997 0.044099 0.004639
0.035279 0.045075 0.004456
0.046479 0.044953 0.004273
0.066621 0.051667 0.002960
0.084749 0.051392 0.003693
0.112856 0.065675 0.001282
0.137575 0.077546 0.000000
0.169284 0.086336 0.000000
0.205600 0.092836 0.000000
0.245365 0.099702 0.000000
0.289006 0.106661 0.000000
0.337560 0.114351 0.000000
0.390997 0.123201 0.000000
0.449866 0.132784 0.000000
0.513481 0.142489 0.000000
0.582849 0.154177 0.000000
0.656489 0.165469 0.000000
0.730587 0.177462 0.000000
0.804166 0.188235 0.000000
0.873472 0.199130 0.000000
0.937835 0.209842 0.000000
0.994812 0.219944 0.000000
1.000000 0.229557 0.000000
1.000000 0.238743 0.000000
1.000000 0.248722 0.000000
1.000000 0.259220 0.000000
1.000000 0.270298 0.000000
1.000000 0.282017 0.000000
1.000000 0.295384 0.079652
1.000000 0.310063 0.138338
1.000000 0.326513 0.180606
1.000000 0.344671 0.218692
0.067048 0.086671 0.004273
0.070314 0.087129 0.004089
0.084230 0.085878 0.005158
0.095430 0.091005 0.003052
0.109407 0.095674 0.000427
0.124575 0.097292 0.000946
0.157778 0.107027 0.000000
0.183322 0.111391 0.000000
0.211490 0.116762 0.000000
0.250584 0.123873 0.000000
0.293797 0.131411 0.000000
0.341711 0.139925 0.000000
0.394629 0.149783 0.000000
0.453132 0.159945 0.000000
0.516960 0.171511 0.000000
0.586175 0.183322 0.000000
0.659663 0.196139 0.000000
0.733852 0.208438 0.000000
0.807279 0.220035 0.000000
0.875883 0.230869 0.000000
0.942290 0.241581 0.000000
0.997528 0.251133 0.000000
1.000000 0.277073 0.000000
1.000000 0.285679 0.000000
1.000000 0.294713 0.000000
1.000000 0.304021 0.000000
1.000000 0.314000 0.046815
1.000000 0.325200 0.126284
1.000000 0.338018 0.168185
1.000000 0.352056 0.204379
1.000000 0.367956 0.237949
1.000000 0.385290 0.270848
0.102785 0.118288 0.001770
0.104250 0.117891 0.001923
0.110933 0.117494 0.002808
0.122286 0.119692 0.000793
0.138521 0.128054 0.000000
0.157168 0.134554 0.000000
0.179019 0.138369 0.000000
0.220493 0.151736 0.000000
0.247623 0.154482 0.000000
0.275639 0.158389 0.000000
0.315435 0.166049 0.000000
0.365728 0.176242 0.000000
0.420447 0.187137 0.000000
0.480385 0.198764 0.000000
0.545220 0.211429 0.000000
0.614984 0.224216 0.000000
0.687282 0.236881 0.000000
0.759457 0.249454 0.000000
0.831601 0.261204 0.000000
0.904387 0.273808 0.000000
0.971313 0.284794 0.000000
1.000000 0.294530 0.000000
1.000000 0.302617 0.000000
1.000000 0.310796 0.000000
1.000000 0.318730 0.000000
1.000000 0.326757 0.000000
1.000000 0.334844 0.026154
1.000000 0.343999 0.121645
1.000000 0.354376 0.163851
1.000000 0.366033 0.199802
1.000000 0.379492 0.233005
1.000000 0.394934 0.265690
0.126833 0.146151 0.000000
0.127932 0.145846 0.000000
0.134157 0.145235 0.000000
0.144778 0.144533 0.000397
0.159731 0.152865 0.000000
0.181765 0.164523 0.000000
0.202335 0.171084 0.000000
0.230289 0.177584 0.000000
0.279393 0.195071 0.000000
0.307897 0.197269 0.000000
0.338109 0.200809 0.000000
0.370581 0.206027 0.000000
0.424598 0.217716 0.000000
0.483589 0.230289 0.000000
0.547051 0.243259 0.000000
0.615290 0.257145 0.000000
0.686183 0.270451 0.000000
0.757565 0.283757 0.000000
0.833127 0.297551 0.000000
0.906126 0.310369 0.000000
0.968292 0.320134 0.000000
1.000000 0.328405 0.000000
1.000000 0.335424 0.000000
1.000000 0.341558 0.000000
1.000000 0.347723 0.000000
1.000000 0.353674 0.000000
1.000000 0.360174 0.025147
1.000000 0.367102 0.120912
1.000000 0.375372 0.164858
1.000000 0.385199 0.200504
1.000000 0.396674 0.233677
1.000000 0.410040 0.265934
0.152773 0.176455 0.000000
0.154299 0.176150 0.000000
0.159060 0.175357 0.000000
0.168765 0.173861 0.000244
0.183078 0.179171 0.000000
0.202670 0.190463 0.000000
0.229221 0.204440 0.000000
0.254002 0.212650 0.000000
0.288121 0.222538 0.000000
0.347509 0.245365 0.000000
0.378759 0.247532 0.000000
0.411597 0.251133 0.000000
0.444984 0.255375 0.000000
0.491432 0.264652 0.000000
0.554620 0.278935 0.000000
0.622034 0.293492 0.000000
0.691341 0.307713 0.000000
0.765682 0.322789 0.000000
0.842802 0.338445 0.000000
0.910185 0.349828 0.000000
0.968536 0.358618 0.000000
1.000000 0.364935 0.000000
1.000000 0.370397 0.000000
1.000000 0.375433 0.000000
1.000000 0.379767 0.000000
1.000000 0.384039 0.000000
1.000000 0.388556 0.045716
1.000000 0.393805 0.128573
1.000000 0.400458 0.169589
1.000000 0.408240 0.204898
1.000000 0.417945 0.238712
1.000000 0.429450 0.270634
0.180911 0.208957 0.000000
0.181979 0.208591 0.000000
0.186496 0.207645 0.000000
0.195224 0.206241 0.000000
0.207706 0.206851 0.000000
0.226078 0.217746 0.000000
0.251804 0.232792 0.000000
0.281590 0.247990 0.000000
0.312016 0.259190 0.000000
0.353765 0.273259 0.000000
0.424353 0.302586 0.000000
0.458045 0.304509 0.000000
0.493080 0.307866 0.000000
0.528099 0.311345 0.000000
0.564111 0.315953 0.000000
0.629847 0.331212 0.000000
0.705653 0.349706 0.000000
0.781949 0.366918 0.000000
0.854032 0.380987 0.000000
0.916869 0.391211 0.000000
0.971160 0.398047 0.000000
1.000000 0.402625 0.000000
1.000000 0.406287 0.000000
1.000000 0.408820 0.000000
1.000000 0.411475 0.000000
1.000000 0.413703 0.000000
1.000000 0.416602 0.043915
1.000000 0.420386 0.128054
1.000000 0.425422 0.170932
1.000000 0.431891 0.207919
1.000000 0.440040 0.241733
1.000000 0.450294 0.275120
0.209506 0.241764 0.000000
0.210452 0.241581 0.000000
0.214542 0.240879 0.000000
0.222599 0.239414 0.000000
0.234012 0.237003 0.001129
0.251377 0.246647 0.000000
0.276493 0.262089 0.000000
0.309422 0.281956 0.000000
0.342779 0.298741 0.000000
0.381140 0.314611 0.000000
0.431830 0.333745 0.000000
0.517205 0.371862 0.000000
0.553948 0.373297 0.000000
0.590356 0.375341 0.000000
0.631220 0.380346 0.000000
0.671504 0.385595 0.000000
0.723140 0.394965 0.000000
0.795682 0.411475 0.000000
0.861967 0.423774 0.000000
0.920531 0.432136 0.000000
0.971679 0.437446 0.000000
1.000000 0.440650 0.000000
1.000000 0.443061 0.000000
1.000000 0.444526 0.000000
1.000000 0.445747 0.000000
1.000000 0.446876 0.000000
1.000000 0.448524 0.082094
1.000000 0.450721 0.141085
1.000000 0.454383 0.181369
1.000000 0.459327 0.217960
1.000000 0.466163 0.251377
1.000000 0.474708 0.284245
0.242344 0.279759 0.000000
0.243229 0.279515 0.000000
0.247257 0.278691 0.000000
0.254215 0.277317 0.000000
0.265263 0.275212 0.000000
0.281071 0.279240 0.000000
0.305058 0.294865 0.000000
0.337438 0.315435 0.000000
0.377813 0.340368 0.000000
0.417273 0.360327 0.000000
0.464759 0.381628 0.000000
0.528618 0.408576 0.000000
0.690669 0.500084 0.000000
0.735836 0.502190 0.000000
0.776638 0.502220 0.000000
0.812894 0.500328 0.000000
0.845335 0.497322 0.000000
0.874357 0.493660 0.000000
0.924498 0.497902 0.000000
0.973541 0.500908 0.000000
1.000000 0.501823 0.000000
1.000000 0.501061 0.000000
1.000000 0.499763 0.000000
1.000000 0.498512 0.000000
1.000000 0.497017 0.000000
1.000000 0.495644 0.119020
1.000000 0.495186 0.162509
1.000000 0.495430 0.197910
1.000000 0.496864 0.228702
1.000000 0.499947 0.258976
1.000000 0.504845 0.288975
1.000000 0.512016 0.319341
0.287663 0.331792 0.000000
0.288273 0.331518 0.000000
0.291386 0.330419 0.000000
0.297917 0.328344 0.000000
0.307744 0.325170 0.000000
0.320714 0.321721 0.000000
0.344335 0.337682 0.000000
0.376104 0.358770 0.000000
0.420233 0.388220 0.000000
0.474037 0.422736 0.000000
0.531273 0.454932 0.000000
0.600397 0.490486 0.000000
0.685420 0.530022 0.000000
0.802274 0.585260 0.000000
0.840330 0.580926 0.000000
0.870420 0.572381 0.000000
0.896941 0.563287 0.000000
0.920073 0.553826 0.000000
0.941527 0.545129 0.000000
0.967376 0.538842 0.000000
1.000000 0.538323 0.000000
1.000000 0.536614 0.000000
1.000000 0.534417 0.000000
1.000000 0.531975 0.000000
1.000000 0.529595 0.006226
1.000000 0.527398 0.124331
1.000000 0.525841 0.168582
1.000000 0.525078 0.204990
1.000000 0.525566 0.236790
1.000000 0.527672 0.268437
1.000000 0.531456 0.298314
1.000000 0.537407 0.329351
0.328771 0.379217 0.000000
0.329168 0.378851 0.000000
0.332158 0.377447 0.000000
0.338109 0.375433 0.000000
0.347539 0.372534 0.000000
0.360113 0.368505 0.000000
0.381628 0.378302 0.000000
0.414008 0.400946 0.000000
0.456855 0.430457 0.000000
0.512200 0.468177 0.000000
0.573205 0.506676 0.000000
0.637659 0.542596 0.000000
0.711543 0.579461 0.000000
0.792355 0.614313 0.000000
0.889464 0.655421 0.000000
0.917357 0.643244 0.000000
0.939330 0.628717 0.000000
0.958831 0.614588 0.000000
0.976776 0.601465 0.000000
0.993439 0.589258 0.000000
1.000000 0.578332 0.000000
1.000000 0.573449 0.000000
1.000000 0.570306 0.000000
1.000000 0.567071 0.000000
1.000000 0.563775 0.045014
1.000000 0.560601 0.137972
1.000000 0.558160 0.180606
1.000000 0.556329 0.216251
1.000000 0.555749 0.249119
1.000000 0.556878 0.280400
1.000000 0.559625 0.311192
1.000000 0.564569 0.342626
0.375860 0.434485 0.000000
0.376532 0.434089 0.000000
0.379156 0.432349 0.000000
0.384192 0.429664 0.000000
0.392584 0.425605 0.000000
0.403723 0.420417 0.000000
0.420539 0.420508 0.000000
0.451545 0.442756 0.000000
0.493629 0.472541 0.000000
0.545953 0.509026 0.000000
0.610254 0.552758 0.000000
0.673732 0.591119 0.000000
0.740749 0.627131 0.000000
0.807095 0.656611 0.000000
0.873289 0.680110 0.104921
0.951476 0.709468 0.169894
0.973358 0.693019 0.139773
0.990417 0.675227 0.102663
1.000000 0.658534 0.001434
1.000000 0.643000 0.000000
1.000000 0.628992 0.000000
1.000000 0.616693 0.000000
1.000000 0.606714 0.000000
1.000000 0.602411 0.000000
1.000000 0.598138 0.089815
1.000000 0.594202 0.152987
1.000000 0.590906 0.195132
1.000000 0.588464 0.231693
1.000000 0.587457 0.265568
1.000000 0.588190 0.298924
1.000000 0.590661 0.331518
1.000000 0.595514 0.364782
0.422400 0.487861 0.000000
0.422889 0.487922 0.000000
0.425727 0.486671 0.000000
0.431373 0.484260 0.000000
0.439582 0.480812 0.000000
0.450874 0.476448 0.000000
0.465248 0.471626 0.000000
0.495125 0.490150 0.000000
0.536004 0.519860 0.000000
0.586053 0.555352 0.000000
0.645411 0.596246 0.000000
0.712337 0.640040 0.000000
0.769802 0.671382 0.000000
0.824613 0.696101 0.000000
0.877501 0.714626 0.115084
0.929473 0.728664 0.200473
0.993469 0.750668 0.261570
1.000000 0.732509 0.238285
1.000000 0.713436 0.213565
1.000000 0.695735 0.188968
1.000000 0.679561 0.165072
1.000000 0.665126 0.139864
1.000000 0.652369 0.114260
1.000000 0.640742 0.080293
1.000000 0.633326 0.119051
1.000000 0.628779 0.174472
1.000000 0.624842 0.215702
1.000000 0.621820 0.252445
1.000000 0.619928 0.285985
1.000000 0.619593 0.318822
1.000000 0.620996 0.351141
1.000000 0.624689 0.384314
0.467109 0.540246 0.000000
0.467964 0.539879 0.000000
0.470497 0.538872 0.000000
0.475624 0.536950 0.000000
0.483955 0.533654 0.000000
0.495216 0.529778 0.000000
0.509331 0.524865 0.000000
0.532433 0.531182 0.000000
0.570275 0.559045 0.000000
0.616541 0.592248 0.000000
0.671839 0.630854 0.000000
0.733364 0.672114 0.000000
0.792020 0.707210 0.000000
0.840116 0.729763 0.000000
0.886290 0.747341 0.131563
0.929839 0.759640 0.212222
0.972168 0.768856 0.281132
1.000000 0.786923 0.350164
1.000000 0.768185 0.326696
1.000000 0.748775 0.303349
1.000000 0.730892 0.281132
1.000000 0.714687 0.260990
1.000000 0.699947 0.243503
1.000000 0.686397 0.226658
1.000000 0.674128 0.210117
1.000000 0.663050 0.196109
1.000000 0.658534 0.237461
1.000000 0.654841 0.274083
1.000000 0.652430 0.308507
1.000000 0.651514 0.342107
1.000000 0.652430 0.374914
1.000000 0.655360 0.407935
0.514885 0.595483 0.000000
0.516197 0.595544 0.000000
0.547021 0.627558 0.000000
0.552300 0.625513 0.000000
0.560998 0.622248 0.000000
0.571893 0.617853 0.000000
0.586145 0.612268 0.000000
0.602838 0.605829 0.000000
0.639918 0.632807 0.000000
0.683925 0.664332 0.000000
0.732540 0.697536 0.000000
0.784512 0.731228 0.000000
0.838193 0.763790 0.000000
0.881743 0.784939 0.118257
0.918547 0.797940 0.204288
0.953094 0.807218 0.272251
0.984497 0.812619 0.336309
1.000000 0.816953 0.400458
1.000000 0.830472 0.470710
1.000000 0.810849 0.443824
1.000000 0.790890 0.416480
1.000000 0.772549 0.392920
1.000000 0.755276 0.370245
1.000000 0.739223 0.349523
1.000000 0.724056 0.329961
1.000000 0.710048 0.311589
1.000000 0.697230 0.294438
1.000000 0.688563 0.300877
1.000000 0.685115 0.334356
1.000000 0.683314 0.366979
1.000000 0.683497 0.399969
1.000000 0.685542 0.432654
0.570367 0.659358 0.000000
0.573480 0.662196 0.000000
0.578912 0.664332 0.000000
0.586206 0.665461 0.000000
0.596368 0.664637 0.000000
0.607721 0.661585 0.000000
0.621302 0.656916 0.000000
0.637415 0.650599 0.000000
0.664637 0.662043 0.000000
0.702815 0.689052 0.000000
0.745754 0.718257 0.000000
0.791135 0.747738 0.000000
0.839109 0.776944 0.058259
0.886015 0.803525 0.139345
0.921141 0.817655 0.210636
0.952514 0.827146 0.277775
0.981262 0.833677 0.341711
1.000000 0.837858 0.404456
1.000000 0.841886 0.468788
1.000000 0.855833 0.544305
1.000000 0.838010 0.519768
1.000000 0.820096 0.495369
1.000000 0.802731 0.472267
1.000000 0.786099 0.450599
1.000000 0.770077 0.429023
1.000000 0.754849 0.409033
1.000000 0.740658 0.390082
1.000000 0.727565 0.373571
1.000000 0.715999 0.359899
1.000000 0.712703 0.387945
1.000000 0.712154 0.421118
1.000000 0.713497 0.453956
0.608270 0.702846 0.000000
0.611505 0.705348 0.000000
0.616510 0.707546 0.000000
0.623621 0.708858 0.000000
0.633051 0.708339 0.000000
0.644160 0.705837 0.000000
0.657618 0.701656 0.000000
0.673182 0.696345 0.000000
0.693111 0.694484 0.000000
0.726284 0.717647 0.000000
0.763729 0.742855 0.000000
0.803922 0.768673 0.068086
0.845975 0.794308 0.131563
0.889281 0.819272 0.178164
0.928008 0.838712 0.229221
0.956634 0.848356 0.291386
0.982391 0.854917 0.355291
1.000000 0.859403 0.416693
1.000000 0.862547 0.478035
1.000000 0.866423 0.540917
1.000000 0.879332 0.614801
1.000000 0.864591 0.596551
1.000000 0.848234 0.573480
1.000000 0.831998 0.550713
1.000000 0.815976 0.528222
1.000000 0.800320 0.506645
1.000000 0.785306 0.485817
1.000000 0.771359 0.467597
1.000000 0.758755 0.452155
1.000000 0.747433 0.439582
1.000000 0.740322 0.443244
1.000000 0.740871 0.476112
0.645167 0.744137 0.000000
0.647395 0.746395 0.000000
0.652064 0.748104 0.000000
0.658320 0.749081 0.000000
0.667018 0.748623 0.000000
0.677729 0.746304 0.000000
0.690486 0.742916 0.000000
0.705623 0.738155 0.000000
0.723323 0.732631 0.000000
0.750179 0.746151 0.000000
0.782834 0.767819 0.078676
0.818387 0.790341 0.128695
0.855558 0.812894 0.171511
0.893675 0.834745 0.214054
0.932036 0.855650 0.258610
0.962646 0.868833 0.310582
0.985840 0.875547 0.373541
1.000000 0.880552 0.435767
1.000000 0.884459 0.498939
1.000000 0.888182 0.562219
1.000000 0.893095 0.625391
1.000000 0.904601 0.690944
1.000000 0.893675 0.680964
1.000000 0.880613 0.664363
1.000000 0.867033 0.646265
1.000000 0.853086 0.627436
1.000000 0.839048 0.607904
1.000000 0.825437 0.589532
1.000000 0.812650 0.572961
1.000000 0.800809 0.558709
1.000000 0.790188 0.547112
1.000000 0.780514 0.537682
0.691218 0.795804 0.113619
0.692439 0.796506 0.115816
0.695399 0.796567 0.116487
0.699947 0.795895 0.116426
0.706935 0.794247 0.115663
0.716304 0.791470 0.112520
0.727779 0.788052 0.109712
0.742458 0.783749 0.103578
0.759304 0.778927 0.100923
0.781064 0.781186 0.109560
0.809720 0.799680 0.146578
0.840635 0.818875 0.183200
0.872740 0.837919 0.221073
0.905882 0.856596 0.262242
0.938994 0.874388 0.305455
0.971771 0.891112 0.351232
0.993072 0.897826 0.404730
1.000000 0.901762 0.464332
1.000000 0.904814 0.524437
1.000000 0.907622 0.584527
1.000000 0.910399 0.640101
1.000000 0.914122 0.692226
1.000000 0.922820 0.745357
1.000000 0.913909 0.738369
1.000000 0.902129 0.722286
1.000000 0.890105 0.705867
1.000000 0.877958 0.689601
1.000000 0.865934 0.673762
1.000000 0.854185 0.658564
1.000000 0.843046 0.644892
1.000000 0.832578 0.632685
1.000000 0.822934 0.622461
0.722225 0.829343 0.171206
0.723110 0.829923 0.172946
0.725765 0.829984 0.173526
0.730190 0.829374 0.173465
0.736843 0.828000 0.172091
0.745296 0.825895 0.170626
0.756649 0.822873 0.168032
0.770352 0.819272 0.164187
0.786557 0.815213 0.160678
0.805264 0.810452 0.157198
0.829953 0.824582 0.186343
0.856779 0.840848 0.220706
0.885252 0.857359 0.257694
0.914366 0.873564 0.297398
0.943725 0.889189 0.340154
0.972259 0.903716 0.384680
0.997772 0.915404 0.432441
1.000000 0.919310 0.486885
1.000000 0.921843 0.545892
1.000000 0.924102 0.603601
1.000000 0.926329 0.656580
1.000000 0.928679 0.705013
1.000000 0.931945 0.749569
1.000000 0.938872 0.794064
1.000000 0.929198 0.781247
1.000000 0.918883 0.766842
1.000000 0.908507 0.752682
1.000000 0.898131 0.739071
1.000000 0.887846 0.725765
1.000000 0.877836 0.713466
1.000000 0.868467 0.702632
1.000000 0.859678 0.693172
0.757137 0.866117 0.239048
0.758541 0.867002 0.241123
0.760769 0.867002 0.242069
0.764370 0.866087 0.240848
0.769741 0.864286 0.238224
0.777188 0.861662 0.234104
0.786679 0.858274 0.229618
0.798581 0.854368 0.224308
0.812985 0.849882 0.219242
0.829770 0.844968 0.213535
0.849454 0.848356 0.224552
0.872557 0.861631 0.255406
0.896635 0.874998 0.289433
0.921691 0.888304 0.326665
0.946746 0.901061 0.365362
0.971710 0.913298 0.406378
0.996002 0.924834 0.449226
1.000000 0.931701 0.496345
1.000000 0.933898 0.551598
1.000000 0.935668 0.607874
1.000000 0.937346 0.659693
1.000000 0.939117 0.706661
1.000000 0.940978 0.748898
1.000000 0.943542 0.787045
1.000000 0.948791 0.823880
1.000000 0.943175 0.821439
1.000000 0.934051 0.807889
1.000000 0.925017 0.795163
1.000000 0.915892 0.782589
1.000000 0.907073 0.771298
1.000000 0.898528 0.760830
1.000000 0.890623 0.752102
0.780209 0.889891 0.282444
0.781552 0.890562 0.284367
0.783688 0.890745 0.285771
0.787045 0.890257 0.285557
0.792416 0.889067 0.284215
0.799649 0.887449 0.282048
0.809293 0.885252 0.279332
0.821469 0.882536 0.275792
0.835599 0.879515 0.272831
0.852140 0.875975 0.269169
0.870573 0.873136 0.267979
0.890501 0.884215 0.298772
0.911528 0.895445 0.332464
0.933104 0.906432 0.368261
0.954650 0.916991 0.405554
0.976043 0.927062 0.444923
0.996796 0.936614 0.486000
1.000000 0.945434 0.529625
1.000000 0.948455 0.576989
1.000000 0.949310 0.628626
1.000000 0.950134 0.676722
1.000000 0.951080 0.720912
1.000000 0.952270 0.760922
1.000000 0.953765 0.796719
1.000000 0.955932 0.829038
1.000000 0.960021 0.859373
1.000000 0.955993 0.859159
1.000000 0.948486 0.847715
1.000000 0.941192 0.837461
1.000000 0.933837 0.827543
1.000000 0.926696 0.818479
1.000000 0.919554 0.809659
0.806455 0.915435 0.339818
0.807248 0.915679 0.341070
0.808896 0.915587 0.341344
0.812070 0.915038 0.340459
0.816861 0.914000 0.339086
0.823484 0.912505 0.336645
0.832090 0.910643 0.333898
0.842924 0.908324 0.330907
0.856046 0.905669 0.327276
0.871244 0.902617 0.323461
0.888518 0.899077 0.319463
0.906249 0.903929 0.338598
0.924132 0.912993 0.370642
0.942779 0.922026 0.404425
0.961364 0.930663 0.440131
0.979706 0.938903 0.477241
0.997436 0.946685 0.516838
1.000000 0.953979 0.558556
1.000000 0.960204 0.600946
1.000000 0.960693 0.644587
1.000000 0.960723 0.689662
1.000000 0.960906 0.731319
1.000000 0.961273 0.768887
1.000000 0.962005 0.802762
1.000000 0.963104 0.832975
1.000000 0.964813 0.859953
1.000000 0.967926 0.884886
1.000000 0.964965 0.885740
1.000000 0.958587 0.875669
1.000000 0.952636 0.867369
1.000000 0.946502 0.858946
1.000000 0.940307 0.850797
0.828824 0.936034 0.391455
0.829374 0.936248 0.392370
0.830961 0.936217 0.392889
0.833982 0.935851 0.392401
0.838529 0.935271 0.392248
0.844968 0.934508 0.391913
0.853910 0.933715 0.392248
0.864805 0.932799 0.393225
0.877989 0.931731 0.394537
0.893248 0.930419 0.395605
0.910338 0.928893 0.396857
0.928161 0.929412 0.405585
0.943755 0.937011 0.439399
0.959289 0.944182 0.474678
0.974578 0.950835 0.511131
0.989166 0.956909 0.548150
1.000000 0.962463 0.585626
1.000000 0.967651 0.622339
1.000000 0.972442 0.658320
1.000000 0.974975 0.693935
1.000000 0.974212 0.730739
1.000000 0.973480 0.766995
1.000000 0.973053 0.799802
1.000000 0.972992 0.829282
1.000000 0.973358 0.855589
1.000000 0.974151 0.878721
1.000000 0.975525 0.899626
1.000000 0.977661 0.917937
1.000000 0.975677 0.919188
1.000000 0.970581 0.910430
1.000000 0.965789 0.903105
1.000000 0.960937 0.896056
0.858824 0.960601 0.475746
0.859129 0.960571 0.475746
0.860319 0.960357 0.475196
0.862577 0.959930 0.474281
0.866361 0.959258 0.472908
0.871733 0.958343 0.471107
0.878691 0.957275 0.469764
0.887785 0.955993 0.467781
0.898619 0.954498 0.466224
0.911437 0.952758 0.464179
0.925994 0.950774 0.462623
0.942412 0.948516 0.460273
0.955474 0.952453 0.485023
0.968048 0.957458 0.516075
