20 Preset/Travel Style 2/【3】LUT video cho PR-AE-FCPX/Travel 2 LUT (20).cube
# Created by Adobe Lightroom plugin Export LUT (1.24.0)
# www.johnrellis.com/lightroom/exportlut.htm
# Preset: 20素材江湖 - 黑白
# Color profile: E:\lut插件\exportlut.1.24\exportlut.lrplugin\color profiles\Rec709gamma2.4.icc
LUT_3D_SIZE 8
DOMAIN_MIN 0.000000 0.000000 0.000000
DOMAIN_MAX 0.903226 0.903226 0.903226
0.107851 0.107851 0.107851
0.110109 0.110109 0.110109
0.124147 0.124147 0.124147
0.169619 0.169619 0.169619
0.234684 0.234684 0.234684
0.335851 0.335851 0.335851
0.464820 0.464820 0.464820
0.618341 0.618341 0.618341
0.111208 0.111208 0.111208
0.115755 0.115755 0.115755
0.134585 0.134585 0.134585
0.179416 0.179416 0.179416
0.242161 0.242161 0.242161
0.339178 0.339178 0.339178
0.463355 0.463355 0.463355
0.616480 0.616480 0.616480
0.137270 0.137270 0.137270
0.138094 0.138094 0.138094
0.183169 0.183169 0.183169
0.231754 0.231754 0.231754
0.289158 0.289158 0.289158
0.387396 0.387396 0.387396
0.511833 0.511833 0.511833
0.655818 0.655818 0.655818
0.207858 0.207858 0.207858
0.208072 0.208072 0.208072
0.227085 0.227085 0.227085
0.308843 0.308843 0.308843
0.415961 0.415961 0.415961
0.480446 0.480446 0.480446
0.586114 0.586114 0.586114
0.708125 0.708125 0.708125
0.304601 0.304601 0.304601
0.304845 0.304845 0.304845
0.307652 0.307652 0.307652
0.378637 0.378637 0.378637
0.490333 0.490333 0.490333
0.617639 0.617639 0.617639
0.685634 0.685634 0.685634
0.770108 0.770108 0.770108
0.445441 0.445441 0.445441
0.448920 0.448920 0.448920
0.451240 0.451240 0.451240
0.482399 0.482399 0.482399
0.578790 0.578790 0.578790
0.686488 0.686488 0.686488
0.799588 0.799588 0.799588
0.856016 0.856016 0.856016
0.628748 0.628748 0.628748
0.630030 0.630030 0.630030
0.631495 0.631495 0.631495
0.635645 0.635645 0.635645
0.698177 0.698177 0.698177
0.776364 0.776364 0.776364
0.846647 0.846647 0.846647
0.918975 0.918975 0.918975
0.812802 0.812802 0.812802
0.813138 0.813138 0.813138
0.815213 0.815213 0.815213
0.819913 0.819913 0.819913
0.832822 0.832822 0.832822
0.882261 0.882261 0.882261
0.923400 0.923400 0.923400
0.953155 0.953155 0.953155
0.109010 0.109010 0.109010
0.111482 0.111482 0.111482
0.129397 0.129397 0.129397
0.178134 0.178134 0.178134
0.241398 0.241398 0.241398
0.335851 0.335851 0.335851
0.456947 0.456947 0.456947
0.607599 0.607599 0.607599
0.113405 0.113405 0.113405
0.119051 0.119051 0.119051
0.142458 0.142458 0.142458
0.188388 0.188388 0.188388
0.249943 0.249943 0.249943
0.343786 0.343786 0.343786
0.461219 0.461219 0.461219
0.609216 0.609216 0.609216
0.154025 0.154025 0.154025
0.154910 0.154910 0.154910
0.188388 0.188388 0.188388
0.232761 0.232761 0.232761
0.292088 0.292088 0.292088
0.385504 0.385504 0.385504
0.501183 0.501183 0.501183
0.644373 0.644373 0.644373
0.217807 0.217807 0.217807
0.218235 0.218235 0.218235
0.231266 0.231266 0.231266
0.306004 0.306004 0.306004
0.401862 0.401862 0.401862
0.464973 0.464973 0.464973
0.570977 0.570977 0.570977
0.695705 0.695705 0.695705
0.314611 0.314611 0.314611
0.314611 0.314611 0.314611
0.316350 0.316350 0.316350
0.377539 0.377539 0.377539
0.484260 0.484260 0.484260
0.607752 0.607752 0.607752
0.677180 0.677180 0.677180
0.763912 0.763912 0.763912
0.450355 0.450355 0.450355
0.451118 0.451118 0.451118
0.453681 0.453681 0.453681
0.479561 0.479561 0.479561
0.575372 0.575372 0.575372
0.683833 0.683833 0.683833
0.795834 0.795834 0.795834
0.852415 0.852415 0.852415
0.628717 0.628717 0.628717
0.628199 0.628199 0.628199
0.629419 0.629419 0.629419
0.634272 0.634272 0.634272
0.694545 0.694545 0.694545
0.772915 0.772915 0.772915
0.842863 0.842863 0.842863
0.915770 0.915770 0.915770
0.810941 0.810941 0.810941
0.812100 0.812100 0.812100
0.813962 0.813962 0.813962
0.818753 0.818753 0.818753
0.836301 0.836301 0.836301
0.883330 0.883330 0.883330
0.923186 0.923186 0.923186
0.952972 0.952972 0.952972
0.113649 0.113649 0.113649
0.116518 0.116518 0.116518
0.140505 0.140505 0.140505
0.202609 0.202609 0.202609
0.266331 0.266331 0.266331
0.365270 0.365270 0.365270
0.485054 0.485054 0.485054
0.629816 0.629816 0.629816
0.124636 0.124636 0.124636
0.130068 0.130068 0.130068
0.157626 0.157626 0.157626
0.211704 0.211704 0.211704
0.274662 0.274662 0.274662
0.371496 0.371496 0.371496
0.488624 0.488624 0.488624
0.631922 0.631922 0.631922
0.168399 0.168399 0.168399
0.176577 0.176577 0.176577
0.207034 0.207034 0.207034
0.247532 0.247532 0.247532
0.316777 0.316777 0.316777
0.410956 0.410956 0.410956
0.524498 0.524498 0.524498
0.660090 0.660090 0.660090
0.256016 0.256016 0.256016
0.260990 0.260990 0.260990
0.266667 0.266667 0.266667
0.328313 0.328313 0.328313
0.410315 0.410315 0.410315
0.484993 0.484993 0.484993
0.591638 0.591638 0.591638
0.710231 0.710231 0.710231
0.363622 0.363622 0.363622
0.364019 0.364019 0.364019
0.366369 0.366369 0.366369
0.400488 0.400488 0.400488
0.504021 0.504021 0.504021
0.613489 0.613489 0.613489
0.682460 0.682460 0.682460
0.772366 0.772366 0.772366
0.491188 0.491188 0.491188
0.492073 0.492073 0.492073
0.494148 0.494148 0.494148
0.498909 0.498909 0.498909
0.587915 0.587915 0.587915
0.691279 0.691279 0.691279
0.796445 0.796445 0.796445
0.854154 0.854154 0.854154
0.658045 0.658045 0.658045
0.657710 0.657710 0.657710
0.658137 0.658137 0.658137
0.661524 0.661524 0.661524
0.702724 0.702724 0.702724
0.779049 0.779049 0.779049
0.848173 0.848173 0.848173
0.918486 0.918486 0.918486
0.822721 0.822721 0.822721
0.822690 0.822690 0.822690
0.824338 0.824338 0.824338
0.829709 0.829709 0.829709
0.838071 0.838071 0.838071
0.885466 0.885466 0.885466
0.925017 0.925017 0.925017
0.954253 0.954253 0.954253
0.127596 0.127596 0.127596
0.133944 0.133944 0.133944
0.164340 0.164340 0.164340
0.213230 0.213230 0.213230
0.291081 0.291081 0.291081
0.403357 0.403357 0.403357
0.515679 0.515679 0.515679
0.649561 0.649561 0.649561
0.149416 0.149416 0.149416
0.155764 0.155764 0.155764
0.181918 0.181918 0.181918
0.225772 0.225772 0.225772
0.304997 0.304997 0.304997
0.411933 0.411933 0.411933
0.522576 0.522576 0.522576
0.654353 0.654353 0.654353
0.184115 0.184115 0.184115
0.196170 0.196170 0.196170
0.228885 0.228885 0.228885
0.270085 0.270085 0.270085
0.358007 0.358007 0.358007
0.449134 0.449134 0.449134
0.561212 0.561212 0.561212
0.683162 0.683162 0.683162
0.264714 0.264714 0.264714
0.271519 0.271519 0.271519
0.301671 0.301671 0.301671
0.362188 0.362188 0.362188
0.428443 0.428443 0.428443
0.511528 0.511528 0.511528
0.614191 0.614191 0.614191
0.725582 0.725582 0.725582
0.420600 0.420600 0.420600
0.424506 0.424506 0.424506
0.442115 0.442115 0.442115
0.458350 0.458350 0.458350
0.536126 0.536126 0.536126
0.622431 0.622431 0.622431
0.695064 0.695064 0.695064
0.785641 0.785641 0.785641
0.568048 0.568048 0.568048
0.571160 0.571160 0.571160
0.572137 0.572137 0.572137
0.576349 0.576349 0.576349
0.617914 0.617914 0.617914
0.710475 0.710475 0.710475
0.800565 0.800565 0.800565
0.857176 0.857176 0.857176
0.705104 0.705104 0.705104
0.705776 0.705776 0.705776
0.707576 0.707576 0.707576
0.711208 0.711208 0.711208
0.720851 0.720851 0.720851
0.791775 0.791775 0.791775
0.856352 0.856352 0.856352
0.921355 0.921355 0.921355
0.845426 0.845426 0.845426
0.845640 0.845640 0.845640
0.846952 0.846952 0.846952
0.850217 0.850217 0.850217
0.855283 0.855283 0.855283
0.888243 0.888243 0.888243
0.927611 0.927611 0.927611
0.956573 0.956573 0.956573
0.167178 0.167178 0.167178
0.173953 0.173953 0.173953
0.199863 0.199863 0.199863
0.245823 0.245823 0.245823
0.316350 0.316350 0.316350
0.417334 0.417334 0.417334
0.569055 0.569055 0.569055
0.690120 0.690120 0.690120
0.187320 0.187320 0.187320
0.193149 0.193149 0.193149
0.215427 0.215427 0.215427
0.259068 0.259068 0.259068
0.328923 0.328923 0.328923
0.428870 0.428870 0.428870
0.575799 0.575799 0.575799
0.694667 0.694667 0.694667
0.238041 0.238041 0.238041
0.242710 0.242710 0.242710
0.263157 0.263157 0.263157
0.308171 0.308171 0.308171
0.375036 0.375036 0.375036
0.470314 0.470314 0.470314
0.599634 0.599634 0.599634
0.710292 0.710292 0.710292
0.280613 0.280613 0.280613
0.287633 0.287633 0.287633
0.321324 0.321324 0.321324
0.397559 0.397559 0.397559
0.458991 0.458991 0.458991
0.553216 0.553216 0.553216
0.647822 0.647822 0.647822
0.744564 0.744564 0.744564
0.415534 0.415503 0.415503
0.422065 0.422065 0.422065
0.448219 0.448219 0.448219
0.497749 0.497749 0.497749
0.568017 0.568017 0.568017
0.632715 0.632715 0.632715
0.710109 0.710109 0.710109
0.793851 0.793851 0.793851
0.601404 0.601404 0.601404
0.604456 0.604456 0.604456
0.614618 0.614618 0.614618
0.635096 0.635096 0.635096
0.655482 0.655482 0.655482
0.726741 0.726741 0.726741
0.800107 0.800107 0.800107
0.856474 0.856474 0.856474
0.746059 0.746059 0.746059
0.747005 0.747005 0.747005
0.752621 0.752621 0.752621
0.760372 0.760372 0.760372
0.765286 0.765286 0.765286
0.800229 0.800229 0.800229
0.863127 0.863127 0.863127
0.921630 0.921630 0.921630
0.866484 0.866484 0.866484
0.866606 0.866606 0.866606
0.867521 0.867521 0.867521
0.871855 0.871855 0.871855
0.876463 0.876463 0.876463
0.887602 0.887602 0.887602
0.928466 0.928466 0.928466
0.957733 0.957733 0.957733
0.220890 0.220890 0.220890
0.226383 0.226383 0.226383
0.248692 0.248692 0.248692
0.297704 0.297704 0.297704
0.376379 0.376379 0.376379
0.464118 0.464118 0.464118
0.569390 0.569390 0.569390
0.725887 0.725887 0.725887
0.235080 0.235080 0.235080
0.240024 0.240024 0.240024
0.261814 0.261814 0.261814
0.308904 0.308904 0.308904
0.384436 0.384436 0.384436
0.470527 0.470527 0.470527
0.574975 0.574975 0.574975
0.728542 0.728542 0.728542
0.289525 0.289525 0.289525
0.294713 0.294713 0.294713
0.317174 0.317174 0.317174
0.361334 0.361334 0.361334
0.430518 0.430518 0.430518
0.511345 0.511345 0.511345
0.611872 0.611872 0.611872
0.751247 0.751247 0.751247
0.351171 0.351171 0.351171
0.362524 0.362524 0.362524
0.409827 0.409827 0.409827
0.452583 0.452583 0.452583
0.515160 0.515160 0.515160
0.587518 0.587518 0.587518
0.677211 0.677211 0.677211
0.789487 0.789487 0.789487
0.438025 0.438025 0.438025
0.444038 0.444038 0.444038
0.468910 0.468910 0.468910
0.516686 0.516686 0.516686
0.607202 0.607202 0.607202
0.665278 0.665278 0.665278
0.744747 0.744747 0.744747
0.819974 0.819974 0.819974
0.592004 0.592004 0.592004
0.597528 0.597528 0.597528
0.615412 0.615412 0.615412
0.648554 0.648554 0.648554
0.695430 0.695430 0.695430
0.756374 0.756374 0.756374
0.809689 0.809689 0.809689
0.867094 0.867094 0.867094
0.780667 0.780667 0.780667
0.782712 0.782712 0.782712
0.788479 0.788479 0.788479
0.799985 0.799985 0.799985
0.817563 0.817563 0.817563
0.830747 0.830747 0.830747
0.877653 0.877653 0.877653
0.925414 0.925414 0.925414
0.887572 0.887572 0.887572
0.887938 0.887938 0.887938
0.890562 0.890562 0.890562
0.896788 0.896788 0.896788
0.904051 0.904051 0.904051
0.908568 0.908568 0.908568
0.930816 0.930816 0.930816
0.960632 0.960632 0.960632
0.298741 0.298741 0.298741
0.306645 0.306645 0.306645
0.331914 0.331914 0.331914
0.383429 0.383429 0.383429
0.457679 0.457679 0.457679
0.551720 0.551720 0.551720
0.637385 0.637385 0.637385
0.714992 0.714992 0.714992
0.305577 0.305577 0.305577
0.313848 0.313848 0.313848
0.337560 0.337560 0.337560
0.384405 0.384405 0.384405
0.454017 0.454017 0.454017
0.541588 0.541588 0.541588
0.623316 0.623316 0.623316
0.699580 0.699580 0.699580
0.364019 0.364019 0.364019
0.369299 0.369299 0.369299
0.389532 0.389532 0.389532
0.431586 0.431586 0.431586
0.493599 0.493599 0.493599
0.576806 0.576806 0.576806
0.658381 0.658381 0.658381
0.737423 0.737423 0.737423
0.454871 0.454871 0.454871
0.458259 0.458259 0.458259
0.474800 0.474800 0.474800
0.514549 0.514549 0.514549
0.571283 0.571283 0.571283
0.644465 0.644465 0.644465
0.714748 0.714748 0.714748
0.783352 0.783352 0.783352
0.469490 0.469490 0.469490
0.475990 0.475990 0.475990
0.512108 0.512108 0.512108
0.585687 0.585687 0.585687
0.640467 0.640467 0.640467
0.698024 0.698024 0.698024
0.756680 0.756680 0.756680
0.829618 0.829618 0.829618
0.602930 0.602930 0.602930
0.607324 0.607324 0.607324
0.623316 0.623316 0.623316
0.653803 0.653803 0.653803
0.697719 0.697719 0.697719
0.780270 0.780270 0.780270
0.828824 0.828824 0.828824
0.884703 0.884703 0.884703
0.751583 0.751583 0.751583
0.755642 0.755642 0.755642
0.765286 0.765286 0.765286
0.785153 0.785153 0.785153
0.812436 0.812436 0.812436
0.848203 0.848203 0.848203
0.891173 0.891173 0.891173
0.927031 0.927031 0.927031
0.903532 0.903532 0.903532
0.904601 0.904601 0.904601
0.910338 0.910338 0.910338
0.916533 0.916533 0.916533
0.924346 0.924346 0.924346
0.934295 0.934295 0.934295
0.941894 0.941894 0.941894
0.964721 0.964721 0.964721
0.416419 0.416419 0.416419
0.423713 0.423713 0.423713
0.443946 0.443946 0.443946
0.491371 0.491371 0.491371
0.560296 0.560296 0.560296
0.640558 0.640558 0.640558
0.724880 0.724880 0.724880
0.786770 0.786770 0.786770
0.419287 0.419287 0.419287
0.426429 0.426429 0.426429
0.448005 0.448005 0.448005
0.492653 0.492653 0.492653
0.559564 0.559564 0.559564
0.638392 0.638392 0.638392
0.719783 0.719783 0.719783
0.781003 0.781003 0.781003
0.455634 0.455634 0.455634
0.460883 0.460883 0.460883
0.479713 0.479713 0.479713
0.527886 0.527886 0.527886
0.587091 0.587091 0.587091
0.656184 0.656184 0.656184
0.732784 0.732784 0.732784
0.791806 0.791806 0.791806
0.515099 0.515099 0.515099
0.520989 0.520989 0.520989
0.539300 0.539300 0.539300
0.579187 0.579187 0.579187
0.633082 0.633082 0.633082
0.695796 0.695796 0.695796
0.763912 0.763912 0.763912
0.818540 0.818540 0.818540
0.555474 0.555474 0.555474
0.565118 0.565118 0.565118
0.595117 0.595117 0.595117
0.634485 0.634485 0.634485
0.679164 0.679164 0.679164
0.733639 0.733639 0.733639
0.795010 0.795010 0.795010
0.849546 0.849546 0.849546
0.581903 0.581903 0.581903
0.582330 0.582330 0.582330
0.589105 0.589105 0.589105
0.636347 0.636347 0.636347
0.720790 0.720790 0.720790
0.789456 0.789456 0.789456
0.849210 0.849210 0.849210
0.898131 0.898131 0.898131
0.744320 0.744320 0.744320
0.745541 0.745541 0.745541
0.751736 0.751736 0.751736
0.768399 0.768399 0.768399
0.794888 0.794888 0.794888
0.833158 0.833158 0.833158
0.902647 0.902647 0.902647
0.932921 0.932921 0.932921
0.878019 0.878019 0.878019
0.878660 0.878660 0.878660
0.883116 0.883116 0.883116
0.893431 0.893431 0.893431
0.907866 0.907866 0.907866
0.925750 0.925750 0.925750
0.946593 0.946593 0.946593
0.967102 0.967102 0.967102
