20 Preset/Travel Style 2/【3】LUT video cho PR-AE-FCPX/Travel 2 LUT (12).cube
# Created by Adobe Lightroom plugin Export LUT (1.24.0)
# www.johnrellis.com/lightroom/exportlut.htm
# Preset: 12素材江湖 - PORTRAIT I
# Color profile: E:\lut插件\exportlut.1.24\exportlut.lrplugin\color profiles\Rec709gamma2.4.icc
LUT_3D_SIZE 8
DOMAIN_MIN 0.000000 0.000000 0.000000
DOMAIN_MAX 0.903226 0.903226 0.903226
0.017914 0.073701 0.095186
0.061463 0.079072 0.098512
0.160372 0.080110 0.106325
0.363043 0.000000 0.110933
0.698909 0.000000 0.108492
0.978027 0.000000 0.099825
1.000000 0.000000 0.128664
1.000000 0.243565 0.228305
0.014740 0.094972 0.107240
0.064057 0.092897 0.099123
0.147494 0.100191 0.106844
0.334936 0.037446 0.109957
0.661280 0.000000 0.106081
0.952361 0.000000 0.091066
1.000000 0.000000 0.112520
1.000000 0.261418 0.214237
0.000000 0.143313 0.138186
0.000000 0.139620 0.133150
0.161624 0.143648 0.109285
0.296269 0.162325 0.106172
0.609796 0.124849 0.092042
0.925017 0.098878 0.000000
1.000000 0.274052 0.033295
1.000000 0.395697 0.215183
0.000000 0.246738 0.193820
0.000000 0.240299 0.187045
0.000000 0.242008 0.151339
0.398688 0.261997 0.100557
0.638270 0.287205 0.020569
0.875029 0.363470 0.000000
1.000000 0.460548 0.000000
1.000000 0.527947 0.197635
0.000000 0.399145 0.277684
0.000000 0.391302 0.269566
0.000000 0.362005 0.239658
0.000000 0.426215 0.165316
0.718044 0.452033 0.000000
0.891295 0.492317 0.000000
0.996460 0.577081 0.000000
1.000000 0.641505 0.170474
0.000000 0.581079 0.394598
0.000000 0.579614 0.389929
0.000000 0.548669 0.353613
0.000000 0.518181 0.279576
0.446357 0.655909 0.157717
0.935149 0.680781 0.000000
1.000000 0.689876 0.000000
1.000000 0.731014 0.169955
0.000000 0.785153 0.561364
0.000000 0.782040 0.554864
0.000000 0.761471 0.519219
0.000000 0.717098 0.449561
0.000000 0.762997 0.320409
0.751064 0.850309 0.263249
1.000000 0.809689 0.175509
1.000000 0.788479 0.235294
0.473396 0.923186 0.767300
0.465553 0.922362 0.763180
0.431769 0.918944 0.745174
0.357885 0.911742 0.706630
0.000000 0.887297 0.613550
0.590814 0.931518 0.552880
0.915648 0.944121 0.535882
1.000000 0.876585 0.433021
0.016419 0.088045 0.114046
0.046845 0.086091 0.113405
0.151186 0.088838 0.114992
0.322454 0.037293 0.115114
0.643397 0.000000 0.106691
0.941344 0.000000 0.091920
1.000000 0.000000 0.108461
1.000000 0.234409 0.205478
0.013703 0.098787 0.118349
0.040986 0.100984 0.119997
0.142275 0.107149 0.121736
0.313817 0.095094 0.117830
0.626429 0.000000 0.104250
0.928771 0.000000 0.082765
1.000000 0.000000 0.095705
1.000000 0.259129 0.195865
0.000000 0.153384 0.153689
0.000000 0.151583 0.151003
0.155032 0.151003 0.129915
0.293248 0.168765 0.128511
0.586633 0.145480 0.103578
0.895262 0.126711 0.000000
1.000000 0.262516 0.000000
1.000000 0.382818 0.190433
0.000000 0.256138 0.210544
0.000000 0.250187 0.203708
0.000000 0.241489 0.169772
0.374060 0.260197 0.130373
0.592615 0.279393 0.112184
0.837156 0.339361 0.000000
1.000000 0.436194 0.000000
1.000000 0.512444 0.164340
0.000000 0.409766 0.295781
0.000000 0.401068 0.286595
0.000000 0.370275 0.254215
0.000000 0.416754 0.185946
0.693263 0.439826 0.025727
0.869322 0.479469 0.000000
0.985412 0.565423 0.000000
1.000000 0.633356 0.141878
0.000000 0.584192 0.407172
0.000000 0.577508 0.399023
0.000000 0.548272 0.363714
0.000000 0.506004 0.296666
0.428840 0.644556 0.190249
0.926543 0.676509 0.000000
1.000000 0.687861 0.000000
1.000000 0.726284 0.147616
0.000000 0.782162 0.566735
0.000000 0.776394 0.557305
0.000000 0.755337 0.521965
0.000000 0.712215 0.454383
0.000000 0.752255 0.328771
0.739132 0.844297 0.280491
1.000000 0.806577 0.209354
1.000000 0.786343 0.254887
0.473701 0.920592 0.766629
0.470222 0.920317 0.764004
0.435615 0.916655 0.745632
0.362860 0.909117 0.706966
0.168673 0.893156 0.633265
0.591333 0.931731 0.567315
0.912474 0.943664 0.548913
1.000000 0.877806 0.455390
0.000000 0.106996 0.165103
0.011627 0.106233 0.166690
0.125154 0.102419 0.167575
0.310430 0.042573 0.174441
0.674403 0.000000 0.190127
0.947753 0.000000 0.181857
1.000000 0.132479 0.141146
1.000000 0.318639 0.204868
0.000000 0.122560 0.169436
0.006928 0.123445 0.173068
0.128206 0.119814 0.175082
0.315312 0.100313 0.181399
0.659480 0.000000 0.197391
0.934386 0.000000 0.185428
1.000000 0.182010 0.139040
1.000000 0.334874 0.196323
0.000000 0.172671 0.193729
0.000000 0.175662 0.195132
0.134371 0.190188 0.204410
0.327611 0.202182 0.208316
0.630396 0.189273 0.209537
0.911894 0.214939 0.191958
1.000000 0.327398 0.147311
1.000000 0.421149 0.186709
0.000000 0.304570 0.266300
0.000000 0.304326 0.267247
0.104860 0.293553 0.258915
0.376196 0.299748 0.220829
0.585046 0.326787 0.219730
0.863279 0.387243 0.204257
1.000000 0.474708 0.170169
1.000000 0.535454 0.169680
0.000000 0.468696 0.371283
0.000000 0.464942 0.369635
0.000000 0.438544 0.341192
0.000000 0.430335 0.267308
0.692744 0.477058 0.228550
0.858854 0.513909 0.217716
0.990295 0.593317 0.203891
1.000000 0.646571 0.212619
0.000000 0.641169 0.494667
0.000000 0.635004 0.486183
0.000000 0.604852 0.446937
0.000000 0.544915 0.374548
0.410193 0.645716 0.296208
0.913725 0.690486 0.253300
1.000000 0.704463 0.273136
1.000000 0.741207 0.310613
0.204379 0.813657 0.638575
0.179599 0.808774 0.629511
0.000000 0.789364 0.593713
0.000000 0.748867 0.523827
0.000000 0.746059 0.397192
0.722652 0.845365 0.382300
1.000000 0.818235 0.375494
1.000000 0.802548 0.405554
0.569604 0.924681 0.800595
0.561547 0.923613 0.796231
0.533196 0.920226 0.779751
0.479866 0.914092 0.746456
0.361456 0.899657 0.677272
0.585473 0.930236 0.611719
0.902007 0.944213 0.614466
1.000000 0.886259 0.556359
0.000000 0.140505 0.254826
0.000000 0.141024 0.260990
0.116060 0.140932 0.264958
0.265843 0.124697 0.274052
0.550805 0.000000 0.290867
0.924712 0.000000 0.324468
1.000000 0.240085 0.389776
1.000000 0.419684 0.401068
0.000000 0.161563 0.262547
0.000000 0.162570 0.267582
0.121157 0.161685 0.274510
0.274571 0.146761 0.283085
0.564416 0.000000 0.300847
0.929198 0.000000 0.332799
1.000000 0.306706 0.405524
1.000000 0.438666 0.405402
0.000000 0.216342 0.285710
0.000000 0.218845 0.286717
0.122683 0.228733 0.299413
0.297795 0.222263 0.310826
0.617304 0.207492 0.340826
0.942901 0.276677 0.397955
1.000000 0.439002 0.435981
1.000000 0.517510 0.432471
0.000000 0.333684 0.349493
0.000000 0.335821 0.350561
0.137881 0.347417 0.357763
0.357458 0.377600 0.381262
0.642817 0.405524 0.397894
0.886595 0.464607 0.419165
1.000000 0.544610 0.437812
1.000000 0.601099 0.446845
0.000000 0.568231 0.492958
0.000000 0.564080 0.490303
0.226596 0.549889 0.482551
0.370794 0.515038 0.455024
0.677577 0.543114 0.419379
0.830655 0.577356 0.419226
0.991791 0.650385 0.447181
1.000000 0.693385 0.476967
0.169650 0.726711 0.605859
0.226535 0.727932 0.608118
0.336736 0.712306 0.596704
0.382055 0.668086 0.547143
0.403357 0.661006 0.446082
0.892546 0.727413 0.472663
0.986847 0.741024 0.487129
1.000000 0.773220 0.512810
0.424567 0.855222 0.731044
0.437690 0.853513 0.729854
0.482765 0.844266 0.722255
0.430213 0.816251 0.665553
0.302312 0.754452 0.552880
0.692287 0.848722 0.524254
0.996185 0.839719 0.566583
1.000000 0.830381 0.587671
0.691066 0.934325 0.853056
0.694392 0.933440 0.852476
0.685451 0.930297 0.843381
0.642267 0.924315 0.815824
0.558434 0.912383 0.759426
0.570245 0.925414 0.675257
0.882963 0.944396 0.705653
1.000000 0.902007 0.697902
0.000000 0.198978 0.390417
0.000000 0.200595 0.397192
0.000000 0.201205 0.406958
0.285496 0.193454 0.419623
0.503807 0.137057 0.442817
0.791836 0.000000 0.470039
1.000000 0.017670 0.531182
1.000000 0.427680 0.574853
0.000000 0.219547 0.397406
0.000000 0.221103 0.404059
0.000000 0.221744 0.417151
0.293339 0.213077 0.427253
0.511681 0.166384 0.449958
0.796445 0.000000 0.476692
1.000000 0.184085 0.539025
1.000000 0.461769 0.586145
0.000000 0.277470 0.412055
0.000000 0.279026 0.414588
0.040070 0.286290 0.437018
0.314336 0.283604 0.454200
0.533867 0.258701 0.473823
0.805020 0.245396 0.497963
1.000000 0.372747 0.567742
1.000000 0.591028 0.642969
0.000000 0.380560 0.472358
0.000000 0.382086 0.472816
0.112093 0.389929 0.476844
0.351751 0.410315 0.501457
0.579675 0.411994 0.529107
0.846098 0.462989 0.571893
1.000000 0.605158 0.647761
1.000000 0.721950 0.715694
0.000000 0.554284 0.565209
0.000000 0.556573 0.566644
0.229221 0.564233 0.571771
0.436835 0.581598 0.583948
0.622980 0.617609 0.610895
0.835966 0.666712 0.640223
0.971893 0.724605 0.678340
1.000000 0.764065 0.706630
0.279576 0.796933 0.723903
0.318273 0.798428 0.725612
0.408118 0.787778 0.717159
0.518914 0.765408 0.699275
0.595483 0.721401 0.655604
0.844755 0.763058 0.654566
0.939361 0.781094 0.663935
1.000000 0.815335 0.708370
0.528893 0.892210 0.811643
0.534508 0.890349 0.809659
0.561486 0.883604 0.803189
0.617243 0.870726 0.792782
0.617853 0.838010 0.742763
0.635615 0.837522 0.647303
0.959503 0.862943 0.726619
1.000000 0.860319 0.736294
0.707790 0.945006 0.879026
0.711910 0.944274 0.878752
0.728176 0.941222 0.877623
0.759060 0.936187 0.876707
0.729152 0.925872 0.847623
0.622370 0.906401 0.767453
0.854673 0.941344 0.780819
1.000000 0.918364 0.806058
0.000000 0.285374 0.567163
0.000000 0.286290 0.572381
0.000000 0.286076 0.585138
0.315740 0.281102 0.598199
0.549523 0.254643 0.614679
0.756130 0.195865 0.644556
0.965820 0.233677 0.673701
1.000000 0.450141 0.711391
0.000000 0.299229 0.564111
0.000000 0.299657 0.568322
0.000000 0.299016 0.582971
0.312749 0.293553 0.593744
0.544030 0.270573 0.610803
0.751369 0.222690 0.642115
0.961151 0.262486 0.671839
1.000000 0.467811 0.712673
0.000000 0.358587 0.577691
0.000000 0.359319 0.581292
0.000000 0.362951 0.598718
0.336095 0.358587 0.614160
0.560204 0.346258 0.631037
0.763272 0.326696 0.662470
0.960967 0.383764 0.689448
1.000000 0.570306 0.737728
0.000000 0.455848 0.617182
0.000000 0.455512 0.615930
0.085725 0.457649 0.615015
0.373816 0.476265 0.650355
0.591180 0.483192 0.678126
0.785336 0.488685 0.707668
0.955962 0.559228 0.727901
1.000000 0.716487 0.790829
0.000000 0.597436 0.684962
0.000000 0.598016 0.684932
0.230686 0.600580 0.685695
0.415503 0.607477 0.688777
0.594171 0.631006 0.711940
0.781979 0.654536 0.745815
0.938781 0.731319 0.784421
1.000000 0.826200 0.844083
0.263340 0.767758 0.770443
0.300084 0.769986 0.772671
0.398474 0.772457 0.774411
0.528374 0.778439 0.778866
0.664088 0.789883 0.787686
0.797665 0.816464 0.810452
0.920287 0.852171 0.840787
0.983825 0.876616 0.862272
0.621302 0.915282 0.876310
0.633936 0.915740 0.877379
0.674586 0.916136 0.879515
0.735286 0.916106 0.882597
0.772488 0.904173 0.872679
0.783963 0.873136 0.836576
0.924163 0.893004 0.847532
0.972442 0.896269 0.850004
0.771908 0.957427 0.916991
0.773404 0.956939 0.916533
0.782467 0.955230 0.915465
0.799863 0.952056 0.913542
0.821866 0.945586 0.908629
0.814328 0.931182 0.884672
0.823239 0.934936 0.841367
0.983520 0.935943 0.882750
0.000000 0.407172 0.758389
0.000000 0.409186 0.763729
0.000000 0.403937 0.772702
0.390204 0.399207 0.780240
0.600000 0.387366 0.789822
0.785031 0.371160 0.802548
0.934783 0.360418 0.824094
1.000000 0.466651 0.813077
0.000000 0.410010 0.745449
0.000000 0.412665 0.751766
0.000000 0.409949 0.761807
0.374365 0.401831 0.768673
0.584344 0.388983 0.777462
0.768338 0.369940 0.788540
0.919524 0.353582 0.809140
1.000000 0.448341 0.800778
0.000000 0.466194 0.756100
0.000000 0.465888 0.758297
0.089967 0.462959 0.765682
0.386511 0.457435 0.778439
0.586358 0.447303 0.784848
0.768582 0.438483 0.797665
0.922484 0.444038 0.823392
1.000000 0.549462 0.818570
0.000000 0.552819 0.770230
0.000000 0.549859 0.767514
0.131991 0.547326 0.771572
0.401038 0.554040 0.791623
0.594476 0.555383 0.806210
0.771542 0.561639 0.820768
0.917998 0.583886 0.843748
1.000000 0.671778 0.838560
0.000000 0.661219 0.805051
0.000000 0.657313 0.801938
0.212589 0.650874 0.796536
0.378790 0.643977 0.790921
0.574609 0.659663 0.810513
0.750881 0.675807 0.829557
0.895323 0.699428 0.851072
0.981048 0.776761 0.859861
0.303838 0.785306 0.848081
0.326421 0.785611 0.848203
0.399573 0.785367 0.847684
0.504021 0.785031 0.846586
0.617884 0.783871 0.843656
0.757748 0.802487 0.855589
0.886290 0.830045 0.879606
0.965148 0.876524 0.899199
0.572656 0.891691 0.893400
0.585077 0.892454 0.894194
0.620020 0.892760 0.894377
0.681636 0.894102 0.895415
0.753384 0.896056 0.896635
0.826932 0.901030 0.900114
0.894926 0.912566 0.909819
0.960235 0.931243 0.926909
0.784024 0.960540 0.939055
0.788540 0.960540 0.939300
0.808408 0.960967 0.940887
0.837400 0.961151 0.942687
0.872923 0.961852 0.945495
0.890867 0.957305 0.942016
0.889525 0.941894 0.922820
0.965484 0.950774 0.930388
0.296513 0.584558 0.901976
0.327428 0.586267 0.903288
0.409216 0.581476 0.903532
0.532952 0.579400 0.906188
0.666896 0.575891 0.907988
0.796841 0.571527 0.910155
0.918761 0.576135 0.914672
1.000000 0.582635 0.921141
0.273198 0.583124 0.896818
0.307164 0.585016 0.898375
0.398138 0.582818 0.899870
0.522789 0.579339 0.902495
0.658717 0.575616 0.904479
0.790799 0.571099 0.906920
0.913664 0.572045 0.910948
1.000000 0.576532 0.917510
0.269749 0.613855 0.894011
0.299046 0.614008 0.894743
0.387915 0.610681 0.895781
0.526116 0.618647 0.902739
0.654322 0.612543 0.903624
0.782040 0.605676 0.905028
0.904204 0.609125 0.909667
0.999176 0.617029 0.916777
0.240299 0.665736 0.891142
0.276127 0.666743 0.892210
0.372869 0.665156 0.893767
0.513268 0.670649 0.898985
0.648707 0.675441 0.903655
0.772915 0.674678 0.906401
0.891020 0.681239 0.911559
0.983825 0.693843 0.919158
0.275944 0.735439 0.898314
0.297490 0.735683 0.898528
0.346410 0.728847 0.895506
0.461677 0.724910 0.893706
0.624903 0.734524 0.900389
0.755764 0.742000 0.905821
0.872221 0.751919 0.912047
0.964721 0.772396 0.921721
0.438666 0.820188 0.914122
0.441688 0.818326 0.913115
0.465370 0.813169 0.910338
0.521630 0.806912 0.906950
0.600183 0.798886 0.902678
0.750179 0.817838 0.910277
0.866087 0.839689 0.921569
0.950042 0.859373 0.932403
0.635035 0.899840 0.934936
0.639002 0.899565 0.934691
0.656764 0.898680 0.933837
0.694301 0.898253 0.932982
0.744015 0.897795 0.931579
0.799374 0.897032 0.929564
0.867704 0.901030 0.930571
0.941955 0.914336 0.941314
0.770871 0.949737 0.951446
0.773129 0.949615 0.951324
0.784909 0.949645 0.951263
0.809110 0.950225 0.951690
0.840391 0.950988 0.952117
0.875395 0.952056 0.952575
0.912139 0.954131 0.953765
0.948577 0.958740 0.957458
