20 Preset/Travel Style 2/【3】LUT video cho PR-AE-FCPX/Travel 2 LUT (19).cube
# Created by Adobe Lightroom plugin Export LUT (1.24.0)
# www.johnrellis.com/lightroom/exportlut.htm
# Preset: 19素材江湖 - PURPLE
# Color profile: E:\lut插件\exportlut.1.24\exportlut.lrplugin\color profiles\Rec709gamma2.4.icc
LUT_3D_SIZE 32
DOMAIN_MIN 0.0 0.0 0.0
DOMAIN_MAX 1.0 1.0 1.0
0.104280 0.087953 0.120211
0.104646 0.088319 0.120180
0.109071 0.088075 0.120394
0.117647 0.088014 0.120546
0.130922 0.087678 0.121157
0.145144 0.087007 0.121706
0.160189 0.086000 0.122164
0.176577 0.084169 0.123140
0.194797 0.081788 0.123751
0.215274 0.076875 0.124544
0.238346 0.068513 0.125124
0.264591 0.054536 0.125551
0.294438 0.033417 0.126070
0.328496 0.002625 0.126284
0.367285 0.000000 0.125887
0.410040 0.000000 0.125246
0.456580 0.000000 0.124086
0.505455 0.000000 0.122499
0.555200 0.000000 0.120302
0.604608 0.000000 0.117281
0.652369 0.000000 0.113375
0.697749 0.000000 0.108827
0.740230 0.000000 0.102998
0.780850 0.000000 0.095491
0.819913 0.000000 0.085603
0.857572 0.000000 0.060060
0.892973 0.000000 0.027710
0.925902 0.000000 0.000000
0.956542 0.000000 0.000000
0.985138 0.000000 0.000000
1.000000 0.000000 0.000000
1.000000 0.000000 0.000000
0.104952 0.088655 0.120424
0.105531 0.088594 0.120424
0.109804 0.088808 0.120333
0.118227 0.088746 0.120760
0.131502 0.088472 0.121065
0.145632 0.088075 0.121614
0.160586 0.087221 0.122377
0.177249 0.085267 0.123079
0.195346 0.082856 0.123934
0.215793 0.078431 0.124453
0.238926 0.070039 0.125338
0.265507 0.054383 0.125795
0.295476 0.034058 0.125978
0.329717 0.003754 0.126162
0.368536 0.000000 0.125765
0.411444 0.000000 0.125368
0.458045 0.000000 0.123873
0.506615 0.000000 0.122316
0.556725 0.000000 0.119997
0.605982 0.000000 0.117006
0.653773 0.000000 0.113344
0.699001 0.000000 0.108431
0.741451 0.000000 0.102571
0.782010 0.000000 0.095308
0.821073 0.000000 0.084291
0.858610 0.000000 0.058930
0.893950 0.000000 0.026886
0.926787 0.000000 0.000000
0.957244 0.000000 0.000000
0.985748 0.000000 0.000000
1.000000 0.000000 0.000000
1.000000 0.000000 0.000000
0.106050 0.092195 0.121767
0.107240 0.092042 0.121767
0.110384 0.092439 0.121401
0.119905 0.092195 0.121248
0.133089 0.091493 0.121614
0.146975 0.091096 0.122408
0.161868 0.090028 0.123201
0.178714 0.088777 0.123629
0.196902 0.086854 0.124208
0.217472 0.082887 0.124971
0.240696 0.075746 0.125582
0.267124 0.061097 0.126009
0.297581 0.039643 0.126192
0.331884 0.008698 0.126375
0.371038 0.000000 0.125887
0.414313 0.000000 0.125185
0.460822 0.000000 0.123934
0.509819 0.000000 0.122255
0.559319 0.000000 0.119905
0.608576 0.000000 0.116854
0.656245 0.000000 0.112703
0.701198 0.000000 0.107973
0.743160 0.000000 0.102052
0.783719 0.000000 0.094240
0.822629 0.000000 0.082795
0.859953 0.000000 0.056580
0.895109 0.000000 0.022492
0.927764 0.000000 0.000000
0.958099 0.000000 0.000000
0.986542 0.000000 0.000000
1.000000 0.000000 0.000000
1.000000 0.000000 0.000000
0.110170 0.099641 0.125368
0.110719 0.099550 0.125368
0.114473 0.099458 0.125063
0.121767 0.099916 0.123781
0.135592 0.098848 0.122774
0.149477 0.096498 0.123507
0.164614 0.095766 0.124239
0.181186 0.094209 0.124697
0.199557 0.092561 0.125277
0.220340 0.089570 0.125795
0.243870 0.084688 0.126345
0.270787 0.073854 0.126467
0.301518 0.052247 0.126589
0.336522 0.021241 0.126406
0.375830 0.000000 0.126162
0.419471 0.000000 0.125093
0.466224 0.000000 0.123903
0.514916 0.000000 0.121889
0.564446 0.000000 0.119081
0.613550 0.000000 0.115724
0.660883 0.000000 0.111788
0.705379 0.000000 0.106813
0.746853 0.000000 0.100649
0.786770 0.000000 0.092470
0.825223 0.000000 0.079286
0.862181 0.000000 0.048646
0.896849 0.000000 0.016632
0.929137 0.000000 0.000000
0.959228 0.000000 0.000000
0.987304 0.000000 0.000000
1.000000 0.000000 0.000000
1.000000 0.000000 0.000000
0.117220 0.109133 0.131044
0.117739 0.109071 0.131044
0.120668 0.109041 0.130739
0.126162 0.109316 0.129854
0.136324 0.109834 0.127779
0.152865 0.109102 0.125887
0.168490 0.105318 0.125612
0.185183 0.102754 0.126162
0.204135 0.100618 0.126467
0.225315 0.098024 0.126925
0.249332 0.094240 0.126955
0.276738 0.088563 0.127016
0.307958 0.072969 0.127077
0.343542 0.042420 0.126772
0.383337 0.000000 0.126101
0.427161 0.000000 0.124849
0.474220 0.000000 0.123232
0.522606 0.000000 0.121279
0.571649 0.000000 0.118288
0.620172 0.000000 0.114626
0.666926 0.000000 0.110353
0.710750 0.000000 0.104677
0.751400 0.000000 0.098024
0.790890 0.000000 0.089540
0.828763 0.000000 0.071015
0.865293 0.000000 0.038666
0.899321 0.000000 0.004608
0.931121 0.000000 0.000000
0.960815 0.000000 0.000000
0.988617 0.000000 0.000000
1.000000 0.000000 0.000000
1.000000 0.013977 0.000000
0.122774 0.120882 0.136049
0.123262 0.120821 0.136049
0.126009 0.120790 0.135775
0.131228 0.120729 0.135439
0.139559 0.121370 0.133974
0.152987 0.121706 0.131655
0.172885 0.121736 0.129366
0.190982 0.117556 0.127993
0.210422 0.112490 0.127626
0.231968 0.109255 0.127871
0.256809 0.105684 0.127810
0.284642 0.100954 0.127535
0.316594 0.093385 0.127474
0.352697 0.078035 0.126772
0.393378 0.036469 0.126101
0.437201 0.000000 0.124636
0.483925 0.000000 0.122530
0.532403 0.000000 0.120241
0.580987 0.000000 0.116884
0.628595 0.000000 0.112947
0.674342 0.000000 0.107851
0.717128 0.000000 0.101961
0.752102 0.000000 0.095460
0.791043 0.000000 0.085237
0.828672 0.000000 0.060182
0.864927 0.000000 0.028260
0.898863 0.000000 0.000000
0.930419 0.000000 0.000000
0.959960 0.000000 0.000000
0.987701 0.000000 0.000000
1.000000 0.000000 0.000000
1.000000 0.116548 0.000000
0.128115 0.134585 0.141512
0.128573 0.134524 0.141512
0.131167 0.134493 0.141238
0.136873 0.134340 0.141146
0.144533 0.134432 0.140322
0.155276 0.135744 0.138064
0.171817 0.136507 0.135409
0.196445 0.137545 0.132540
0.216953 0.132448 0.131014
0.239872 0.127047 0.129488
0.265049 0.120485 0.128573
0.293584 0.116457 0.128176
0.326268 0.110933 0.127657
0.363073 0.102235 0.126741
0.403632 0.088258 0.125612
0.448157 0.043214 0.123812
0.494789 0.000000 0.121370
0.542687 0.000000 0.118379
0.590539 0.000000 0.114565
0.637049 0.000000 0.110048
0.681483 0.000000 0.104494
0.722621 0.000000 0.098054
0.761410 0.000000 0.089204
0.799100 0.000000 0.070985
0.835416 0.000000 0.040131
0.870481 0.000000 0.007599
0.903410 0.000000 0.000000
0.934203 0.000000 0.000000
0.963073 0.000000 0.000000
0.990234 0.025605 0.000000
1.000000 0.125917 0.000000
1.000000 0.170016 0.000000
0.134310 0.152041 0.148287
0.135225 0.151949 0.148074
0.137423 0.152163 0.147982
0.142733 0.152224 0.147677
0.151369 0.152132 0.147097
0.161807 0.152987 0.145663
0.175875 0.154269 0.142916
0.195773 0.155215 0.139467
0.225528 0.158419 0.135805
0.249821 0.152529 0.134005
0.276890 0.146456 0.132143
0.307073 0.139284 0.130434
0.341131 0.131350 0.127901
0.379034 0.125154 0.126101
0.420325 0.116091 0.124269
0.465003 0.102113 0.122042
0.511345 0.076234 0.119051
0.558618 0.010193 0.115450
0.605615 0.000000 0.110780
0.650935 0.000000 0.105379
0.693385 0.000000 0.098878
0.733089 0.000000 0.090639
0.770718 0.000000 0.076020
0.807218 0.000000 0.045808
0.842557 0.000000 0.013611
0.876646 0.000000 0.000000
0.908446 0.000000 0.000000
0.938262 0.023651 0.000000
0.966369 0.113680 0.000000
0.992828 0.152529 0.000000
1.000000 0.184787 0.000000
1.000000 0.215183 0.000000
0.141085 0.174014 0.156100
0.141726 0.174136 0.156069
0.144350 0.174075 0.156039
0.149660 0.174136 0.155734
0.158389 0.174472 0.155306
0.170108 0.174807 0.154421
0.183383 0.176181 0.151858
0.201480 0.177737 0.148379
0.225071 0.179141 0.143862
0.261326 0.184512 0.138613
0.290440 0.178531 0.136172
0.322423 0.171878 0.134066
0.358007 0.164004 0.131228
0.397162 0.154238 0.128054
0.439460 0.145724 0.123781
0.484352 0.137819 0.118868
0.530358 0.127932 0.115267
0.576623 0.114595 0.110506
0.622156 0.098787 0.104829
0.665675 0.075868 0.097810
0.706325 0.041413 0.089479
0.744381 0.021180 0.072389
0.780941 0.019165 0.044221
0.816098 0.039826 0.013184
0.850431 0.085939 0.000000
0.883024 0.112215 0.000000
0.913817 0.136660 0.000000
0.942657 0.162112 0.000000
0.969787 0.186557 0.000000
0.995544 0.210575 0.000000
1.000000 0.234073 0.000000
1.000000 0.257694 0.000000
0.147341 0.201816 0.165499
0.148013 0.201907 0.165286
0.151064 0.201938 0.165255
0.156680 0.202335 0.165072
0.166018 0.202396 0.164523
0.178378 0.203067 0.163577
0.193179 0.204074 0.162112
0.210422 0.206119 0.158206
0.232883 0.208194 0.153933
0.261112 0.209995 0.148318
0.305760 0.218784 0.140017
0.340246 0.212375 0.137087
0.377752 0.205783 0.133486
0.418036 0.197391 0.129610
0.461158 0.187900 0.125063
0.505547 0.175631 0.119814
0.551080 0.170321 0.111543
0.596246 0.165621 0.102541
0.639826 0.160403 0.094789
0.681117 0.156558 0.084871
0.720119 0.154665 0.061677
0.756649 0.155062 0.033509
0.791775 0.159365 0.002441
0.825986 0.167483 0.000000
0.859007 0.179019 0.000000
0.890257 0.192782 0.000000
0.919707 0.208743 0.000000
0.947417 0.225345 0.000000
0.973663 0.243229 0.000000
0.998505 0.261295 0.000000
1.000000 0.279454 0.000000
1.000000 0.298436 0.000000
0.151003 0.237247 0.176181
0.151888 0.237278 0.176333
0.154635 0.237552 0.176059
0.161807 0.237766 0.175723
0.172152 0.238163 0.175113
0.185611 0.239109 0.174319
0.203128 0.239811 0.173098
0.221622 0.241764 0.169924
0.243320 0.244602 0.164828
0.271305 0.247044 0.158511
0.305394 0.249485 0.151095
0.358373 0.263096 0.138399
0.398260 0.256718 0.133944
0.440131 0.249821 0.128908
0.483497 0.241611 0.123079
0.527672 0.232822 0.116579
0.572045 0.222202 0.109407
0.615961 0.213596 0.099153
0.658045 0.214023 0.078584
0.697627 0.215061 0.042054
0.734554 0.216556 0.011261
0.769314 0.219913 0.000000
0.803037 0.225345 0.000000
0.835935 0.232517 0.000000
0.867399 0.242679 0.000000
0.897215 0.253727 0.000000
0.925322 0.266209 0.000000
0.951995 0.279515 0.000000
0.977234 0.293187 0.000000
1.000000 0.308141 0.000000
1.000000 0.323186 0.000000
1.000000 0.338872 0.000000
0.148531 0.281956 0.188022
0.149203 0.281926 0.188174
0.153750 0.282139 0.187747
0.161379 0.282719 0.187350
0.173709 0.283238 0.186862
0.189303 0.284184 0.186038
0.209476 0.285344 0.184848
0.233127 0.286961 0.183230
0.255467 0.289952 0.177066
0.283879 0.293156 0.169863
0.317571 0.296208 0.161440
0.356817 0.299260 0.151095
0.412879 0.313481 0.132662
0.456977 0.308507 0.125368
0.500755 0.301274 0.118074
0.544762 0.293797 0.109834
0.588342 0.285191 0.100191
0.630762 0.276829 0.087709
0.671382 0.267643 0.061036
0.709590 0.265812 0.014191
0.745418 0.270420 0.000000
0.778927 0.274815 0.000000
0.811582 0.280461 0.000000
0.843290 0.288090 0.000000
0.873442 0.296605 0.000000
0.902037 0.306035 0.000000
0.929198 0.316808 0.000000
0.955016 0.327703 0.000000
0.979553 0.339544 0.000000
1.000000 0.351629 0.000000
1.000000 0.364172 0.000000
1.000000 0.377478 0.000000
0.134615 0.334386 0.200778
0.135714 0.334478 0.200443
0.141176 0.334966 0.200381
0.151858 0.335546 0.199954
0.167819 0.336400 0.199222
0.187839 0.337743 0.198215
0.211398 0.339208 0.197024
0.238834 0.341192 0.195071
0.267338 0.343389 0.191104
0.295689 0.346715 0.182773
0.329351 0.349950 0.173159
0.367987 0.352819 0.161532
0.411322 0.355840 0.147738
0.474861 0.375647 0.119295
0.521691 0.371832 0.106386
0.565362 0.363806 0.094575
0.607965 0.356359 0.074311
0.648920 0.348333 0.036988
0.687648 0.340612 0.000000
0.724453 0.332677 0.000000
0.759152 0.325414 0.000000
0.791806 0.329503 0.000000
0.823484 0.337102 0.000000
0.853483 0.343664 0.000000
0.881956 0.350805 0.000000
0.909117 0.358862 0.000000
0.934966 0.367193 0.000000
0.959625 0.376226 0.000000
0.983154 0.385473 0.000000
1.000000 0.395331 0.000000
1.000000 0.405676 0.000000
1.000000 0.416419 0.000000
0.099916 0.396857 0.215396
0.101228 0.396979 0.215213
0.112551 0.397223 0.215061
0.129976 0.398016 0.214542
0.152193 0.398840 0.213870
0.179507 0.400183 0.212558
0.209293 0.401740 0.211154
0.241886 0.403571 0.209293
0.277043 0.405402 0.206821
0.308598 0.408484 0.198795
0.342840 0.411414 0.188388
0.381811 0.414618 0.175296
0.424506 0.417365 0.159487
0.470619 0.420417 0.140200
0.534722 0.440101 0.098543
0.583154 0.439094 0.049561
0.624537 0.430732 0.008911
0.664179 0.422278 0.000000
0.701411 0.414405 0.000000
0.736782 0.406134 0.000000
0.770138 0.398627 0.000000
0.802457 0.391730 0.000000
0.833646 0.389044 0.000000
0.862699 0.396399 0.000000
0.889891 0.402808 0.000000
0.915587 0.408942 0.000000
0.940246 0.415564 0.000000
0.963836 0.422339 0.000000
0.986450 0.429664 0.000000
1.000000 0.437629 0.000000
1.000000 0.445930 0.000000
1.000000 0.455055 0.000000
0.000000 0.462409 0.233280
0.000000 0.462593 0.233066
0.029694 0.462867 0.232914
0.094606 0.463539 0.232517
0.133120 0.464424 0.231907
0.169284 0.465583 0.230777
0.206973 0.467201 0.229282
0.244541 0.468910 0.226871
0.284642 0.470588 0.224552
0.324071 0.472602 0.220645
0.358099 0.475227 0.208682
0.396368 0.477943 0.195071
0.438300 0.480385 0.178103
0.482734 0.482948 0.158267
0.529564 0.485115 0.132753
0.590326 0.502586 0.058076
0.638605 0.504692 0.000000
0.676722 0.495613 0.000000
0.712825 0.486305 0.000000
0.746883 0.477577 0.000000
0.779110 0.469215 0.000000
0.810605 0.462013 0.000000
0.840879 0.455818 0.000000
0.869749 0.450294 0.000000
0.896757 0.450996 0.000000
0.921752 0.456825 0.000000
0.945251 0.461707 0.000000
0.967742 0.466835 0.000000
0.989441 0.472358 0.000000
1.000000 0.478462 0.000000
1.000000 0.485176 0.000000
1.000000 0.492531 0.000000
0.000000 0.527001 0.256291
0.000000 0.527184 0.256504
0.000000 0.527337 0.256260
0.082338 0.527703 0.255558
0.130465 0.528435 0.255009
0.172824 0.529442 0.253727
0.214206 0.530480 0.252262
0.255497 0.531701 0.250553
0.297307 0.533165 0.248234
0.339513 0.534630 0.244785
0.377935 0.536400 0.237491
0.414466 0.538415 0.223636
0.453925 0.540642 0.206882
0.496315 0.542687 0.187228
0.540124 0.544579 0.163272
0.585107 0.546563 0.132082
0.641108 0.560754 0.029328
0.687922 0.564965 0.000000
0.722866 0.554772 0.000000
0.755550 0.545006 0.000000
0.786984 0.535943 0.000000
0.817227 0.527672 0.000000
0.846281 0.520378 0.000000
0.874113 0.513542 0.000000
0.900786 0.507774 0.000000
0.926452 0.502373 0.000000
0.949737 0.505882 0.000000
0.971313 0.509422 0.000000
0.992096 0.513512 0.000000
1.000000 0.518151 0.000000
1.000000 0.523247 0.000000
1.000000 0.529290 0.000000
0.062623 0.586572 0.285893
0.070253 0.586542 0.285985
0.099336 0.586786 0.285801
0.129946 0.587121 0.285435
0.165499 0.587366 0.284794
0.202335 0.588159 0.283513
0.240696 0.588769 0.282322
0.279881 0.589868 0.280705
0.320378 0.590997 0.278599
0.361212 0.592096 0.275883
0.403113 0.593225 0.273045
0.437690 0.594751 0.260899
0.473548 0.596277 0.245365
0.511681 0.597803 0.227054
0.551812 0.599207 0.205356
0.593225 0.600519 0.179568
0.635096 0.601801 0.145266
0.685878 0.612940 0.061402
0.731411 0.619074 0.000000
0.762936 0.608515 0.000000
0.793393 0.598322 0.000000
0.822385 0.589258 0.000000
0.850340 0.580835 0.000000
0.877195 0.573053 0.000000
0.902983 0.565972 0.000000
0.927794 0.559716 0.000000
0.951751 0.554253 0.000000
0.974517 0.550469 0.000000
0.994415 0.553155 0.000000
1.000000 0.556542 0.000000
1.000000 0.560510 0.000000
1.000000 0.565179 0.000000
0.172580 0.639063 0.321019
0.174899 0.639124 0.321080
0.178805 0.636988 0.318822
0.195682 0.637049 0.318639
0.219150 0.637537 0.318364
0.246921 0.637934 0.317357
0.278752 0.638575 0.315923
0.313176 0.639368 0.314580
0.349310 0.640131 0.313085
0.387243 0.640894 0.310674
0.425452 0.641901 0.308141
0.462287 0.642969 0.303349
0.493263 0.644312 0.289311
0.527062 0.645411 0.272648
0.563043 0.646632 0.253971
0.600580 0.647791 0.231388
0.639399 0.648798 0.205173
0.678553 0.649805 0.171786
0.724575 0.658412 0.117189
0.767971 0.665797 0.000000
0.797421 0.655329 0.000000
0.825559 0.645777 0.000000
0.852628 0.636591 0.000000
0.878599 0.628199 0.000000
0.903746 0.620294 0.000000
0.927916 0.613336 0.000000
0.951232 0.606683 0.000000
0.973754 0.600824 0.000000
0.995483 0.595514 0.000000
1.000000 0.593591 0.000000
1.000000 0.596551 0.000000
1.000000 0.600397 0.000000
0.250431 0.685451 0.359716
0.251530 0.685298 0.359625
0.256687 0.685145 0.359075
0.266423 0.685115 0.358831
0.283024 0.685267 0.358190
0.303227 0.685512 0.357549
0.328862 0.685969 0.356359
0.356786 0.686488 0.355230
0.387427 0.687068 0.353765
0.420020 0.687709 0.352209
0.453620 0.688594 0.350378
0.488563 0.689479 0.348089
0.518975 0.690364 0.339605
0.547875 0.691310 0.325078
0.579278 0.692134 0.308385
0.612451 0.692988 0.289281
0.646967 0.693721 0.267277
0.682887 0.694240 0.241276
0.719081 0.694759 0.210300
0.760189 0.700587 0.167697
0.801450 0.708522 0.109438
0.828550 0.698482 0.039063
0.854643 0.688869 0.000000
0.879759 0.679957 0.000000
0.903990 0.671687 0.000000
0.927459 0.663752 0.000000
0.950134 0.656550 0.000000
0.972045 0.649775 0.000000
0.993317 0.643641 0.000000
1.000000 0.638087 0.000000
1.000000 0.631586 0.000000
1.000000 0.634516 0.000000
0.325902 0.727535 0.403906
0.326665 0.727443 0.403357
0.329808 0.727291 0.403082
0.337316 0.727230 0.402930
0.348394 0.727260 0.402289
0.363592 0.727504 0.401740
0.382910 0.727749 0.401099
0.405219 0.728145 0.400244
0.430030 0.728603 0.399115
0.457160 0.729183 0.397894
0.485908 0.729824 0.396490
0.515862 0.730404 0.394965
0.547265 0.731167 0.393072
0.571710 0.731807 0.380987
0.598199 0.732509 0.366308
0.626734 0.733028 0.349401
0.657099 0.733455 0.330938
0.688808 0.733852 0.309422
0.721553 0.734127 0.285283
0.754696 0.734218 0.256504
0.791653 0.738064 0.220951
0.830777 0.746212 0.180056
0.855741 0.736599 0.155886
0.879973 0.727291 0.126680
0.903410 0.718654 0.088380
0.926207 0.710384 0.000000
0.948211 0.702815 0.000000
0.969574 0.695583 0.000000
0.990295 0.688838 0.000000
1.000000 0.682887 0.000000
1.000000 0.677150 0.000000
1.000000 0.670192 0.000000
0.396612 0.764248 0.450324
0.396643 0.764126 0.450050
0.399145 0.763943 0.449866
0.404211 0.764004 0.449378
0.412116 0.764004 0.449134
0.423774 0.764065 0.448737
0.438422 0.764340 0.448310
0.455756 0.764614 0.447578
0.475685 0.764920 0.447150
0.497505 0.765347 0.446235
0.521355 0.765805 0.445258
0.546899 0.766293 0.443885
0.573449 0.766903 0.442573
0.598840 0.767453 0.437964
0.620203 0.767971 0.425727
0.643915 0.768368 0.411780
0.669490 0.768734 0.395514
0.696895 0.768826 0.376989
0.725582 0.768795 0.356512
0.755459 0.768673 0.332982
0.785855 0.768521 0.306371
0.819120 0.770687 0.275090
0.856077 0.778836 0.240696
0.879179 0.769711 0.222110
0.901762 0.760983 0.201785
0.923735 0.752682 0.179294
0.945006 0.744778 0.153323
0.965759 0.737270 0.122011
0.985992 0.730312 0.059144
1.000000 0.723903 0.000000
1.000000 0.718196 0.000000
1.000000 0.712459 0.000000
0.460914 0.795285 0.496529
0.461280 0.795285 0.496315
0.463020 0.795193 0.496284
0.466926 0.795285 0.496132
0.473304 0.795346 0.495796
0.482002 0.795529 0.495766
0.492866 0.795682 0.495460
0.506310 0.795987 0.495003
0.521782 0.796170 0.494728
0.539666 0.796475 0.494148
0.558831 0.796780 0.493416
0.579858 0.797208 0.492470
0.602014 0.797696 0.491676
0.625483 0.798154 0.490608
0.644984 0.798611 0.483345
0.663966 0.798978 0.471199
0.685023 0.799252 0.457618
0.707851 0.799405 0.442329
0.732479 0.799405 0.425208
0.758389 0.799405 0.405768
0.785489 0.799161 0.383978
0.813504 0.798856 0.359258
0.843534 0.799863 0.331151
0.878538 0.807645 0.302007
0.900206 0.799466 0.285130
0.921294 0.791348 0.268193
0.941772 0.783505 0.251072
0.961791 0.776181 0.233249
0.981537 0.769162 0.213413
1.000000 0.762753 0.192416
1.000000 0.756863 0.170108
1.000000 0.751492 0.142916
0.522911 0.822843 0.543908
0.523003 0.822843 0.543633
0.524346 0.822873 0.543603
0.527489 0.822843 0.543572
0.531884 0.822934 0.543389
0.538231 0.823026 0.543328
0.546990 0.823209 0.543236
0.557031 0.823392 0.542931
0.568994 0.823606 0.542626
0.583062 0.823819 0.542351
0.598260 0.824033 0.541833
0.615106 0.824399 0.541344
0.633356 0.824674 0.540581
0.652522 0.825132 0.540063
0.672633 0.825528 0.539300
0.687373 0.825895 0.528832
0.704128 0.826139 0.517510
0.722438 0.826352 0.504723
0.742641 0.826383 0.490272
0.764584 0.826291 0.474037
0.787869 0.826139 0.456184
0.812436 0.825834 0.435645
0.837949 0.825406 0.413458
0.865080 0.825589 0.387518
0.898405 0.832914 0.362402
0.918486 0.825986 0.347265
0.938170 0.818509 0.332647
0.957488 0.811337 0.318669
0.976501 0.804715 0.303960
0.995239 0.798337 0.289494
1.000000 0.792569 0.275364
1.000000 0.787259 0.260594
0.578546 0.846433 0.589044
0.578851 0.846403 0.588983
0.579767 0.846372 0.589105
0.582025 0.846403 0.588983
0.585626 0.846525 0.589075
0.590692 0.846616 0.588952
0.597040 0.846769 0.589014
0.605066 0.846983 0.588952
0.614618 0.847196 0.588983
0.625452 0.847471 0.588830
0.637598 0.847715 0.588678
0.651057 0.848020 0.588464
0.665705 0.848325 0.588281
0.681453 0.848722 0.587884
0.697963 0.849149 0.587579
0.713313 0.849546 0.584161
0.726162 0.849821 0.574640
0.740658 0.850034 0.564233
0.756710 0.850156 0.552270
0.774502 0.850187 0.538567
0.793851 0.850095 0.523613
0.814664 0.849821 0.506889
0.836759 0.849516 0.488106
0.860075 0.849119 0.467597
0.884581 0.848753 0.444038
0.915587 0.855314 0.421393
0.934356 0.849332 0.407202
0.952819 0.842741 0.395666
0.971069 0.836484 0.383917
0.989075 0.830594 0.372808
1.000000 0.825071 0.362554
1.000000 0.820157 0.352850
0.629145 0.867399 0.632563
0.629297 0.867369 0.632471
0.630121 0.867399 0.632471
0.631708 0.867399 0.632471
0.634424 0.867460 0.632380
0.638209 0.867552 0.632532
0.643030 0.867674 0.632410
0.649256 0.867765 0.632319
0.656458 0.867948 0.632258
0.664973 0.868070 0.632319
0.674403 0.868315 0.632197
0.685176 0.868528 0.632074
0.696895 0.868803 0.631952
0.709590 0.869108 0.631800
0.723201 0.869474 0.631647
0.737545 0.869841 0.631556
0.749050 0.870176 0.626154
0.760342 0.870420 0.617487
0.773037 0.870634 0.607965
0.787167 0.870726 0.597253
0.802792 0.870695 0.585016
0.819913 0.870603 0.571435
0.838376 0.870420 0.556359
0.858244 0.870146 0.539330
0.879423 0.869810 0.520165
0.901640 0.869322 0.499275
0.930602 0.875273 0.478645
0.948058 0.870268 0.465614
0.965393 0.864500 0.456275
0.982544 0.859129 0.448005
0.999542 0.854185 0.440345
1.000000 0.849729 0.433509
0.673762 0.885710 0.672663
0.673884 0.885679 0.672602
0.674434 0.885679 0.672541
0.675776 0.885740 0.672572
0.677821 0.885771 0.672663
0.680842 0.885863 0.672755
0.684627 0.885954 0.672694
0.689418 0.886076 0.672786
0.695125 0.886198 0.672877
0.701808 0.886351 0.672938
0.709377 0.886564 0.672938
0.717891 0.886748 0.672969
0.727260 0.886992 0.672908
0.737575 0.887297 0.673030
0.748653 0.887572 0.673060
0.760464 0.887907 0.673091
0.772641 0.888273 0.672755
0.781277 0.888579 0.665766
0.791196 0.888823 0.658167
0.802274 0.889006 0.649500
0.814755 0.889097 0.639979
0.828519 0.889128 0.629236
0.843626 0.889097 0.617304
0.860136 0.889006 0.604028
0.877897 0.888823 0.589197
0.896941 0.888579 0.572656
0.917174 0.888212 0.554162
0.943359 0.893004 0.536217
0.960113 0.889433 0.523827
0.976287 0.884672 0.517662
0.992340 0.880369 0.512352
1.000000 0.876036 0.506798
0.714321 0.902098 0.710536
0.714473 0.902098 0.710475
0.714870 0.902098 0.710414
0.715908 0.902129 0.710506
0.717464 0.902159 0.710445
0.719722 0.902190 0.710506
0.722621 0.902251 0.710506
0.726192 0.902312 0.710414
0.730587 0.902373 0.710353
0.735683 0.902464 0.710384
0.741634 0.902586 0.710323
0.748287 0.902708 0.710231
0.755764 0.902861 0.710231
0.763973 0.903075 0.710292
0.772915 0.903319 0.710323
0.782559 0.903624 0.710445
0.792874 0.903960 0.710658
0.802060 0.904265 0.708339
0.809628 0.904601 0.702205
0.818357 0.904784 0.695338
0.828122 0.905028 0.687861
0.839109 0.905180 0.679377
0.851286 0.905272 0.669947
0.864744 0.905364 0.659663
0.879423 0.905364 0.648066
0.895323 0.905303 0.635279
0.912505 0.905180 0.621088
0.930877 0.904967 0.605097
0.954192 0.908751 0.589715
0.970336 0.906462 0.578576
0.985199 0.902403 0.574151
1.000000 0.898650 0.570459
0.750179 0.916442 0.744900
0.750271 0.916442 0.744869
0.750729 0.916442 0.744961
0.751431 0.916503 0.744900
0.752834 0.916533 0.745022
0.754574 0.916594 0.745052
0.756954 0.916686 0.745205
0.759915 0.916777 0.745235
0.763485 0.916899 0.745357
0.767636 0.916991 0.745449
0.772457 0.917174 0.745663
0.777829 0.917327 0.745754
0.783871 0.917510 0.745876
0.790585 0.917754 0.746181
