20 Preset/Travel Style 2/【3】LUT video cho PR-AE-FCPX/Travel 2 LUT (20).cube
# Created by Adobe Lightroom plugin Export LUT (1.24.0)
# www.johnrellis.com/lightroom/exportlut.htm
# Preset: 20素材江湖 - 黑白
# Color profile: E:\lut插件\exportlut.1.24\exportlut.lrplugin\color profiles\Rec709gamma2.4.icc
LUT_3D_SIZE 5
DOMAIN_MIN 0.000000 0.000000 0.000000
DOMAIN_MAX 0.903226 0.903226 0.903226
0.107851 0.107851 0.107851
0.118563 0.118563 0.118563
0.200687 0.200687 0.200687
0.366888 0.366888 0.366888
0.618341 0.618341 0.618341
0.125551 0.125551 0.125551
0.160616 0.160616 0.160616
0.238499 0.238499 0.238499
0.403052 0.403052 0.403052
0.648188 0.648188 0.648188
0.249943 0.249943 0.249943
0.251255 0.251255 0.251255
0.398474 0.398474 0.398474
0.564874 0.564874 0.564874
0.736965 0.736965 0.736965
0.491463 0.491463 0.491463
0.493690 0.493690 0.493690
0.560143 0.560143 0.560143
0.731533 0.731533 0.731533
0.873594 0.873594 0.873594
0.812802 0.812802 0.812802
0.814450 0.814450 0.814450
0.815671 0.815671 0.815671
0.893492 0.893492 0.893492
0.953155 0.953155 0.953155
0.112032 0.112032 0.112032
0.127382 0.127382 0.127382
0.223514 0.223514 0.223514
0.382544 0.382544 0.382544
0.620020 0.620020 0.620020
0.148684 0.148684 0.148684
0.180117 0.180117 0.180117
0.257633 0.257633 0.257633
0.415778 0.415778 0.415778
0.645899 0.645899 0.645899
0.291600 0.291600 0.291600
0.293278 0.293278 0.293278
0.404456 0.404456 0.404456
0.556847 0.556847 0.556847
0.740200 0.740200 0.740200
0.525841 0.525841 0.525841
0.528527 0.528527 0.528527
0.572900 0.572900 0.572900
0.736294 0.736294 0.736294
0.873381 0.873381 0.873381
0.822599 0.822599 0.822599
0.823911 0.823911 0.823911
0.831174 0.831174 0.831174
0.897185 0.897185 0.897185
0.955169 0.955169 0.955169
0.145144 0.145144 0.145144
0.171298 0.171298 0.171298
0.257542 0.257542 0.257542
0.455268 0.455268 0.455268
0.668116 0.668116 0.668116
0.205081 0.205081 0.205081
0.222995 0.222995 0.222995
0.302647 0.302647 0.302647
0.483558 0.483558 0.483558
0.687953 0.687953 0.687953
0.334264 0.334264 0.334264
0.360601 0.360601 0.360601
0.462654 0.462654 0.462654
0.592401 0.592401 0.592401
0.760006 0.760006 0.760006
0.625055 0.625055 0.625055
0.633265 0.633265 0.633265
0.646418 0.646418 0.646418
0.757473 0.757473 0.757473
0.873106 0.873106 0.873106
0.853758 0.853758 0.853758
0.855344 0.855344 0.855344
0.861418 0.861418 0.861418
0.897948 0.897917 0.897948
0.956420 0.956420 0.956420
0.234989 0.234989 0.234989
0.255772 0.255772 0.255772
0.348608 0.348608 0.348608
0.502770 0.502770 0.502770
0.721828 0.721828 0.721828
0.286687 0.286687 0.286687
0.306584 0.306584 0.306584
0.392187 0.392187 0.392187
0.534630 0.534630 0.534630
0.738369 0.738369 0.738369
0.377722 0.377722 0.377722
0.414862 0.414862 0.414862
0.524834 0.524834 0.524834
0.630579 0.630579 0.630579
0.804227 0.804227 0.804227
0.638239 0.638239 0.638239
0.651270 0.651270 0.651270
0.705165 0.705165 0.705165
0.795621 0.795621 0.795621
0.882292 0.882292 0.882292
0.892699 0.892699 0.892699
0.895293 0.895293 0.895293
0.906645 0.906645 0.906645
0.917906 0.917906 0.917906
0.961608 0.961608 0.961608
0.416419 0.416419 0.416419
0.436530 0.436530 0.436530
0.523766 0.523766 0.523766
0.661982 0.661982 0.661982
0.786770 0.786770 0.786770
0.446082 0.446082 0.446082
0.465156 0.465156 0.465156
0.544915 0.544915 0.544915
0.671717 0.671717 0.671717
0.792203 0.792203 0.792203
0.550072 0.550072 0.550072
0.563256 0.563256 0.563256
0.624567 0.624567 0.624567
0.722072 0.722072 0.722072
0.831205 0.831205 0.831205
0.633021 0.633021 0.633021
0.638880 0.638880 0.638880
0.685603 0.685603 0.685603
0.818173 0.818173 0.818173
0.907500 0.907500 0.907500
0.878019 0.878019 0.878019
0.881468 0.881468 0.881468
0.900298 0.900298 0.900298
0.930785 0.930785 0.930785
0.967102 0.967102 0.967102
