20 Preset/Travel Style 2/【3】LUT video cho PR-AE-FCPX/Travel 2 LUT (21).cube
# Created by Adobe Lightroom plugin Export LUT (1.24.0)
# www.johnrellis.com/lightroom/exportlut.htm
# Preset: 21素材江湖 - WARM
# Color profile: E:\lut插件\exportlut.1.24\exportlut.lrplugin\color profiles\Rec709gamma2.4.icc
LUT_3D_SIZE 32
DOMAIN_MIN 0.0 0.0 0.0
DOMAIN_MAX 1.0 1.0 1.0
0.033692 0.093690 0.111177
0.033387 0.093690 0.111513
0.036652 0.093965 0.111452
0.045289 0.093996 0.112062
0.058442 0.094606 0.112551
0.076570 0.095430 0.113313
0.091554 0.096254 0.114290
0.107393 0.096651 0.115206
0.126802 0.096803 0.116304
0.151980 0.095857 0.116976
0.181643 0.093629 0.117433
0.216312 0.088991 0.117922
0.255650 0.075105 0.118105
0.299596 0.039673 0.118288
0.347601 0.000000 0.117983
0.399054 0.000000 0.117464
0.453895 0.000000 0.116579
0.510277 0.000000 0.115602
0.566796 0.000000 0.114321
0.623102 0.000000 0.112428
0.677058 0.000000 0.110658
0.727657 0.000000 0.108766
0.782681 0.000000 0.106416
0.834531 0.000000 0.104158
0.882414 0.000000 0.101747
0.925628 0.000000 0.100343
0.965026 0.000000 0.100343
1.000000 0.000000 0.101472
1.000000 0.000000 0.106355
1.000000 0.000000 0.113741
1.000000 0.000000 0.125978
1.000000 0.000000 0.142550
0.032380 0.094118 0.111788
0.032685 0.094118 0.111482
0.038636 0.093874 0.111452
0.044587 0.094392 0.112001
0.057740 0.095033 0.112520
0.076265 0.095430 0.113619
0.092287 0.096162 0.114290
0.107088 0.097078 0.115450
0.126711 0.097230 0.115969
0.151186 0.096437 0.116640
0.180697 0.094270 0.117403
0.215030 0.089509 0.117647
0.253910 0.077333 0.117861
0.297612 0.044007 0.117983
0.344976 0.000000 0.117708
0.396429 0.000000 0.117525
0.450965 0.000000 0.116670
0.506920 0.000000 0.115480
0.563592 0.000000 0.114504
0.619867 0.000000 0.112306
0.673610 0.000000 0.110658
0.724025 0.000000 0.108919
0.778103 0.000000 0.106172
0.828855 0.000000 0.103883
0.876036 0.000000 0.102113
0.919341 0.000000 0.100618
0.959197 0.000000 0.099794
0.995697 0.000000 0.100984
1.000000 0.000000 0.104738
1.000000 0.000000 0.112184
1.000000 0.000000 0.123476
1.000000 0.000000 0.140291
0.032624 0.095613 0.112581
0.032624 0.095613 0.112581
0.038178 0.095796 0.112215
0.047395 0.095827 0.112154
0.060853 0.096437 0.112337
0.078920 0.096834 0.113436
0.094148 0.097536 0.114107
0.109255 0.098329 0.114992
0.129122 0.098756 0.115755
0.153628 0.098238 0.116365
0.183230 0.095918 0.116823
0.217044 0.092103 0.117311
0.255863 0.081697 0.117525
0.299321 0.050263 0.117647
0.346777 0.001587 0.117311
0.397711 0.000000 0.116793
0.452033 0.000000 0.115877
0.508049 0.000000 0.114931
0.564111 0.000000 0.113680
0.619959 0.000000 0.111757
0.673823 0.000000 0.109987
0.724666 0.000000 0.107698
0.777737 0.000000 0.105562
0.827756 0.000000 0.103304
0.874601 0.000000 0.100710
0.917388 0.000000 0.098848
0.957061 0.000000 0.098482
0.993622 0.000000 0.099458
1.000000 0.000000 0.103304
1.000000 0.000000 0.109987
1.000000 0.000000 0.121157
1.000000 0.000000 0.138064
0.033051 0.099336 0.114626
0.032349 0.099702 0.114595
0.036316 0.099580 0.114565
0.045411 0.099977 0.113893
0.062470 0.100099 0.113161
0.082948 0.100343 0.113313
0.098299 0.101137 0.113649
0.114809 0.101625 0.114504
0.135134 0.102083 0.115206
0.159976 0.101625 0.115785
0.189090 0.099977 0.116182
0.223331 0.096132 0.116579
0.262119 0.088655 0.116701
0.305364 0.062928 0.116732
0.352117 0.014557 0.116365
0.402930 0.000000 0.115633
0.456275 0.000000 0.114687
0.511131 0.000000 0.113436
0.566918 0.000000 0.111604
0.621576 0.000000 0.110109
0.674556 0.000000 0.108003
0.725734 0.000000 0.105776
0.777066 0.000000 0.103334
0.826078 0.000000 0.100832
0.873045 0.000000 0.097719
0.916350 0.000000 0.095735
0.956542 0.000000 0.094942
0.993439 0.000000 0.096162
1.000000 0.000000 0.099489
1.000000 0.000000 0.106355
1.000000 0.000000 0.118013
1.000000 0.000000 0.134798
0.030274 0.105623 0.117800
0.030274 0.105623 0.117800
0.033539 0.105837 0.117769
0.041382 0.105959 0.117128
0.055726 0.106477 0.116396
0.083742 0.107149 0.114931
0.101656 0.107637 0.114046
0.121004 0.108339 0.113893
0.143832 0.108827 0.114199
0.169223 0.108583 0.114656
0.198611 0.107149 0.114961
0.232914 0.103426 0.114992
0.271855 0.097230 0.114931
0.314855 0.083955 0.114809
0.361669 0.041077 0.114199
0.412451 0.000000 0.113344
0.465583 0.000000 0.112520
0.520470 0.000000 0.110964
0.574975 0.000000 0.109010
0.628962 0.000000 0.107179
0.680995 0.000000 0.104799
0.732601 0.000000 0.101991
0.782071 0.000000 0.099458
0.830259 0.000000 0.095796
0.876219 0.000000 0.092592
0.919005 0.000000 0.090089
0.958465 0.000000 0.089235
0.994781 0.000000 0.089784
1.000000 0.000000 0.093751
1.000000 0.000000 0.100832
1.000000 0.000000 0.113375
1.000000 0.000000 0.129915
0.021057 0.115023 0.121035
0.020356 0.115328 0.120974
0.026307 0.115175 0.120974
0.033143 0.115572 0.120607
0.050752 0.116274 0.119844
0.079866 0.116579 0.118502
0.103670 0.118441 0.116487
0.126040 0.119814 0.114656
0.151553 0.120272 0.113344
0.180789 0.120455 0.112947
0.214298 0.118807 0.112703
0.248997 0.115969 0.112490
0.288273 0.110353 0.112215
0.331579 0.100526 0.111818
0.378698 0.079835 0.110933
0.429145 0.011872 0.109804
0.482216 0.000000 0.108614
0.535912 0.000000 0.106691
0.589929 0.000000 0.104677
0.642573 0.000000 0.102022
0.693416 0.000000 0.099092
0.744900 0.000000 0.095674
0.824155 0.000000 0.088258
0.872007 0.000000 0.082002
0.915373 0.000000 0.074434
0.954681 0.000000 0.067628
0.990265 0.000000 0.065492
1.000000 0.000000 0.072145
1.000000 0.000000 0.083619
1.000000 0.000000 0.097230
1.000000 0.000000 0.113863
1.000000 0.064393 0.134524
0.000000 0.132326 0.125368
0.000000 0.132296 0.125368
0.004852 0.132387 0.125307
0.015656 0.132631 0.124971
0.037263 0.133089 0.124239
0.075380 0.134646 0.122469
0.101991 0.134707 0.120760
0.133486 0.137819 0.117647
0.164828 0.139284 0.114717
0.197635 0.139284 0.112245
0.234104 0.138857 0.109895
0.274968 0.136172 0.108461
0.319738 0.130465 0.106874
0.364385 0.121248 0.106020
0.411902 0.105409 0.104738
0.461494 0.071046 0.103090
0.513420 0.000000 0.100893
0.565393 0.000000 0.098787
0.617670 0.000000 0.096223
0.668788 0.000000 0.092561
0.722347 0.000000 0.088411
0.774624 0.000000 0.080751
0.824826 0.000000 0.067567
0.872618 0.000000 0.055299
0.916564 0.000000 0.042786
0.955718 0.000000 0.034180
0.990600 0.000000 0.032776
1.000000 0.000000 0.035157
1.000000 0.000000 0.049531
1.000000 0.000000 0.078553
1.000000 0.000000 0.101076
1.000000 0.138033 0.123598
0.000000 0.154788 0.130800
0.000000 0.154757 0.130800
0.000000 0.155032 0.130465
0.000000 0.155123 0.130129
0.009949 0.155398 0.129458
0.053010 0.156741 0.127993
0.099855 0.158419 0.125216
0.129458 0.157321 0.122713
0.169100 0.161685 0.118837
0.208103 0.163210 0.114046
0.246647 0.162051 0.110384
0.289433 0.159792 0.106661
0.334997 0.156558 0.102663
0.384222 0.149996 0.098970
0.435706 0.137667 0.095857
0.486488 0.118929 0.093080
0.536187 0.090059 0.090364
0.586664 0.000000 0.087160
0.636896 0.000000 0.081086
0.688197 0.000000 0.071901
0.739467 0.000000 0.057740
0.788022 0.000000 0.043061
0.835386 0.000000 0.028321
0.880644 0.000000 0.010956
0.922210 0.000000 0.000000
0.959625 0.000000 0.000000
0.993256 0.000000 0.000000
1.000000 0.000000 0.000000
1.000000 0.000000 0.002472
1.000000 0.000000 0.028260
1.000000 0.130282 0.078859
1.000000 0.189273 0.109834
0.000000 0.184573 0.138094
0.000000 0.184543 0.137850
0.000000 0.184573 0.137819
0.000000 0.184878 0.137423
0.000000 0.185336 0.136965
0.012146 0.185916 0.135439
0.088594 0.187747 0.132753
0.128542 0.189639 0.128939
0.164645 0.187442 0.125704
0.213230 0.191623 0.119600
0.260288 0.192691 0.112337
0.305119 0.190219 0.107179
0.352850 0.185946 0.101076
0.403082 0.179965 0.095064
0.455543 0.172396 0.087953
0.508965 0.161074 0.072511
0.562554 0.143313 0.057984
0.613245 0.118227 0.046143
0.663478 0.080262 0.034455
0.712642 0.000000 0.019959
0.759854 0.000000 0.004822
0.804990 0.000000 0.000000
0.849577 0.000000 0.000000
0.891783 0.000000 0.000000
0.930785 0.000000 0.000000
0.966125 0.000000 0.000000
0.998169 0.000000 0.000000
1.000000 0.000000 0.000000
1.000000 0.107942 0.000000
1.000000 0.157412 0.000000
1.000000 0.198734 0.016449
1.000000 0.236973 0.089265
0.000000 0.221164 0.147982
0.000000 0.221103 0.147982
0.000000 0.220981 0.147524
0.000000 0.221164 0.147402
0.000000 0.221378 0.146548
0.000000 0.221592 0.145388
0.046815 0.222873 0.142702
0.120272 0.224918 0.138369
0.167056 0.226841 0.132998
0.208713 0.222904 0.128756
0.265202 0.226505 0.120882
0.317876 0.226658 0.110475
0.369848 0.222721 0.101289
0.421607 0.216587 0.092073
0.475319 0.208377 0.079042
0.528862 0.200015 0.053986
0.583673 0.190585 0.023346
0.639277 0.179477 0.000000
0.691432 0.164187 0.000000
0.739528 0.147677 0.000000
0.782559 0.132479 0.000000
0.824063 0.117891 0.000000
0.864256 0.110079 0.000000
0.902495 0.107790 0.000000
0.938079 0.114260 0.000000
0.971069 0.128542 0.000000
1.000000 0.148043 0.000000
1.000000 0.170840 0.000000
1.000000 0.196719 0.000000
1.000000 0.223667 0.000000
1.000000 0.251591 0.000000
1.000000 0.280735 0.022278
0.000000 0.262119 0.160037
0.000000 0.262181 0.160220
0.000000 0.262242 0.159976
0.000000 0.262547 0.159609
0.000000 0.262913 0.158755
0.000000 0.263218 0.157626
0.000000 0.264042 0.155825
0.106508 0.266026 0.151217
0.162722 0.268376 0.145052
0.216464 0.270329 0.138064
0.262364 0.264195 0.132448
0.325994 0.266545 0.122286
0.384863 0.265476 0.107149
0.442023 0.260655 0.092775
0.497932 0.254002 0.067842
0.554498 0.246098 0.030549
0.609400 0.238041 0.000000
0.661799 0.231540 0.000000
0.711177 0.225742 0.000000
0.758022 0.220645 0.000000
0.802213 0.213901 0.000000
0.843412 0.208804 0.000000
0.880461 0.207065 0.000000
0.915679 0.208560 0.000000
0.948852 0.213413 0.000000
0.979522 0.221408 0.000000
1.000000 0.232517 0.000000
1.000000 0.246006 0.000000
1.000000 0.262608 0.000000
1.000000 0.281712 0.000000
1.000000 0.302556 0.000000
1.000000 0.325170 0.000000
0.000000 0.309636 0.175479
0.000000 0.309819 0.175418
0.000000 0.309758 0.175204
0.000000 0.310002 0.174868
0.000000 0.310338 0.173892
0.000000 0.310887 0.172915
0.000000 0.311650 0.171572
0.083711 0.313176 0.167849
0.158297 0.315404 0.161410
0.217807 0.317266 0.153597
0.276677 0.319005 0.144015
0.328252 0.311528 0.137606
0.421790 0.326909 0.124422
0.488991 0.326329 0.099825
0.553002 0.322637 0.048341
0.608484 0.315190 0.000000
0.661158 0.308049 0.000000
0.711208 0.301610 0.000000
0.757382 0.298375 0.000000
0.801205 0.297520 0.000000
0.842802 0.298894 0.000000
0.880949 0.300053 0.000000
0.916350 0.299901 0.000000
0.948669 0.301640 0.000000
0.976837 0.304997 0.000000
1.000000 0.309575 0.000000
1.000000 0.316350 0.000000
1.000000 0.324712 0.000000
1.000000 0.335180 0.000000
1.000000 0.347784 0.000000
1.000000 0.362524 0.000000
1.000000 0.379370 0.000000
0.000000 0.368841 0.197177
0.000000 0.368811 0.197177
0.000000 0.368658 0.196750
0.000000 0.368353 0.195865
0.000000 0.368505 0.195010
0.000000 0.369024 0.193912
0.000000 0.369848 0.192294
0.045197 0.371191 0.190311
0.162722 0.373999 0.184054
0.230198 0.377142 0.176364
0.295506 0.380987 0.166049
0.363561 0.384161 0.153872
0.420050 0.375372 0.145663
0.497475 0.377874 0.127749
0.564141 0.378363 0.095766
0.625788 0.375372 0.004242
0.676539 0.369116 0.000000
0.723415 0.362860 0.000000
0.768338 0.357549 0.000000
0.810941 0.354833 0.000000
0.849424 0.355413 0.000000
0.885924 0.357244 0.000000
0.920378 0.361273 0.000000
0.952026 0.363409 0.000000
0.981292 0.365606 0.000000
1.000000 0.368505 0.000000
1.000000 0.372930 0.000000
1.000000 0.378729 0.000000
1.000000 0.386236 0.000000
1.000000 0.395880 0.000000
1.000000 0.407172 0.000000
1.000000 0.420478 0.000000
0.000000 0.429450 0.221805
0.000000 0.429175 0.221775
0.000000 0.428687 0.221256
0.000000 0.428351 0.220371
0.000000 0.427955 0.219059
0.000000 0.427619 0.217441
0.000000 0.427802 0.215793
0.031403 0.428107 0.213870
0.169070 0.429480 0.209842
0.240330 0.432227 0.201389
0.306584 0.435370 0.192020
0.373571 0.438666 0.179782
0.442634 0.441352 0.165011
0.496773 0.430396 0.155215
0.570428 0.431830 0.134737
0.631739 0.432593 0.093996
0.686763 0.430182 0.000000
0.734035 0.424994 0.000000
0.777249 0.420172 0.000000
0.818082 0.416297 0.000000
0.856291 0.413153 0.000000
0.891539 0.413611 0.000000
0.924193 0.416236 0.000000
0.955200 0.420691 0.000000
0.983520 0.424720 0.000000
1.000000 0.426307 0.000000
1.000000 0.428779 0.000000
1.000000 0.431769 0.000000
1.000000 0.436957 0.000000
1.000000 0.443610 0.000000
1.000000 0.451942 0.000000
1.000000 0.462287 0.000000
0.000000 0.489296 0.249332
0.000000 0.489143 0.249271
0.000000 0.488685 0.248753
0.000000 0.487739 0.247776
0.000000 0.486824 0.246311
0.000000 0.485908 0.244480
0.000000 0.485695 0.242649
0.081025 0.485542 0.240330
0.186954 0.486030 0.237919
0.256168 0.488106 0.230869
0.321660 0.490852 0.221012
0.386664 0.494057 0.210300
0.452979 0.496498 0.196292
0.518303 0.498451 0.179995
0.567590 0.485603 0.168154
0.634333 0.486641 0.146944
0.690059 0.487984 0.100282
0.740139 0.486488 0.000000
0.785336 0.483467 0.000000
0.824155 0.478828 0.000000
0.860594 0.474739 0.000000
0.895323 0.472450 0.000000
0.927977 0.471839 0.000000
0.957336 0.474311 0.000000
0.984741 0.477668 0.000000
1.000000 0.481727 0.000000
1.000000 0.482948 0.000000
1.000000 0.484871 0.000000
1.000000 0.487282 0.000000
1.000000 0.491768 0.000000
1.000000 0.497810 0.000000
1.000000 0.505608 0.000000
0.000000 0.546685 0.279393
0.000000 0.546777 0.279179
0.000000 0.546502 0.278660
0.000000 0.546166 0.278172
0.000000 0.545708 0.276585
0.000000 0.545312 0.275547
0.000000 0.545251 0.273533
0.135714 0.545769 0.271672
0.218021 0.546410 0.269810
0.282963 0.547295 0.266087
0.344488 0.549401 0.256748
0.405524 0.551049 0.245457
0.466041 0.552514 0.232853
0.525994 0.553552 0.217227
0.584924 0.553704 0.197879
0.627283 0.538781 0.185336
0.688228 0.539239 0.163210
0.739803 0.541741 0.114351
0.786007 0.541009 0.000000
0.827817 0.538933 0.000000
0.863401 0.534722 0.000000
0.897093 0.531548 0.000000
0.928862 0.529625 0.000000
0.958709 0.528862 0.000000
0.985748 0.529900 0.000000
1.000000 0.532372 0.000000
1.000000 0.535363 0.000000
1.000000 0.536492 0.000000
1.000000 0.537621 0.000000
1.000000 0.539117 0.000000
1.000000 0.541588 0.000000
1.000000 0.546502 0.000000
0.000000 0.602045 0.311528
0.000000 0.602014 0.311650
0.000000 0.601831 0.311284
0.000000 0.601495 0.310338
0.000000 0.601099 0.309239
0.000000 0.600946 0.308324
0.060761 0.600824 0.306554
0.184390 0.600946 0.304845
0.251987 0.601373 0.302800
0.310094 0.601740 0.300450
0.366857 0.602777 0.294163
0.422827 0.604303 0.283543
0.479042 0.605707 0.271641
0.534508 0.606470 0.257603
0.588952 0.606775 0.240482
0.642878 0.606775 0.219791
0.680720 0.591089 0.206210
0.737484 0.592340 0.184726
0.784543 0.595087 0.138125
0.825956 0.593805 0.024994
0.864897 0.592584 0.000000
0.898039 0.588983 0.000000
0.928679 0.586053 0.000000
0.957519 0.583948 0.000000
0.984497 0.582330 0.000000
1.000000 0.581323 0.000000
1.000000 0.582696 0.000000
1.000000 0.584375 0.000000
1.000000 0.584863 0.000000
1.000000 0.585321 0.000000
1.000000 0.586206 0.000000
1.000000 0.587732 0.000000
0.000000 0.657313 0.348058
0.000000 0.657435 0.348180
0.000000 0.675654 0.360906
0.000000 0.675288 0.360357
0.000000 0.674891 0.359503
0.138277 0.674464 0.357763
0.206149 0.673884 0.356115
0.262119 0.673426 0.354040
0.314092 0.673335 0.352026
0.364019 0.673365 0.349950
0.412604 0.673518 0.347265
0.461982 0.674189 0.337530
0.511467 0.674403 0.325444
0.561273 0.674250 0.312078
0.610590 0.673518 0.295842
0.659419 0.672267 0.277195
0.707027 0.670527 0.255711
0.740078 0.654078 0.239963
0.789792 0.652491 0.221042
0.830594 0.653071 0.179080
0.867277 0.650874 0.122072
0.901884 0.648676 0.000000
0.931975 0.644892 0.000000
0.959045 0.640772 0.000000
0.984192 0.636835 0.000000
1.000000 0.633478 0.000000
1.000000 0.630457 0.000000
1.000000 0.628687 0.000000
1.000000 0.628779 0.000000
1.000000 0.628199 0.000000
1.000000 0.627680 0.000000
1.000000 0.627985 0.000000
0.000000 0.714015 0.390845
0.000000 0.715450 0.392035
0.079713 0.716884 0.393194
0.130312 0.718196 0.394293
0.177371 0.718959 0.394141
0.219821 0.718868 0.393530
0.262028 0.718532 0.392218
0.305425 0.717922 0.390204
0.347936 0.717556 0.388220
0.391363 0.717281 0.385931
0.434699 0.717098 0.383703
0.478431 0.717220 0.378424
0.523674 0.717098 0.367803
0.569024 0.716884 0.355322
0.614679 0.716091 0.341680
0.660212 0.715175 0.325444
0.705043 0.713954 0.307164
0.749477 0.712551 0.285863
0.779843 0.697322 0.271153
0.825132 0.694759 0.255192
0.862272 0.695064 0.218967
0.896025 0.693172 0.174136
0.927611 0.690669 0.109041
0.955871 0.687129 0.000000
0.980255 0.682460 0.000000
1.000000 0.678065 0.000000
1.000000 0.673945 0.000000
1.000000 0.670405 0.000000
1.000000 0.667323 0.000000
1.000000 0.666316 0.000000
1.000000 0.665095 0.000000
1.000000 0.664393 0.000000
0.204715 0.756252 0.430488
0.210239 0.757687 0.431495
0.221805 0.759060 0.432990
0.240665 0.760159 0.433967
0.263493 0.760800 0.434363
0.290410 0.760830 0.433661
0.320958 0.760494 0.432349
0.353521 0.759976 0.430976
0.388464 0.759396 0.429206
0.425360 0.758907 0.427192
0.462989 0.758602 0.424811
0.501427 0.758053 0.422553
0.540948 0.757839 0.414618
0.581994 0.757473 0.403754
0.623560 0.756832 0.391333
0.665522 0.755917 0.377386
0.707393 0.754726 0.361151
0.748684 0.753475 0.343267
0.789578 0.752224 0.323278
0.817136 0.738033 0.308324
0.857176 0.734127 0.295232
0.890501 0.733089 0.262882
0.921263 0.730983 0.226108
0.949859 0.727993 0.180972
0.976013 0.724208 0.117403
0.998077 0.718990 0.000000
1.000000 0.714168 0.000000
1.000000 0.709712 0.000000
1.000000 0.705928 0.000000
1.000000 0.702541 0.000000
1.000000 0.699825 0.000000
1.000000 0.698238 0.000000
0.297337 0.794553 0.473121
0.300694 0.795682 0.474495
0.308965 0.796567 0.475685
0.320012 0.797543 0.476631
0.335546 0.798001 0.477058
0.354742 0.797971 0.476844
0.377356 0.797635 0.475654
0.403143 0.797147 0.474311
0.431556 0.796567 0.472816
0.462165 0.796017 0.471168
0.494209 0.795560 0.469215
0.528008 0.795010 0.467231
0.562066 0.794491 0.463539
0.598322 0.793973 0.453834
0.635615 0.793393 0.443000
0.673610 0.792630 0.431037
0.712184 0.791806 0.417762
0.750820 0.791104 0.402777
0.789334 0.790524 0.386572
0.827420 0.790066 0.368811
0.852995 0.777707 0.354894
0.888609 0.773220 0.345006
0.918242 0.771115 0.317845
0.945953 0.768643 0.287480
0.971557 0.765286 0.253056
0.995422 0.761074 0.211521
1.000000 0.756039 0.174685
1.000000 0.751125 0.131197
1.000000 0.746548 0.027497
1.000000 0.742428 0.000000
1.000000 0.738430 0.000000
1.000000 0.734585 0.000000
0.390204 0.833555 0.528283
0.391638 0.833890 0.529046
0.395392 0.834104 0.529137
0.402380 0.834165 0.529137
0.412421 0.833951 0.528557
0.425086 0.833494 0.527733
0.441077 0.833005 0.526787
0.460639 0.832456 0.524987
0.482856 0.831876 0.523919
0.507897 0.831388 0.522423
0.534722 0.830838 0.520745
0.562890 0.830320 0.519097
0.591974 0.829648 0.516930
0.622492 0.829068 0.511070
0.654444 0.828367 0.501488
0.687770 0.827451 0.490730
0.721706 0.826535 0.478706
0.756252 0.825498 0.465553
0.790860 0.824430 0.451087
0.825559 0.823545 0.435340
0.859800 0.822629 0.418158
0.882444 0.810819 0.403540
0.912718 0.804654 0.393805
0.938598 0.800504 0.369390
0.963134 0.797086 0.341802
0.986358 0.793179 0.311864
1.000000 0.788846 0.279118
1.000000 0.784024 0.248539
1.000000 0.779080 0.221469
1.000000 0.774502 0.191897
1.000000 0.770169 0.158480
1.000000 0.765805 0.112612
0.460639 0.860685 0.576745
0.461555 0.860929 0.577142
0.464698 0.861112 0.577691
0.469825 0.861082 0.577691
0.476905 0.860960 0.577234
0.486336 0.860624 0.576684
0.498878 0.860197 0.575341
0.513603 0.859739 0.574456
0.531182 0.859220 0.573175
0.551080 0.858762 0.571771
0.572625 0.858244 0.570611
0.596063 0.857755 0.569177
0.620630 0.857145 0.567315
0.646143 0.856504 0.565423
0.673274 0.855924 0.557244
0.701564 0.855283 0.547906
0.731258 0.854490 0.537194
0.761563 0.853666 0.525963
0.792721 0.852720 0.513512
0.824063 0.851835 0.499977
0.855589 0.850980 0.485023
0.886748 0.850065 0.469123
0.907042 0.839231 0.455543
0.933013 0.832303 0.446693
0.954406 0.824796 0.418860
0.976532 0.820920 0.394049
0.997894 0.817014 0.368109
1.000000 0.812711 0.340032
1.000000 0.808072 0.312016
1.000000 0.803281 0.291997
1.000000 0.798764 0.271519
1.000000 0.794430 0.249607
0.535058 0.885344 0.632624
0.536553 0.885710 0.633417
0.538628 0.885801 0.633906
0.541527 0.885649 0.633295
0.546014 0.885283 0.632471
0.551965 0.884703 0.631067
0.559716 0.884062 0.629419
0.569787 0.883330 0.627436
0.581933 0.882567 0.625544
0.596521 0.881865 0.623651
0.612818 0.881010 0.621790
0.630945 0.880308 0.619715
0.650477 0.879515 0.617762
0.671107 0.878630 0.615473
0.692470 0.877745 0.610895
0.715633 0.876829 0.601709
0.740139 0.875975 0.591791
0.766201 0.875059 0.581262
0.793179 0.874235 0.570245
0.821164 0.873503 0.558404
0.849668 0.872740 0.545525
0.878294 0.871946 0.531548
0.906798 0.871000 0.516075
0.925017 0.860868 0.502342
0.947509 0.853208 0.492744
0.967926 0.847196 0.472847
0.987823 0.842771 0.449165
1.000000 0.838712 0.426246
1.000000 0.834287 0.401099
1.000000 0.829679 0.374701
1.000000 0.825193 0.358404
1.000000 0.821012 0.343694
0.590448 0.902464 0.677577
0.591577 0.902708 0.678401
0.593591 0.902831 0.678737
0.596094 0.902770 0.678828
0.599634 0.902617 0.678248
0.604700 0.902342 0.677638
0.611292 0.902007 0.676844
0.619501 0.901640 0.675929
0.629511 0.901274 0.675166
0.641047 0.900877 0.674037
0.654170 0.900420 0.673121
0.668635 0.899931 0.671870
0.684108 0.899351 0.670466
0.700740 0.898619 0.668666
0.718105 0.897856 0.666377
0.736263 0.897093 0.660334
0.756069 0.896361 0.651820
0.777249 0.895598 0.642725
0.799893 0.894835 0.633509
0.823575 0.894163 0.623224
0.848264 0.893431 0.612360
0.873442 0.892729 0.600458
0.898924 0.891905 0.587304
0.924651 0.890990 0.572564
0.941253 0.881926 0.558679
0.960693 0.874357 0.549981
0.979156 0.868132 0.531914
0.997101 0.863615 0.510552
1.000000 0.859770 0.490669
1.000000 0.855650 0.470222
1.000000 0.851438 0.449165
1.000000 0.847318 0.433967
0.646509 0.918120 0.724636
0.647120 0.918181 0.725093
0.648035 0.918212 0.725032
0.649836 0.918120 0.724849
0.652461 0.917998 0.724483
0.656062 0.917754 0.723873
0.660731 0.917479 0.723201
0.666743 0.917174 0.722347
0.674037 0.916838 0.721523
0.682734 0.916472 0.720821
0.692744 0.916075 0.719753
0.703883 0.915648 0.718776
0.716121 0.915221 0.717708
0.729183 0.914702 0.716396
0.743008 0.914061 0.714626
0.757595 0.913390 0.712428
0.773068 0.912779 0.705623
0.790005 0.912169 0.698146
0.808408 0.911559 0.690364
0.828122 0.911009 0.682063
0.848722 0.910491 0.673335
0.870207 0.909850 0.663661
0.892454 0.909117 0.652491
0.915129 0.908293 0.640345
0.938231 0.907347 0.626764
0.953216 0.899229 0.613306
0.970123 0.891783 0.605035
0.986603 0.885588 0.589166
1.000000 0.881041 0.568963
1.000000 0.877653 0.552697
1.000000 0.874113 0.536095
1.000000 0.870542 0.520073
0.694240 0.930571 0.765316
0.694789 0.930663 0.765682
0.695644 0.930663 0.765805
0.697139 0.930663 0.765743
0.699275 0.930602 0.765805
0.702419 0.930571 0.765835
0.706966 0.930602 0.766110
0.712490 0.930663 0.766598
0.719295 0.930694 0.767239
0.727108 0.930785 0.767971
0.735866 0.930877 0.768734
0.745266 0.930877 0.769223
0.755428 0.930846 0.769650
0.765896 0.930663 0.769589
0.776883 0.930419 0.769162
0.788205 0.929992 0.768276
0.799863 0.929595 0.765408
0.812467 0.929198 0.760037
0.826352 0.928832 0.754269
0.841398 0.928435 0.748135
0.857481 0.928038 0.741512
0.874571 0.927581 0.734371
0.892485 0.927031 0.726040
0.911254 0.926360 0.716609
0.930663 0.925566 0.706142
0.950774 0.924651 0.694453
0.963958 0.917693 0.682795
0.978149 0.910735 0.675257
0.992370 0.904875 0.662257
1.000000 0.900450 0.645075
1.000000 0.897673 0.633509
1.000000 0.894896 0.622858
0.746822 0.943114 0.809262
0.746944 0.943084 0.809201
0.747402 0.943053 0.809140
0.748074 0.943023 0.808957
0.749325 0.942901 0.808621
0.751247 0.942809 0.808408
0.753841 0.942687 0.808103
0.757168 0.942565 0.807919
0.761379 0.942473 0.807767
0.766354 0.942321 0.807523
0.772152 0.942168 0.807431
0.778592 0.942046 0.807248
0.785763 0.941863 0.807034
0.793423 0.941650 0.806668
