20 Preset/Travel Style 2/【3】LUT video cho PR-AE-FCPX/Travel 2 LUT (16).cube
# Created by Adobe Lightroom plugin Export LUT (1.24.0)
# www.johnrellis.com/lightroom/exportlut.htm
# Preset: 16素材江湖 - WATERS
# Color profile: E:\lut插件\exportlut.1.24\exportlut.lrplugin\color profiles\Rec709gamma2.4.icc
LUT_3D_SIZE 8
DOMAIN_MIN 0.000000 0.000000 0.000000
DOMAIN_MAX 0.903226 0.903226 0.903226
0.089326 0.089326 0.089326
0.099611 0.088533 0.089235
0.158114 0.081392 0.088808
0.248753 0.048981 0.086030
0.361059 0.000000 0.073060
0.507652 0.000000 0.029297
0.774746 0.000000 0.000000
0.987488 0.000000 0.000000
0.088960 0.094240 0.092012
0.094972 0.094026 0.090242
0.134157 0.097993 0.090700
0.220462 0.095888 0.087343
0.326238 0.082582 0.075685
0.469429 0.007202 0.036133
0.692836 0.000000 0.000000
0.930144 0.000000 0.000000
0.068635 0.126680 0.106752
0.083284 0.123079 0.103517
0.128206 0.121828 0.091310
0.191623 0.134401 0.095338
0.293706 0.150057 0.087800
0.466835 0.168978 0.034852
0.727291 0.181125 0.000000
0.962188 0.127413 0.000000
0.000000 0.204746 0.154818
0.037629 0.198642 0.152224
0.089357 0.194827 0.122683
0.213626 0.196231 0.097505
0.318425 0.218814 0.112947
0.453071 0.264469 0.122255
0.686275 0.310857 0.000000
0.922850 0.326757 0.000000
0.000000 0.332616 0.236423
0.000000 0.326421 0.233249
0.000000 0.313817 0.215793
0.161654 0.310704 0.156832
0.313085 0.284916 0.106233
0.425177 0.295933 0.116976
0.585473 0.361761 0.133944
0.839750 0.436927 0.094606
0.000000 0.512902 0.347051
0.000000 0.526177 0.355993
0.000000 0.505058 0.346502
0.000000 0.492592 0.249149
0.278782 0.463783 0.177005
0.467720 0.422766 0.077577
0.637812 0.445258 0.078218
0.840543 0.532525 0.161379
0.000000 0.740627 0.497230
0.000000 0.741024 0.498451
0.000000 0.723354 0.488594
0.000000 0.703059 0.440711
0.000000 0.684047 0.278233
0.440742 0.655695 0.177646
0.682338 0.615137 0.000000
0.853819 0.604456 0.097230
0.000000 0.904051 0.660822
0.000000 0.902281 0.660670
0.000000 0.896147 0.663081
0.268864 0.884672 0.673060
0.000000 0.858762 0.567773
0.298497 0.863432 0.457374
0.637568 0.855039 0.368444
0.907561 0.824186 0.202731
0.089021 0.092470 0.095857
0.097841 0.088869 0.098085
0.147524 0.079408 0.098665
0.229343 0.042054 0.093202
0.330877 0.000000 0.088075
0.464790 0.000000 0.059785
0.663722 0.000000 0.000000
0.889281 0.000000 0.000000
0.088624 0.096071 0.096193
0.096376 0.096376 0.096376
0.140230 0.095186 0.095796
0.217594 0.090303 0.093965
0.317449 0.071138 0.088319
0.450996 0.002045 0.060792
0.628260 0.000000 0.000000
0.848051 0.000000 0.000000
0.078706 0.132082 0.115328
0.093019 0.127840 0.113130
0.130282 0.124392 0.099794
0.187442 0.135653 0.106538
0.286687 0.144686 0.098390
0.429725 0.154086 0.079835
0.622461 0.157992 0.000000
0.865232 0.140017 0.000000
0.028138 0.198001 0.155795
0.069398 0.193606 0.153689
0.098360 0.189151 0.132326
0.196719 0.182376 0.108125
0.276432 0.195041 0.119905
0.387121 0.228122 0.125887
0.576898 0.262455 0.081056
0.821164 0.295781 0.000000
0.000000 0.324926 0.236820
0.000000 0.317418 0.232425
0.078340 0.298680 0.220157
0.157046 0.290043 0.162203
0.287480 0.262974 0.118013
0.387762 0.272862 0.127749
0.533043 0.332158 0.144411
0.777584 0.406134 0.090181
0.000000 0.486976 0.335729
0.000000 0.483497 0.333776
0.000000 0.466194 0.326116
0.000000 0.456764 0.254520
0.263859 0.435767 0.185794
0.446723 0.404730 0.109377
0.607233 0.425208 0.106935
0.803922 0.508721 0.147372
0.000000 0.712551 0.479713
0.000000 0.704005 0.473487
0.000000 0.684688 0.461860
0.000000 0.664912 0.426917
0.000000 0.655818 0.278386
0.419471 0.624994 0.179904
0.637842 0.574670 0.000000
0.807858 0.570855 0.041474
0.000000 0.888914 0.638483
0.000000 0.889738 0.641871
0.000000 0.882994 0.642786
0.161440 0.871702 0.652308
0.148013 0.870451 0.587671
0.308843 0.867155 0.464240
0.632898 0.850919 0.361089
0.902159 0.818814 0.191196
0.055573 0.110018 0.141756
0.062715 0.100038 0.146120
0.150210 0.077882 0.152682
0.235325 0.020081 0.156039
0.351568 0.000000 0.155215
0.520531 0.000000 0.137942
0.735164 0.000000 0.107637
0.949737 0.000000 0.000000
0.082429 0.120150 0.136385
0.089723 0.116121 0.140505
0.146181 0.091890 0.148379
0.230259 0.052766 0.149081
0.342718 0.000000 0.144717
0.504112 0.000000 0.123964
0.697200 0.000000 0.106233
0.917449 0.000000 0.000000
0.039826 0.144137 0.145876
0.084260 0.143313 0.144930
0.140688 0.140688 0.140688
0.223789 0.138064 0.139620
0.333715 0.132876 0.138582
0.484504 0.116762 0.132723
0.680110 0.007263 0.110750
0.905303 0.000000 0.000000
0.000000 0.228122 0.195834
0.085908 0.225467 0.194858
0.152865 0.212192 0.186984
0.213016 0.202365 0.156130
0.297490 0.219181 0.169680
0.438727 0.244083 0.164248
0.642908 0.266453 0.138094
0.876982 0.278752 0.038880
0.000000 0.351751 0.275120
0.000000 0.347051 0.271366
0.129122 0.329900 0.261295
0.178470 0.315343 0.216068
0.309209 0.286534 0.168582
0.410895 0.295109 0.177066
0.557671 0.351659 0.196323
0.815640 0.412696 0.149325
0.000000 0.514611 0.374273
0.000000 0.512963 0.372900
0.000000 0.495155 0.362127
0.089082 0.468940 0.326421
0.268406 0.446265 0.238560
0.451087 0.411749 0.170993
0.613581 0.433967 0.175082
0.815518 0.519097 0.204349
0.000000 0.746181 0.528893
0.000000 0.739284 0.523278
0.000000 0.718166 0.508049
0.000000 0.686641 0.494636
0.000000 0.673610 0.345769
0.426856 0.644770 0.253788
0.662928 0.598871 0.106355
0.835660 0.592004 0.126772
0.000000 0.896483 0.660426
0.000000 0.893278 0.657588
0.000000 0.885710 0.655482
0.228458 0.876463 0.664729
0.219699 0.870359 0.601556
0.314641 0.870542 0.471229
0.637964 0.856565 0.371649
0.909148 0.824430 0.204715
0.000000 0.150698 0.220981
0.000000 0.143038 0.226200
0.101350 0.105318 0.233280
0.233463 0.017700 0.238895
0.337560 0.000000 0.244663
0.501884 0.000000 0.268803
0.709377 0.000000 0.279393
0.940795 0.000000 0.253971
0.003265 0.168276 0.222721
0.019287 0.162264 0.225589
0.102998 0.123079 0.232609
0.234318 0.053346 0.239719
0.340307 0.000000 0.244205
0.503838 0.000000 0.264775
0.706508 0.000000 0.269749
0.938720 0.000000 0.237766
0.093050 0.192782 0.214664
0.112978 0.192477 0.213260
0.141024 0.181613 0.219364
0.223789 0.133944 0.227726
0.352026 0.103853 0.240421
0.529015 0.000000 0.251865
0.768551 0.000000 0.242466
0.977264 0.000000 0.186526
0.000000 0.243687 0.247532
0.000000 0.241642 0.245151
0.133120 0.235691 0.238163
0.224521 0.224521 0.224521
0.346380 0.221378 0.223392
0.497200 0.213382 0.220462
0.700984 0.191745 0.211460
0.925353 0.135714 0.189212
0.000000 0.420752 0.363226
0.000000 0.412085 0.355322
0.000000 0.386664 0.334173
0.260136 0.355383 0.314763
0.337133 0.321050 0.251255
0.447944 0.336309 0.262516
0.640955 0.378241 0.259586
0.880735 0.404364 0.233127
0.000000 0.592126 0.475471
0.000000 0.603876 0.483955
0.000000 0.581140 0.462043
0.245823 0.547478 0.439796
0.309300 0.509728 0.351629
0.486458 0.450690 0.264500
0.647364 0.468208 0.273228
0.840208 0.545800 0.315709
0.000000 0.788479 0.608972
0.000000 0.787442 0.608179
0.000000 0.777127 0.599817
0.230228 0.755184 0.588037
0.308659 0.726040 0.524712
0.458106 0.693751 0.387030
0.694545 0.633082 0.252567
0.861295 0.619348 0.268589
0.195987 0.923308 0.734249
0.220005 0.921538 0.732998
0.302373 0.914763 0.729427
0.416876 0.902159 0.727138
0.519615 0.881193 0.720790
0.442329 0.882841 0.588128
0.651789 0.868681 0.463966
0.920775 0.836088 0.272923
0.000000 0.219974 0.340459
0.000000 0.214054 0.345586
0.000000 0.169772 0.351690
0.198642 0.108553 0.360571
0.357946 0.000000 0.366857
0.489082 0.000000 0.378729
0.693812 0.000000 0.421027
0.928954 0.000000 0.447456
0.000000 0.237217 0.343969
0.000000 0.232090 0.349340
0.000000 0.191318 0.355322
0.195682 0.127047 0.359716
0.358587 0.000000 0.367590
0.491646 0.000000 0.378820
0.695583 0.000000 0.418311
0.929625 0.000000 0.441657
0.000000 0.271763 0.334264
0.000000 0.269413 0.336828
0.092348 0.249088 0.342626
0.182193 0.183200 0.353460
0.347387 0.102602 0.355200
0.478248 0.000000 0.360479
0.685389 0.000000 0.395178
0.917571 0.000000 0.408270
0.000000 0.313848 0.351263
0.000000 0.312322 0.348913
0.164157 0.308843 0.342016
0.227604 0.287510 0.344549
0.343633 0.211215 0.349523
0.500450 0.170779 0.355779
0.715755 0.000000 0.367895
0.947387 0.000000 0.349310
0.000000 0.390997 0.398077
0.000000 0.390021 0.396918
0.000000 0.381628 0.387488
0.212985 0.363775 0.367437
0.329503 0.329503 0.329503
0.491554 0.321904 0.324865
0.700221 0.309148 0.318608
0.923522 0.283207 0.305425
0.000000 0.616388 0.544640
0.000000 0.612726 0.540490
0.000000 0.584619 0.512322
0.000000 0.540764 0.471656
0.366918 0.490791 0.437629
0.474250 0.451728 0.353857
0.644739 0.486305 0.377661
0.864347 0.540887 0.392920
0.000000 0.820890 0.681636
0.000000 0.815183 0.676692
0.000000 0.798123 0.664729
0.296208 0.779385 0.651850
0.463050 0.747707 0.633783
0.481971 0.709316 0.519097
0.686610 0.635706 0.371740
0.846769 0.623285 0.380529
0.335027 0.932952 0.785061
0.344060 0.931212 0.782925
0.386145 0.924651 0.775906
0.493050 0.919127 0.777798
0.584649 0.900603 0.771939
0.598138 0.884733 0.720119
0.667353 0.871305 0.596490
0.906218 0.832181 0.415930
0.000000 0.333684 0.538415
0.000000 0.327184 0.542596
0.000000 0.284337 0.542718
0.000000 0.189059 0.555535
0.359472 0.000000 0.568414
0.549676 0.000000 0.564080
0.702052 0.000000 0.569360
0.934600 0.000000 0.617853
0.000000 0.334691 0.516930
0.000000 0.326940 0.517632
0.000000 0.289586 0.520958
0.000000 0.198276 0.533349
0.340337 0.079896 0.542168
0.527764 0.000000 0.541588
0.680323 0.000000 0.550164
0.917235 0.000000 0.603143
0.000000 0.388983 0.531395
0.000000 0.384588 0.532738
0.000000 0.360204 0.540398
0.000000 0.264988 0.537560
0.325963 0.171908 0.541009
0.526085 0.000000 0.539269
0.693324 0.000000 0.553216
0.928405 0.000000 0.596674
0.000000 0.456367 0.533135
0.000000 0.452552 0.528893
0.000000 0.442603 0.535760
0.178714 0.411688 0.560388
0.315251 0.294957 0.569390
0.548058 0.163668 0.560601
0.743771 0.000000 0.574884
0.967803 0.000000 0.590295
0.000000 0.497200 0.554711
0.000000 0.495277 0.552270
0.000000 0.489265 0.544152
0.254337 0.480201 0.529442
0.350042 0.436347 0.519554
0.506035 0.310704 0.514549
0.730434 0.246006 0.526207
0.964263 0.000000 0.521538
0.000000 0.597620 0.609186
0.000000 0.603052 0.614588
0.000000 0.594568 0.605249
0.000000 0.577569 0.586297
0.319860 0.543664 0.549096
0.489387 0.489387 0.489387
0.745266 0.491402 0.495552
0.959869 0.480507 0.490883
0.000000 0.888457 0.808225
0.000000 0.889036 0.808499
0.000000 0.879728 0.797879
0.000000 0.859007 0.776669
0.443214 0.819425 0.744228
0.639338 0.761379 0.706630
0.711299 0.679744 0.544915
0.868345 0.686519 0.568109
0.000000 0.968414 0.842924
0.000000 0.965972 0.841062
0.113100 0.958892 0.839139
0.483070 0.947845 0.841855
0.646906 0.929808 0.838712
0.723873 0.905577 0.825528
0.724361 0.886931 0.744259
0.897154 0.842924 0.588373
0.000000 0.446998 0.724971
0.000000 0.442176 0.729580
0.000000 0.407111 0.732692
0.000000 0.315892 0.743252
0.167330 0.199435 0.748623
0.520867 0.000000 0.749783
0.724727 0.000000 0.744076
0.878264 0.000000 0.736843
0.000000 0.448127 0.708278
0.000000 0.444404 0.714137
0.000000 0.411414 0.717861
0.000000 0.324163 0.724697
0.145602 0.207858 0.729427
0.502800 0.000000 0.727352
0.699641 0.000000 0.718105
0.846799 0.000000 0.709194
0.000000 0.497780 0.716060
0.000000 0.493904 0.717586
0.000000 0.465888 0.719142
0.000000 0.390600 0.724575
0.000000 0.263920 0.727199
0.491493 0.028443 0.727199
0.708827 0.000000 0.727413
0.879179 0.000000 0.730312
0.000000 0.569818 0.719051
0.000000 0.564355 0.717189
0.000000 0.548608 0.719051
0.000000 0.508110 0.729244
0.000000 0.369085 0.736263
0.476631 0.247929 0.739681
0.722469 0.000000 0.740597
0.908568 0.000000 0.741451
0.000000 0.619776 0.715480
0.000000 0.615930 0.710750
0.000000 0.610925 0.702358
0.250736 0.601770 0.703212
0.324041 0.547326 0.716213
0.429694 0.392004 0.722744
0.704616 0.219486 0.720485
0.930846 0.000000 0.733577
0.000000 0.685695 0.755673
0.000000 0.685847 0.755550
0.000000 0.684627 0.753017
0.160891 0.681910 0.747097
0.429847 0.674434 0.731838
0.538384 0.631830 0.727779
0.716945 0.456245 0.728328
0.955261 0.404211 0.713832
0.000000 0.804715 0.819760
0.000000 0.806210 0.821073
0.000000 0.804776 0.818814
0.000000 0.802396 0.814786
0.345983 0.793118 0.802640
0.567681 0.769986 0.775540
0.695583 0.695583 0.695583
0.926299 0.692073 0.695613
0.000000 1.000000 0.934661
0.000000 1.000000 0.933837
0.000000 1.000000 0.931151
0.000000 0.991333 0.923522
0.468055 0.974365 0.911955
0.722194 0.950561 0.898772
0.839597 0.916960 0.881071
0.891905 0.864866 0.756558
0.000000 0.562707 0.871183
0.000000 0.558068 0.873289
0.000000 0.528008 0.873838
0.000000 0.464332 0.881651
0.000000 0.334722 0.891051
0.381781 0.213138 0.895720
0.668971 0.000000 0.901946
0.877653 0.000000 0.901213
0.000000 0.566003 0.863493
0.000000 0.561852 0.865812
0.000000 0.534142 0.868132
0.000000 0.471199 0.874937
0.000000 0.340307 0.884611
0.373449 0.222782 0.889250
0.660761 0.000000 0.893584
0.868162 0.000000 0.891356
0.000000 0.604150 0.858854
0.000000 0.601831 0.860197
0.000000 0.575708 0.861631
0.000000 0.524102 0.873228
0.000000 0.395972 0.881559
0.353246 0.277592 0.884642
0.649805 0.000000 0.889799
0.865690 0.000000 0.888640
0.000000 0.654994 0.851347
0.000000 0.654139 0.853300
0.000000 0.644495 0.856748
0.000000 0.613489 0.865721
0.000000 0.516167 0.876341
0.328862 0.377447 0.885100
0.635218 0.168704 0.891966
0.870420 0.000000 0.893004
0.140841 0.718410 0.838376
0.167697 0.718502 0.840665
0.207858 0.710506 0.843656
0.308476 0.697902 0.852995
0.375677 0.656306 0.863981
0.325566 0.504967 0.877409
0.605982 0.350622 0.887053
0.872251 0.000000 0.893706
0.000000 0.762234 0.859495
0.000000 0.760678 0.857603
0.172457 0.758083 0.852689
0.370794 0.759274 0.847593
0.507225 0.760525 0.847929
0.573236 0.726741 0.872313
0.620142 0.580682 0.895811
0.889769 0.388983 0.908232
0.000000 0.831632 0.900572
0.000000 0.831449 0.899962
0.000000 0.831113 0.897917
0.306065 0.833402 0.896056
0.514214 0.837156 0.892882
0.674189 0.842863 0.887938
0.760800 0.823484 0.894408
0.888182 0.661341 0.899077
0.000000 0.925566 0.941527
0.000000 0.925383 0.941161
0.000000 0.925872 0.940764
0.000000 0.928069 0.941100
0.474769 0.930297 0.940642
0.667536 0.931273 0.938415
0.803342 0.927123 0.930907
0.876432 0.876432 0.876432
