20 Preset/Travel Style 2/【3】LUT video cho PR-AE-FCPX/Travel 2 LUT (22).cube
# Created by Adobe Lightroom plugin Export LUT (1.24.0)
# www.johnrellis.com/lightroom/exportlut.htm
# Preset: 22素材江湖 - DRONE
# Color profile: E:\lut插件\exportlut.1.24\exportlut.lrplugin\color profiles\Rec709gamma2.4.icc
LUT_3D_SIZE 32
DOMAIN_MIN 0.0 0.0 0.0
DOMAIN_MAX 1.0 1.0 1.0
0.000000 0.000000 0.000000
0.000000 0.000000 0.000000
0.000000 0.000000 0.000000
0.000000 0.000000 0.000000
0.011933 0.000000 0.000000
0.032776 0.000000 0.000855
0.060578 0.000000 0.000732
0.089937 0.000000 0.001556
0.108064 0.000000 0.000702
0.128725 0.000000 0.000427
0.152163 0.000000 0.000000
0.178408 0.000000 0.000000
0.207767 0.000000 0.000000
0.239567 0.000000 0.000000
0.273869 0.000000 0.000000
0.310491 0.000000 0.000000
0.350317 0.000000 0.000000
0.393561 0.000000 0.000000
0.456580 0.000000 0.000000
0.523461 0.000000 0.000000
0.593103 0.000000 0.000000
0.664454 0.000000 0.000000
0.733150 0.000000 0.000000
0.801633 0.000000 0.000000
0.868101 0.000000 0.000000
0.928405 0.000000 0.000000
0.983856 0.000000 0.000000
1.000000 0.000000 0.000000
1.000000 0.000000 0.000000
1.000000 0.000000 0.000000
1.000000 0.000000 0.000000
1.000000 0.000000 0.000000
0.000000 0.000000 0.000000
0.000000 0.000000 0.000000
0.000000 0.000000 0.000000
0.000000 0.000000 0.000000
0.011933 0.000000 0.000000
0.032776 0.000000 0.000855
0.060578 0.000000 0.000732
0.088930 0.000000 0.001404
0.106661 0.000000 0.000580
0.126864 0.000000 0.000458
0.149630 0.000000 0.000000
0.175784 0.000000 0.000000
0.204532 0.000000 0.000000
0.235752 0.000000 0.000000
0.269688 0.000000 0.000000
0.306004 0.000000 0.000000
0.345403 0.000000 0.000000
0.387945 0.000000 0.000000
0.448768 0.000000 0.000000
0.512444 0.000000 0.000000
0.578515 0.000000 0.000000
0.647028 0.000000 0.000000
0.713741 0.000000 0.000000
0.780514 0.000000 0.000000
0.847135 0.000000 0.000000
0.908934 0.000000 0.000000
0.966491 0.000000 0.000000
1.000000 0.000000 0.000000
1.000000 0.000000 0.000000
1.000000 0.000000 0.000000
1.000000 0.000000 0.000000
1.000000 0.000000 0.000000
0.000000 0.000000 0.000000
0.000000 0.000000 0.000000
0.000000 0.000000 0.000000
0.000000 0.000000 0.000000
0.012909 0.000000 0.000916
0.034760 0.000000 0.000824
0.061158 0.000000 0.000427
0.088869 0.000000 0.000946
0.106325 0.000000 0.001099
0.126650 0.000000 0.000000
0.148959 0.000000 0.000000
0.174685 0.000000 0.000000
0.202701 0.000000 0.000000
0.233768 0.000000 0.000000
0.267308 0.000000 0.000000
0.303319 0.000000 0.000000
0.342229 0.000000 0.000000
0.385901 0.000000 0.000000
0.444587 0.000000 0.000000
0.506218 0.000000 0.000000
0.571069 0.000000 0.000000
0.638300 0.000000 0.000000
0.704128 0.000000 0.000000
0.770291 0.000000 0.000000
0.836545 0.000000 0.000000
0.898894 0.000000 0.000000
0.957214 0.000000 0.000000
1.000000 0.000000 0.000000
1.000000 0.000000 0.000000
1.000000 0.000000 0.000000
1.000000 0.000000 0.000000
1.000000 0.000000 0.000000
0.000275 0.002167 0.000824
0.000275 0.002167 0.000824
0.000000 0.003388 0.000671
0.004791 0.003906 0.000488
0.017304 0.004761 0.000153
0.035431 0.004913 0.000885
0.061128 0.005402 0.000336
0.089601 0.004547 0.000855
0.106996 0.004303 0.000000
0.126772 0.004761 0.000000
0.149416 0.004791 0.000000
0.174563 0.005707 0.000000
0.202213 0.008362 0.000000
0.232822 0.010681 0.000000
0.265476 0.014008 0.000000
0.300847 0.020020 0.000000
0.339269 0.024353 0.000000
0.384009 0.026459 0.000000
0.438361 0.030121 0.000000
0.495644 0.034485 0.000000
0.556268 0.035615 0.000000
0.620447 0.037507 0.000000
0.685603 0.034760 0.000000
0.752468 0.032044 0.000000
0.820920 0.025513 0.000000
0.887572 0.018067 0.000000
0.949432 0.009216 0.000000
1.000000 0.000000 0.000000
1.000000 0.000000 0.000000
1.000000 0.000000 0.000000
1.000000 0.000000 0.000000
1.000000 0.000000 0.000000
0.000000 0.015717 0.000122
0.000000 0.015717 0.001282
0.005035 0.015045 0.001251
0.014679 0.013916 0.002319
0.021515 0.015442 0.000855
0.038270 0.015839 0.000000
0.062928 0.017517 0.000000
0.090150 0.017853 0.000000
0.107515 0.019806 0.000000
0.127016 0.021454 0.000000
0.148989 0.024140 0.000000
0.173861 0.028656 0.000000
0.201236 0.033906 0.000000
0.231418 0.040314 0.000000
0.263798 0.047700 0.000000
0.299351 0.056092 0.000000
0.337743 0.064271 0.000000
0.385229 0.075319 0.000000
0.437354 0.082734 0.000000
0.492775 0.089296 0.000000
0.551904 0.094057 0.000000
0.614557 0.097932 0.000000
0.679103 0.101900 0.000000
0.746212 0.104829 0.000000
0.815305 0.106416 0.000000
0.883146 0.106905 0.000000
0.945556 0.106233 0.000000
1.000000 0.104250 0.000000
1.000000 0.103639 0.000000
1.000000 0.101900 0.000000
1.000000 0.101167 0.000000
1.000000 0.105043 0.000000
0.010803 0.028901 0.002625
0.010803 0.028901 0.002625
0.016480 0.028199 0.003754
0.024109 0.027314 0.004852
0.034211 0.029572 0.003204
0.044739 0.028473 0.000885
0.069306 0.031373 0.000000
0.092805 0.036072 0.000000
0.109987 0.042359 0.000000
0.129274 0.048402 0.000000
0.151492 0.054017 0.000000
0.176150 0.061707 0.000000
0.203647 0.072084 0.000000
0.233616 0.081666 0.000000
0.266331 0.088655 0.000000
0.301793 0.093263 0.000000
0.342962 0.099397 0.000000
0.391363 0.106142 0.000000
0.442878 0.112673 0.000000
0.497749 0.118898 0.000000
0.556359 0.125704 0.000000
0.619135 0.131411 0.000000
0.786862 0.158297 0.000000
0.855314 0.162814 0.000000
0.917021 0.166232 0.000000
0.972961 0.168002 0.000000
1.000000 0.168276 0.000000
1.000000 0.168215 0.000000
1.000000 0.168246 0.000000
1.000000 0.168582 0.000000
1.000000 0.169986 0.000000
1.000000 0.172671 0.000000
0.030701 0.052277 0.004700
0.030426 0.052277 0.005829
0.036378 0.051606 0.005829
0.044739 0.049531 0.007080
0.056092 0.052766 0.005280
0.072297 0.057771 0.002014
0.084779 0.055970 0.000000
0.101198 0.062409 0.000000
0.119081 0.072206 0.000000
0.139590 0.082795 0.000000
0.162875 0.092042 0.000000
0.188998 0.098054 0.000000
0.217380 0.103304 0.000000
0.248356 0.108675 0.000000
0.281468 0.114351 0.000000
0.319829 0.120790 0.000000
0.367956 0.130037 0.000000
0.418555 0.138369 0.000000
0.472999 0.147158 0.000000
0.532860 0.156313 0.000000
0.599481 0.166323 0.000000
0.671962 0.176486 0.000000
0.747036 0.186252 0.000000
0.824063 0.195285 0.000000
0.895293 0.202152 0.000000
0.956512 0.206271 0.000000
1.000000 0.208133 0.000000
1.000000 0.209201 0.000000
1.000000 0.209842 0.000000
1.000000 0.209506 0.000000
1.000000 0.209384 0.000000
1.000000 0.211429 0.000000
0.056001 0.080415 0.006958
0.056001 0.080415 0.006958
0.061952 0.079988 0.006958
0.072297 0.078553 0.008179
0.081147 0.081331 0.006256
0.090242 0.085054 0.003967
0.098482 0.088167 0.001678
0.106538 0.087282 0.000000
0.123384 0.091615 0.000000
0.143282 0.097902 0.000000
0.166445 0.105013 0.000000
0.191928 0.113497 0.000000
0.220401 0.123293 0.000000
0.250828 0.129091 0.000000
0.286809 0.136934 0.000000
0.328313 0.145846 0.000000
0.372503 0.154635 0.000000
0.419776 0.163851 0.000000
0.471565 0.173068 0.000000
0.528771 0.183169 0.000000
0.592645 0.194308 0.000000
0.662837 0.206241 0.000000
0.736202 0.217685 0.000000
0.811795 0.228794 0.000000
0.883513 0.237522 0.000000
0.945556 0.243107 0.000000
1.000000 0.246220 0.000000
1.000000 0.247990 0.000000
1.000000 0.248692 0.000000
1.000000 0.248783 0.000000
1.000000 0.249088 0.000000
1.000000 0.249760 0.000000
0.086244 0.100038 0.009033
0.087495 0.099977 0.009003
0.089113 0.099825 0.009003
0.092988 0.099092 0.010254
0.098207 0.099977 0.009552
0.104250 0.102205 0.006012
0.112459 0.105074 0.003082
0.121370 0.106966 0.000000
0.130312 0.106722 0.000000
0.148592 0.111635 0.000000
0.171115 0.119020 0.000000
0.196750 0.127626 0.000000
0.226383 0.137972 0.000000
0.261082 0.150851 0.000000
0.298314 0.163241 0.000000
0.337316 0.171878 0.000000
0.379461 0.181094 0.000000
0.424994 0.190463 0.000000
0.475288 0.200656 0.000000
0.531121 0.211765 0.000000
0.593347 0.224277 0.000000
0.661372 0.237369 0.000000
0.733150 0.250431 0.000000
0.807279 0.262791 0.000000
0.877958 0.273167 0.000000
0.939818 0.279545 0.000000
0.994537 0.283787 0.000000
1.000000 0.286320 0.000000
1.000000 0.287358 0.000000
1.000000 0.287816 0.000000
1.000000 0.287663 0.000000
1.000000 0.288060 0.000000
0.104219 0.120089 0.009766
0.104799 0.120058 0.009766
0.106783 0.119570 0.009888
0.110384 0.118929 0.011109
0.114839 0.119020 0.011872
0.120577 0.120974 0.008148
0.128145 0.123415 0.005035
0.137819 0.126802 0.000000
0.146792 0.128267 0.000000
0.156680 0.128420 0.000000
0.178225 0.134768 0.000000
0.205264 0.144717 0.000000
0.235264 0.155703 0.000000
0.267979 0.167575 0.000000
0.304295 0.180758 0.000000
0.343816 0.195163 0.000000
0.386999 0.208133 0.000000
0.433051 0.218784 0.000000
0.483619 0.230411 0.000000
0.538933 0.242832 0.000000
0.599603 0.256046 0.000000
0.663661 0.269352 0.000000
0.730526 0.282322 0.000000
0.799832 0.294957 0.000000
0.867094 0.305699 0.000000
0.927733 0.312902 0.000000
0.982696 0.318090 0.000000
1.000000 0.321416 0.000000
1.000000 0.323461 0.000000
1.000000 0.324498 0.000000
1.000000 0.324743 0.000000
1.000000 0.324773 0.000000
0.122896 0.141176 0.010315
0.123384 0.141146 0.010315
0.125460 0.140719 0.010437
0.128817 0.140169 0.011658
0.133547 0.139651 0.013825
0.139162 0.141573 0.009766
0.146914 0.144717 0.005737
0.157015 0.149081 0.000000
0.169375 0.154116 0.000000
0.180301 0.156222 0.000000
0.192203 0.157076 0.000000
0.213779 0.162631 0.000000
0.243565 0.173587 0.000000
0.275761 0.185458 0.000000
0.311223 0.198489 0.000000
0.350134 0.212955 0.000000
0.393225 0.228885 0.000000
0.440711 0.246372 0.000000
0.490974 0.260533 0.000000
0.545373 0.273686 0.000000
0.604486 0.287602 0.000000
0.666957 0.301640 0.000000
0.732479 0.315770 0.000000
0.800534 0.329351 0.000000
0.866331 0.340764 0.000000
0.926024 0.349157 0.000000
0.980438 0.354864 0.000000
1.000000 0.358740 0.000000
1.000000 0.360906 0.000000
1.000000 0.362066 0.000000
1.000000 0.362371 0.000000
1.000000 0.362280 0.000000
0.147677 0.169406 0.009979
0.148043 0.169375 0.009949
0.150362 0.168978 0.011200
0.153536 0.168643 0.012268
0.159121 0.167910 0.014527
0.164767 0.169772 0.011139
0.172244 0.172915 0.006287
0.181827 0.176699 0.000000
0.193454 0.181338 0.000000
0.206821 0.186221 0.000000
0.218082 0.187625 0.000000
0.230930 0.188357 0.000000
0.282902 0.216251 0.000000
0.320806 0.230564 0.000000
0.360754 0.245762 0.000000
0.404334 0.262181 0.000000
0.451881 0.280064 0.000000
0.504112 0.299718 0.000000
0.561334 0.321202 0.000000
0.623346 0.344335 0.000000
0.683497 0.358373 0.000000
0.745174 0.371618 0.000000
0.808469 0.384436 0.000000
0.868864 0.394598 0.000000
0.924163 0.401984 0.000000
0.974670 0.406561 0.000000
1.000000 0.409125 0.000000
1.000000 0.410071 0.000000
1.000000 0.409857 0.000000
1.000000 0.408942 0.000000
1.000000 0.407660 0.000000
1.000000 0.406348 0.000000
0.186038 0.213169 0.008545
0.186404 0.213016 0.008667
0.187991 0.212222 0.009400
0.190829 0.210941 0.011658
0.195529 0.209171 0.015290
0.201083 0.208835 0.014801
0.207462 0.211032 0.006683
0.216220 0.214267 0.000000
0.227726 0.218662 0.000000
0.242008 0.224643 0.000000
0.258000 0.230594 0.000000
0.273167 0.233860 0.000000
0.290562 0.236454 0.000000
0.316899 0.243320 0.000000
0.359533 0.260624 0.000000
0.403052 0.278019 0.000000
0.449958 0.296208 0.000000
0.499886 0.315373 0.000000
0.554864 0.336339 0.000000
0.613916 0.358740 0.000000
0.675135 0.381476 0.000000
0.737789 0.402014 0.000000
0.799863 0.415564 0.000000
0.859556 0.426795 0.000000
0.914763 0.434913 0.000000
0.965698 0.440284 0.000000
1.000000 0.443763 0.000000
1.000000 0.445319 0.000000
1.000000 0.445533 0.000000
1.000000 0.445106 0.000000
1.000000 0.443915 0.000000
1.000000 0.442298 0.000000
0.214206 0.245396 0.007477
0.214328 0.244968 0.006958
0.215274 0.243931 0.008301
0.217899 0.242191 0.011475
0.221958 0.239963 0.015045
0.227329 0.237888 0.019226
0.233036 0.239597 0.010132
0.241062 0.242344 0.000061
0.251713 0.246403 0.000000
0.265324 0.252079 0.000000
0.282048 0.259373 0.000000
0.299199 0.265721 0.000000
0.315953 0.269444 0.000000
0.334356 0.271977 0.000000
0.359716 0.277317 0.000000
0.404547 0.295415 0.000000
0.450202 0.313664 0.000000
0.499184 0.332952 0.000000
0.552544 0.353918 0.000000
0.609949 0.376135 0.000000
0.669612 0.398749 0.000000
0.732631 0.422156 0.000000
0.797360 0.445869 0.000000
0.857603 0.461952 0.000000
0.912139 0.470436 0.000000
0.962524 0.476295 0.000000
1.000000 0.479988 0.000000
1.000000 0.481758 0.000000
1.000000 0.482124 0.000000
1.000000 0.481666 0.000000
1.000000 0.480446 0.000000
1.000000 0.478706 0.000000
0.244297 0.280095 0.004578
0.244297 0.279820 0.005035
0.245243 0.278508 0.006012
0.247318 0.276738 0.009796
0.251011 0.274052 0.013581
0.256016 0.270848 0.020203
0.261692 0.271336 0.014679
0.269322 0.273777 0.002014
0.279454 0.277806 0.000000
0.292302 0.283268 0.000000
0.308446 0.290410 0.000000
0.327794 0.299290 0.000000
0.345678 0.305089 0.000000
0.363256 0.308629 0.000000
0.381903 0.310613 0.000000
0.405982 0.313970 0.000000
0.453254 0.333165 0.000000
0.501488 0.352728 0.000000
0.554162 0.373877 0.000000
0.610071 0.396002 0.000000
0.668635 0.418677 0.000000
0.730495 0.442329 0.000000
0.794369 0.466133 0.000000
0.855192 0.487465 0.000000
0.911315 0.505608 0.000000
0.961059 0.512963 0.000000
1.000000 0.516930 0.000000
1.000000 0.518975 0.000000
1.000000 0.519707 0.000000
1.000000 0.519554 0.000000
1.000000 0.518456 0.000000
1.000000 0.516960 0.000000
0.275181 0.316014 0.000000
0.275669 0.315953 0.000000
0.276921 0.315190 0.002075
0.279545 0.313909 0.005219
0.283574 0.311864 0.010620
0.289281 0.309636 0.018189
0.296208 0.309209 0.020569
0.304417 0.312535 0.003601
0.314733 0.316869 0.000000
0.327520 0.322515 0.000000
0.342596 0.328985 0.000000
0.360113 0.336461 0.000000
0.380163 0.344793 0.000000
0.396063 0.347936 0.000000
0.412543 0.349371 0.000000
0.429969 0.349401 0.000000
0.452186 0.350835 0.000000
0.502251 0.371221 0.000000
0.554101 0.392798 0.000000
0.609735 0.415564 0.000000
0.668513 0.439216 0.000000
0.730465 0.463691 0.000000
0.794461 0.488319 0.000000
0.855039 0.510002 0.000000
0.911101 0.528618 0.000000
0.962737 0.544305 0.000000
1.000000 0.555901 0.000000
1.000000 0.557855 0.000000
1.000000 0.558282 0.000000
1.000000 0.557519 0.000000
1.000000 0.555810 0.000000
1.000000 0.553643 0.000000
0.308415 0.354559 0.000000
0.308721 0.354467 0.000000
0.310033 0.353857 0.000000
0.312657 0.352728 0.000000
0.316747 0.351110 0.004181
0.322637 0.349065 0.014130
0.330297 0.346838 0.024903
0.338170 0.349981 0.008087
0.348241 0.354192 0.000000
0.360296 0.359442 0.000000
0.374853 0.365820 0.000000
0.391791 0.373083 0.000000
0.411109 0.381201 0.000000
0.431800 0.389288 0.000000
0.447761 0.391455 0.000000
0.464668 0.392432 0.000000
0.482673 0.392279 0.000000
0.504173 0.392279 0.000000
0.558556 0.414954 0.000000
0.613123 0.437842 0.000000
0.671717 0.462013 0.000000
0.733516 0.487129 0.000000
0.796689 0.512047 0.000000
0.856474 0.533867 0.000000
0.912139 0.552453 0.000000
0.963348 0.568170 0.000000
1.000000 0.581445 0.000000
1.000000 0.592340 0.000000
1.000000 0.596979 0.000000
1.000000 0.595819 0.000000
1.000000 0.593805 0.000000
1.000000 0.591150 0.000000
0.347753 0.400366 0.000000
0.348455 0.400671 0.000000
0.376562 0.430732 0.000000
0.379278 0.429603 0.000000
0.383764 0.427741 0.000000
0.389624 0.425330 0.000000
0.397375 0.422309 0.012360
0.405829 0.422766 0.005035
0.415900 0.426886 0.000000
0.428534 0.432166 0.000000
0.443336 0.438453 0.000000
0.460517 0.445563 0.000000
0.479255 0.452857 0.000000
0.499794 0.460365 0.000000
0.519860 0.466133 0.000000
0.535271 0.466072 0.000000
0.551293 0.464393 0.000000
0.568505 0.461769 0.000000
0.587396 0.458106 0.000000
0.642847 0.479988 0.000000
0.699184 0.502495 0.000000
0.759670 0.526970 0.000000
0.818997 0.549432 0.000000
0.874327 0.568658 0.000000
0.925383 0.584558 0.000000
0.972686 0.597986 0.000000
1.000000 0.609003 0.000000
1.000000 0.618280 0.000000
1.000000 0.626093 0.000000
1.000000 0.632685 0.000000
1.000000 0.631403 0.000000
1.000000 0.628168 0.000000
0.399359 0.460517 0.000000
0.402380 0.463478 0.000000
0.406561 0.466255 0.000000
0.411872 0.468177 0.000000
0.418158 0.468788 0.000000
0.424842 0.467353 0.000000
0.432593 0.464729 0.000000
0.441413 0.462501 0.004273
0.450935 0.466285 0.000000
0.462715 0.471138 0.000000
0.476875 0.477119 0.000000
0.493233 0.483986 0.000000
0.511284 0.491005 0.000000
0.531029 0.498390 0.000000
0.552453 0.505913 0.000000
0.571893 0.510369 0.000000
0.587915 0.510124 0.000000
0.605432 0.509087 0.000000
0.624689 0.507317 0.000000
0.645930 0.504723 0.000000
0.702052 0.526482 0.000000
0.762112 0.550866 0.000000
0.820554 0.573510 0.000000
0.875334 0.592737 0.000000
0.925658 0.608606 0.000000
0.972290 0.621729 0.000000
1.000000 0.632563 0.000000
1.000000 0.641444 0.000000
1.000000 0.649012 0.000000
1.000000 0.655329 0.000000
1.000000 0.660609 0.000000
1.000000 0.663569 0.000000
0.441047 0.509697 0.000000
0.444465 0.513024 0.000000
0.448981 0.516228 0.000000
0.454566 0.518639 0.000000
0.461036 0.519646 0.000000
0.467903 0.518608 0.000000
0.475837 0.516075 0.000000
0.485115 0.512718 0.000000
0.494392 0.514611 0.000000
0.505608 0.518975 0.000000
0.518944 0.524376 0.000000
0.534386 0.530602 0.000000
0.551690 0.537346 0.000000
0.570855 0.544457 0.000000
0.591760 0.551934 0.000000
0.614130 0.559533 0.000000
0.632898 0.562432 0.000000
0.649836 0.562005 0.000000
0.668421 0.561059 0.000000
0.689113 0.559564 0.000000
0.711543 0.557153 0.000000
0.766384 0.577203 0.000000
0.823514 0.598688 0.000000
0.877440 0.617853 0.000000
0.927276 0.633600 0.000000
0.973205 0.646418 0.000000
1.000000 0.656886 0.000000
1.000000 0.665431 0.000000
1.000000 0.672572 0.000000
1.000000 0.678523 0.000000
1.000000 0.683375 0.000000
1.000000 0.687343 0.000000
0.487709 0.564782 0.000000
0.490700 0.568078 0.000000
0.495094 0.571038 0.000000
0.500511 0.573236 0.000000
0.506889 0.574121 0.000000
0.513695 0.573144 0.000000
0.521782 0.570916 0.000000
0.531151 0.567895 0.000000
0.541497 0.566766 0.000000
0.552148 0.570764 0.000000
0.564935 0.575891 0.000000
0.579828 0.581689 0.000000
0.596460 0.588037 0.000000
0.614923 0.594873 0.000000
0.635401 0.602289 0.000000
0.657771 0.610224 0.000000
0.682704 0.619165 0.000000
0.702876 0.622339 0.000000
0.723232 0.623835 0.000000
0.745449 0.624750 0.000000
0.769253 0.624842 0.000000
0.794278 0.623316 0.000000
0.843748 0.638239 0.000000
0.897215 0.656062 0.000000
0.946563 0.671717 0.000000
0.991485 0.683864 0.000000
1.000000 0.693263 0.000000
1.000000 0.700740 0.000000
1.000000 0.706691 0.000000
1.000000 0.711391 0.000000
1.000000 0.715053 0.000000
1.000000 0.717861 0.000000
0.556481 0.646326 0.000000
0.558099 0.647669 0.000000
0.560418 0.648341 0.000000
0.563806 0.648249 0.000000
0.568627 0.647059 0.000000
0.574578 0.644709 0.000000
0.581872 0.641932 0.000000
0.591241 0.638666 0.000000
0.602655 0.635279 0.000000
0.613703 0.638331 0.000000
0.626368 0.643305 0.000000
0.640894 0.648890 0.000000
0.656947 0.654780 0.000000
0.674800 0.661036 0.000000
0.694148 0.667475 0.000000
0.715175 0.674189 0.000000
0.737881 0.681270 0.000000
0.762509 0.688869 0.000000
0.779660 0.688350 0.000000
0.798062 0.687007 0.000000
0.817624 0.684871 0.000000
0.838437 0.681544 0.000000
0.859953 0.676570 0.000000
0.900999 0.684504 0.000000
0.948394 0.697322 0.000000
0.992462 0.709255 0.000000
1.000000 0.718593 0.000000
1.000000 0.725765 0.000000
1.000000 0.731350 0.000000
1.000000 0.735531 0.000000
1.000000 0.738582 0.000000
1.000000 0.740810 0.000000
0.606561 0.705928 0.000000
0.607843 0.706996 0.000000
0.610101 0.707637 0.000000
0.613581 0.707485 0.000000
0.618402 0.706661 0.000000
0.624506 0.704921 0.000000
0.632471 0.702571 0.000000
0.642237 0.699794 0.000000
0.653834 0.696986 0.000000
0.666133 0.696620 0.000000
0.677699 0.700679 0.000000
0.691035 0.705348 0.000000
0.706020 0.710353 0.000000
0.722683 0.715816 0.000000
0.740902 0.721523 0.000000
0.760616 0.727535 0.000000
0.782193 0.733913 0.000000
0.805295 0.740658 0.000000
0.828824 0.746487 0.000000
0.845579 0.744808 0.000000
0.863371 0.742428 0.000000
0.882200 0.738888 0.000000
0.901823 0.734096 0.000000
0.922148 0.727718 0.000000
0.947906 0.723262 0.000000
0.990600 0.732296 0.000000
1.000000 0.741756 0.000000
1.000000 0.748928 0.000000
1.000000 0.754208 0.000000
1.000000 0.758053 0.000000
1.000000 0.760861 0.000000
1.000000 0.762875 0.000000
0.662959 0.772213 0.020050
0.664759 0.773831 0.030549
0.666835 0.774258 0.040314
0.669520 0.773434 0.049622
0.673152 0.771511 0.058289
0.678218 0.768734 0.071717
0.684718 0.765194 0.084382
0.693050 0.761257 0.095064
0.703365 0.757137 0.106630
0.715755 0.753048 0.118837
0.725185 0.754055 0.100740
0.736172 0.756649 0.048249
0.748745 0.759640 0.000000
0.762692 0.762875 0.000000
0.777890 0.766201 0.000000
0.794675 0.769955 0.000000
0.813352 0.774289 0.000000
0.834012 0.779355 0.000000
0.856779 0.785367 0.000000
0.878813 0.789517 0.000000
0.895415 0.787442 0.000000
0.912688 0.784176 0.000000
0.930144 0.779355 0.000000
0.947692 0.772671 0.000000
0.965240 0.763973 0.000000
0.994354 0.762387 0.000000
1.000000 0.767117 0.000000
1.000000 0.773251 0.000000
1.000000 0.777707 0.000000
1.000000 0.780880 0.000000
1.000000 0.783017 0.000000
1.000000 0.784665 0.000000
0.700160 0.816312 0.143496
0.701717 0.817685 0.146792
0.703914 0.818357 0.149905
0.706874 0.818082 0.152468
0.711208 0.817136 0.155123
0.717037 0.815671 0.158328
0.724666 0.813901 0.163241
0.734310 0.811795 0.169284
0.745907 0.809567 0.176486
0.759396 0.807156 0.185245
0.772000 0.806455 0.187137
0.782620 0.809079 0.175479
0.794400 0.811765 0.159976
0.807340 0.814511 0.139590
0.821347 0.817227 0.109682
0.836667 0.820096 0.023499
0.853513 0.823331 0.000000
0.872129 0.827146 0.000000
0.892851 0.831846 0.000000
0.915435 0.837247 0.000000
0.934997 0.838895 0.000000
0.950378 0.835294 0.000000
0.966155 0.830533 0.000000
0.982238 0.824277 0.000000
0.998474 0.816342 0.000000
1.000000 0.806699 0.000000
1.000000 0.802029 0.000000
1.000000 0.803159 0.000000
1.000000 0.806577 0.000000
1.000000 0.808682 0.000000
1.000000 0.809842 0.000000
1.000000 0.810422 0.117678
0.741909 0.864195 0.229679
0.742855 0.864775 0.231235
0.744381 0.864866 0.232486
0.747127 0.864439 0.233707
0.751095 0.863523 0.235203
0.756588 0.862181 0.237095
0.763821 0.860563 0.240024
0.773007 0.858610 0.243656
0.783871 0.856596 0.248966
0.796811 0.854429 0.255283
0.811307 0.852018 0.262852
0.821714 0.853452 0.257237
0.832395 0.855711 0.247929
0.844114 0.857939 0.236179
0.856809 0.860075 0.221927
0.870695 0.862303 0.204654
0.885863 0.864805 0.184085
0.902831 0.867765 0.158297
0.921477 0.871458 0.125704
0.941894 0.875731 0.056214
0.963867 0.880400 0.000000
0.980774 0.879637 0.000000
0.994568 0.874601 0.000000
1.000000 0.868315 0.000000
1.000000 0.860594 0.000000
1.000000 0.851377 0.000000
1.000000 0.840757 0.000000
1.000000 0.833310 0.000000
1.000000 0.831510 0.000000
1.000000 0.832670 0.000000
1.000000 0.833280 0.000000
1.000000 0.833371 0.177340
0.777493 0.903197 0.308690
0.778164 0.903593 0.310124
0.779782 0.903807 0.311467
0.782589 0.903685 0.313237
0.786801 0.903380 0.315343
0.792782 0.903136 0.319036
0.801236 0.903197 0.324987
0.811704 0.903380 0.332616
0.824186 0.903716 0.342199
0.838621 0.904112 0.353094
0.854765 0.904448 0.365362
0.869841 0.905516 0.373877
0.880919 0.908934 0.372107
0.892576 0.912016 0.368444
0.904784 0.914672 0.362432
0.917510 0.916808 0.353399
0.931121 0.918883 0.342840
0.946075 0.921111 0.330755
0.962463 0.923766 0.318700
0.980285 0.926787 0.305699
0.999329 0.929992 0.291936
1.000000 0.933196 0.276310
1.000000 0.929534 0.262882
1.000000 0.922972 0.249577
1.000000 0.915099 0.232975
1.000000 0.905943 0.213657
1.000000 0.895445 0.190280
1.000000 0.883543 0.162264
1.000000 0.873289 0.129885
1.000000 0.867369 0.110536
1.000000 0.865141 0.202548
1.000000 0.863340 0.288914
0.825895 0.949340 0.432685
0.826200 0.949340 0.432837
0.827298 0.949126 0.432990
0.829252 0.948699 0.433448
0.832609 0.948089 0.434272
0.837430 0.947356 0.435859
0.843961 0.946502 0.438392
0.852110 0.945647 0.442176
0.862119 0.944762 0.447303
0.873716 0.943786 0.453651
0.886809 0.942748 0.461128
0.901244 0.941619 0.469795
0.911498 0.942565 0.469429
0.920623 0.944244 0.464820
