20 Preset/Travel Style 2/【3】LUT video cho PR-AE-FCPX/Travel 2 LUT (22).cube
# Created by Adobe Lightroom plugin Export LUT (1.24.0)
# www.johnrellis.com/lightroom/exportlut.htm
# Preset: 22素材江湖 - DRONE
# Color profile: E:\lut插件\exportlut.1.24\exportlut.lrplugin\color profiles\Rec709gamma2.4.icc
LUT_3D_SIZE 5
DOMAIN_MIN 0.000000 0.000000 0.000000
DOMAIN_MAX 0.903226 0.903226 0.903226
0.000000 0.000000 0.000000
0.089937 0.000000 0.001556
0.273869 0.000000 0.000000
0.664454 0.000000 0.000000
1.000000 0.000000 0.000000
0.056001 0.080415 0.006958
0.106538 0.087282 0.000000
0.286809 0.136934 0.000000
0.662837 0.206241 0.000000
1.000000 0.248692 0.000000
0.244297 0.280095 0.004578
0.269322 0.273777 0.002014
0.381903 0.310613 0.000000
0.730495 0.442329 0.000000
1.000000 0.519707 0.000000
0.556481 0.646326 0.000000
0.591241 0.638666 0.000000
0.694148 0.667475 0.000000
0.838437 0.681544 0.000000
1.000000 0.731350 0.000000
0.859037 0.976715 0.526513
0.883055 0.974517 0.538781
0.942443 0.962219 0.517967
1.000000 0.976440 0.485176
1.000000 0.936522 0.411780
0.000000 0.002625 0.039216
0.078248 0.000000 0.049897
0.261662 0.000000 0.052613
0.594781 0.000000 0.000000
1.000000 0.000000 0.000000
0.000000 0.091432 0.063844
0.102388 0.089906 0.056092
0.281193 0.120241 0.045899
0.609674 0.158267 0.000000
1.000000 0.181247 0.000000
0.216617 0.272007 0.094545
0.253666 0.263401 0.103182
0.349004 0.285283 0.000000
0.682124 0.409094 0.000000
1.000000 0.500175 0.000000
0.536248 0.646479 0.084810
0.575525 0.640528 0.117159
0.684016 0.662379 0.000000
0.829648 0.675257 0.000000
1.000000 0.728359 0.000000
0.845151 0.977478 0.541283
0.869535 0.974853 0.551202
0.948211 0.970855 0.583124
1.000000 0.980987 0.540032
1.000000 0.942138 0.471473
0.032258 0.000000 0.181369
0.116457 0.000000 0.187747
0.257572 0.000000 0.209201
0.586664 0.000000 0.276677
1.000000 0.000000 0.270542
0.006256 0.100862 0.196017
0.119936 0.097536 0.199100
0.284703 0.048615 0.218906
0.612879 0.000000 0.255100
1.000000 0.000000 0.247684
0.000000 0.321752 0.255863
0.076936 0.312627 0.230259
0.349706 0.298833 0.218875
0.696254 0.385504 0.228367
1.000000 0.421210 0.242100
0.410864 0.674556 0.272190
0.473640 0.656336 0.275212
0.638941 0.643915 0.285588
0.812802 0.668238 0.206058
1.000000 0.722347 0.267826
0.764401 0.980499 0.584192
0.797391 0.978515 0.596002
0.906889 0.969665 0.637201
1.000000 0.976074 0.618402
1.000000 0.942504 0.550286
0.123018 0.000000 0.421241
0.191501 0.000000 0.426062
0.349584 0.000000 0.440711
0.580133 0.000000 0.472297
1.000000 0.000000 0.586175
0.067018 0.109865 0.434394
0.176150 0.096010 0.436072
0.349371 0.000000 0.442969
0.593317 0.000000 0.473579
1.000000 0.000000 0.572534
0.000000 0.327062 0.469764
0.110140 0.324468 0.464240
0.354040 0.303014 0.463539
0.659297 0.261173 0.481239
1.000000 0.231144 0.549615
0.000000 0.762356 0.632776
0.000000 0.753750 0.610986
0.385565 0.716823 0.528496
0.780056 0.674586 0.514580
1.000000 0.732082 0.617792
0.591913 1.000000 0.726558
0.654932 0.997620 0.744076
0.789853 0.988952 0.760586
0.964416 0.974914 0.780667
1.000000 0.955077 0.726772
0.241764 0.000000 0.857542
0.319158 0.000000 0.857694
0.517754 0.000000 0.863096
0.762264 0.000000 0.868620
1.000000 0.000000 0.879271
0.171511 0.021485 0.856718
0.278447 0.000000 0.857420
0.500847 0.000000 0.861631
0.756710 0.000000 0.866056
1.000000 0.000000 0.876646
0.000000 0.358129 0.873289
0.000000 0.363989 0.871611
0.425208 0.314427 0.872953
0.742000 0.093812 0.875090
1.000000 0.000000 0.881468
0.000000 0.717189 0.914611
0.000000 0.715908 0.912535
0.476356 0.722408 0.907286
0.755032 0.707485 0.908904
1.000000 0.692409 0.893645
0.424018 1.000000 0.967071
0.483619 1.000000 0.966064
0.668788 1.000000 0.959197
0.861601 0.997406 0.946349
1.000000 0.979828 0.944335
