20 Preset/Travel Style 2/【3】LUT video cho PR-AE-FCPX/Travel 2 LUT (9).cube
# Created by Adobe Lightroom plugin Export LUT (1.24.0)
# www.johnrellis.com/lightroom/exportlut.htm
# Preset: 09素材江湖 - LANDSCAPE II
# Color profile: E:\lut插件\exportlut.1.24\exportlut.lrplugin\color profiles\Rec709gamma2.4.icc
LUT_3D_SIZE 5
DOMAIN_MIN 0.000000 0.000000 0.000000
DOMAIN_MAX 0.903226 0.903226 0.903226
0.126223 0.126223 0.126223
0.135897 0.127901 0.128176
0.185580 0.133242 0.134707
0.372351 0.140536 0.150790
0.800290 0.144869 0.200565
0.131044 0.138125 0.131685
0.137636 0.134340 0.130831
0.175937 0.140291 0.133761
0.346715 0.162325 0.147799
0.788388 0.210666 0.191836
0.175021 0.318334 0.191012
0.222812 0.294865 0.195102
0.228946 0.201480 0.160067
0.274693 0.190341 0.139071
0.633570 0.290013 0.139559
0.608789 0.814755 0.626917
0.672999 0.819150 0.668513
0.669032 0.747433 0.548974
0.541497 0.441321 0.245335
0.633417 0.403693 0.123323
0.878935 0.958068 0.884977
0.891112 0.958556 0.892882
0.890471 0.943359 0.874510
0.888609 0.909819 0.809323
0.882231 0.766751 0.585107
0.127352 0.129274 0.132509
0.139956 0.126925 0.141329
0.191043 0.132876 0.145418
0.371374 0.140627 0.175845
0.743374 0.119966 0.229923
0.128206 0.136843 0.137514
0.139712 0.139712 0.139712
0.185824 0.147311 0.148226
0.348089 0.161959 0.168673
0.720974 0.182101 0.216678
0.123720 0.262486 0.180728
0.197024 0.273747 0.203983
0.212222 0.193515 0.167330
0.272953 0.189731 0.149203
0.642298 0.286259 0.170596
0.551904 0.795529 0.600214
0.633234 0.803586 0.647639
0.676417 0.754025 0.595911
0.538079 0.444862 0.273136
0.618952 0.393988 0.142763
0.872801 0.957061 0.883146
0.885283 0.957397 0.890745
0.910033 0.954559 0.900481
0.900237 0.920806 0.837095
0.891936 0.788815 0.633661
0.127932 0.142397 0.162509
0.128450 0.141970 0.182132
0.299107 0.095125 0.311254
0.462806 0.000000 0.289128
0.838224 0.000000 0.376013
0.137911 0.150240 0.160678
0.141848 0.156100 0.176577
0.285588 0.135897 0.295903
0.464454 0.000000 0.280217
0.843656 0.127474 0.391363
0.108644 0.198581 0.204532
0.128450 0.204074 0.209506
0.238804 0.238804 0.238804
0.442725 0.274968 0.279698
0.781918 0.359350 0.375097
0.000000 0.669215 0.492500
0.206455 0.669856 0.501457
0.652827 0.747677 0.660365
0.548241 0.482795 0.382879
0.574762 0.360418 0.189212
0.807462 0.945190 0.850797
0.832334 0.947356 0.864103
0.901915 0.954681 0.905852
0.906920 0.930419 0.874937
0.872862 0.786435 0.661830
0.085420 0.182742 0.262791
0.014801 0.191257 0.306096
0.185611 0.171756 0.522820
0.757534 0.000000 0.792355
0.924865 0.000000 0.647791
0.115206 0.189548 0.249119
0.103487 0.199863 0.284123
0.164218 0.202457 0.483864
0.731563 0.000000 0.764431
0.905211 0.000000 0.623560
0.121187 0.213779 0.253147
0.139101 0.217380 0.256199
0.204654 0.272801 0.350652
0.664607 0.335637 0.687800
0.890745 0.000000 0.569940
0.000000 0.393072 0.414435
0.000000 0.396490 0.417273
0.000000 0.436408 0.454322
0.554284 0.554284 0.554284
0.823392 0.617456 0.622522
0.000000 0.903349 0.766140
0.330724 0.905364 0.776455
0.710018 0.918791 0.831846
0.925750 0.953735 0.927794
0.863340 0.813718 0.748470
0.000000 0.323369 0.569024
0.000000 0.331243 0.605676
0.000000 0.317754 0.744411
0.532250 0.361028 0.890196
0.934844 0.393988 0.970245
0.000000 0.319890 0.529351
0.000000 0.331548 0.568505
0.000000 0.345769 0.717433
0.525414 0.392340 0.877195
0.930846 0.447517 0.964233
0.000000 0.293828 0.397925
0.000000 0.308415 0.427741
0.000000 0.388434 0.601526
0.504845 0.491493 0.833158
0.925841 0.621729 0.950622
0.000000 0.414191 0.529381
0.000000 0.410559 0.525261
0.000000 0.411048 0.525231
0.444251 0.557549 0.695338
0.928771 0.802976 0.940856
0.000000 0.694606 0.738338
0.000000 0.696315 0.739376
0.000000 0.714229 0.753689
0.336889 0.755093 0.780423
0.857511 0.857511 0.857511
