20 Preset/Scenery style2/【3】LUT video cho PR-AE-FCPX/Tone  (3).cube
# Created by Adobe Lightroom plugin Export LUT (1.24.0)
# www.johnrellis.com/lightroom/exportlut.htm
# Preset: 暗青风光-素材江湖05
# Color profile: C:\Program Files (x86)\Common Files\Adobe\Color\Profiles\Recommended\VideoHD.icc
LUT_3D_SIZE 32
DOMAIN_MIN 0.0 0.0 0.0
DOMAIN_MAX 1.0 1.0 1.0
0.063966 0.104799 0.114015
0.063966 0.104799 0.114015
0.063966 0.104799 0.114015
0.063966 0.104799 0.114015
0.070558 0.105531 0.115084
0.092042 0.112032 0.120607
0.100557 0.120851 0.126253
0.110079 0.128206 0.130617
0.121920 0.135439 0.133425
0.135653 0.142977 0.135286
0.151919 0.151186 0.136110
0.171206 0.160311 0.136049
0.193118 0.170687 0.134737
0.218997 0.182010 0.131777
0.248722 0.194736 0.127535
0.282078 0.208743 0.121645
0.319127 0.224094 0.113771
0.359136 0.241428 0.103395
0.401465 0.260533 0.091493
0.445624 0.281651 0.064668
0.502373 0.309728 0.006378
0.558129 0.338659 0.000000
0.608881 0.365942 0.000000
0.654780 0.391852 0.000000
0.695552 0.415839 0.000000
0.732296 0.438575 0.000000
0.766629 0.460639 0.000000
0.800015 0.483101 0.000000
0.832578 0.506126 0.000000
0.864408 0.530083 0.000000
0.895171 0.554894 0.000000
0.924315 0.580468 0.000000
0.063966 0.104799 0.114015
0.063966 0.104799 0.114015
0.063966 0.104799 0.114015
0.063966 0.104799 0.114015
0.071534 0.105806 0.115358
0.092134 0.112642 0.120821
0.100343 0.121157 0.126223
0.110079 0.128206 0.130617
0.121431 0.135500 0.133455
0.134951 0.142824 0.135317
0.150790 0.150912 0.135927
0.169528 0.159762 0.135958
0.191257 0.170077 0.134920
0.216587 0.181094 0.132052
0.245701 0.193759 0.127901
0.278935 0.207584 0.122164
0.315557 0.222965 0.114443
0.355261 0.239933 0.104494
0.397162 0.258824 0.092744
0.440894 0.279576 0.068391
0.495918 0.306767 0.012634
0.549859 0.334417 0.000000
0.599207 0.360937 0.000000
0.644800 0.386328 0.000000
0.685817 0.410193 0.000000
0.722927 0.432746 0.000000
0.757626 0.454871 0.000000
0.791531 0.477302 0.000000
0.824735 0.500511 0.000000
0.857298 0.524559 0.000000
0.888792 0.549554 0.000000
0.918791 0.575372 0.000000
0.063966 0.104799 0.114015
0.063966 0.104799 0.114015
0.063966 0.104799 0.114015
0.063966 0.104799 0.114015
0.079103 0.108156 0.117159
0.093111 0.116426 0.122286
0.101534 0.123476 0.127474
0.111147 0.129854 0.131380
0.122194 0.136812 0.133730
0.135683 0.144076 0.135378
0.151369 0.152071 0.136202
0.170016 0.160830 0.136233
0.191379 0.170748 0.134768
0.216342 0.181918 0.132418
0.245121 0.194278 0.128084
0.277897 0.208011 0.122377
0.314214 0.223209 0.114778
0.353643 0.240024 0.104952
0.395270 0.258915 0.092988
0.438911 0.279545 0.069368
0.493721 0.306462 0.014405
0.546502 0.333623 0.000000
0.595209 0.359594 0.000000
0.640436 0.384741 0.000000
0.681178 0.408240 0.000000
0.718471 0.430640 0.000000
0.753262 0.452705 0.000000
0.787259 0.475105 0.000000
0.820768 0.498268 0.000000
0.853635 0.522332 0.000000
0.885405 0.547295 0.000000
0.915648 0.573083 0.000000
0.064942 0.105074 0.114290
0.065919 0.105379 0.114534
0.067140 0.106966 0.115541
0.072969 0.109346 0.117617
0.087068 0.115419 0.121370
0.096376 0.121798 0.125399
0.104311 0.127687 0.129488
0.114046 0.133547 0.132601
0.124788 0.140261 0.134676
0.138125 0.147036 0.136080
0.153902 0.154788 0.136660
0.172091 0.163546 0.136416
0.193332 0.173404 0.134920
0.218112 0.184176 0.132082
0.246220 0.196414 0.128023
0.278569 0.209873 0.122103
0.314000 0.224765 0.114565
0.352392 0.241245 0.104921
0.393225 0.259709 0.093263
0.436683 0.280186 0.070405
0.489052 0.305974 0.018036
0.539544 0.331701 0.000000
0.587213 0.357000 0.000000
0.632776 0.381994 0.000000
0.674830 0.406043 0.000000
0.713649 0.429236 0.000000
0.749905 0.451942 0.000000
0.784970 0.474922 0.000000
0.819181 0.498390 0.000000
0.852293 0.522606 0.000000
0.883879 0.547234 0.000000
0.913664 0.572412 0.000000
0.083833 0.118166 0.123537
0.083986 0.118715 0.123751
0.086213 0.120027 0.124361
0.088655 0.121798 0.126284
0.092164 0.124178 0.128817
0.097200 0.127932 0.131838
0.105562 0.132998 0.133791
0.116060 0.138735 0.135042
0.128511 0.144778 0.135897
0.141726 0.151461 0.136751
0.157107 0.158907 0.136873
0.175082 0.167514 0.136355
0.196139 0.177035 0.134859
0.220768 0.187778 0.131960
0.248905 0.199924 0.127535
0.280827 0.213474 0.121462
0.316411 0.228305 0.113741
0.354681 0.244938 0.103731
0.395422 0.263188 0.091676
0.440406 0.284733 0.065095
0.490761 0.309606 0.014252
0.539605 0.334447 0.000000
0.586145 0.359136 0.000000
0.631525 0.383795 0.000000
0.673518 0.407752 0.000000
0.712581 0.430976 0.000000
0.748806 0.453498 0.000000
0.783810 0.476265 0.000000
0.817838 0.499489 0.000000
0.850675 0.523339 0.000000
0.882170 0.547601 0.000000
0.911772 0.572473 0.000000
0.093690 0.129976 0.132631
0.094301 0.129915 0.132876
0.094820 0.130617 0.132998
0.096254 0.131991 0.134035
0.099580 0.133913 0.135195
0.104097 0.136629 0.136690
0.109926 0.139834 0.138308
0.118349 0.144686 0.139834
0.130678 0.150362 0.139925
0.144625 0.157259 0.139773
0.161013 0.164950 0.138827
0.180514 0.173587 0.137209
0.203037 0.183536 0.134279
0.227543 0.194369 0.130892
0.255924 0.206485 0.126253
0.288090 0.219974 0.119814
0.323369 0.234989 0.111574
0.361700 0.251621 0.101198
0.402014 0.270054 0.088991
0.449348 0.292851 0.053803
0.498390 0.317174 0.001221
0.546014 0.341527 0.000000
0.643641 0.395361 0.000000
0.685939 0.419715 0.000000
0.723812 0.442359 0.000000
0.758358 0.463966 0.000000
0.791226 0.485542 0.000000
0.822812 0.507164 0.000000
0.853269 0.529198 0.000000
0.882353 0.551659 0.000000
0.909789 0.574456 0.000000
0.935271 0.597436 0.000000
0.105928 0.143038 0.139773
0.106233 0.143221 0.139986
0.107271 0.143801 0.140108
0.108705 0.144991 0.140597
0.111604 0.146700 0.141238
0.115846 0.148867 0.142245
0.121614 0.151705 0.143282
0.128634 0.155093 0.144228
0.136904 0.159548 0.145388
0.151553 0.166506 0.144442
0.169253 0.174411 0.142885
0.189853 0.183627 0.140108
0.213260 0.193881 0.136721
0.240574 0.205570 0.131624
0.271611 0.218479 0.124941
0.305852 0.232578 0.116335
0.343053 0.248478 0.105409
0.380926 0.265507 0.094118
0.423957 0.285893 0.073945
0.475654 0.311254 0.021332
0.527489 0.337530 0.000000
0.578790 0.364385 0.000000
0.628534 0.391516 0.000000
0.674525 0.417548 0.000000
0.715663 0.441718 0.000000
0.751888 0.464118 0.000000
0.785428 0.485573 0.000000
0.817197 0.506920 0.000000
0.847623 0.528649 0.000000
0.876707 0.550561 0.000000
0.904356 0.572961 0.000000
0.930114 0.595727 0.000000
0.118990 0.155673 0.144747
0.118746 0.155886 0.144930
0.119814 0.156191 0.145083
0.121614 0.157198 0.145357
0.124361 0.158511 0.145754
0.128023 0.160678 0.146242
0.133394 0.162997 0.146639
0.139681 0.166079 0.147341
0.147799 0.169955 0.147860
0.157931 0.174594 0.148135
0.172519 0.181460 0.147219
0.192660 0.190677 0.144259
0.215854 0.200961 0.140444
0.242832 0.212375 0.135470
0.273014 0.225162 0.128939
0.306584 0.239231 0.120607
0.343328 0.255100 0.110384
0.382696 0.272831 0.097841
0.431830 0.296178 0.071595
0.481941 0.320531 0.012238
0.531518 0.345495 0.000000
0.580163 0.370947 0.000000
0.627955 0.396735 0.000000
0.672419 0.421698 0.000000
0.712825 0.445350 0.000000
0.748684 0.467079 0.000000
0.781979 0.488289 0.000000
0.813687 0.509239 0.000000
0.844205 0.530571 0.000000
0.873350 0.552209 0.000000
0.901152 0.574273 0.000000
0.927092 0.596826 0.000000
0.135012 0.170138 0.149111
0.135286 0.170291 0.149081
0.135836 0.170596 0.149020
0.137392 0.171511 0.149050
0.140200 0.172641 0.149233
0.143465 0.174380 0.149508
0.148409 0.176608 0.149660
0.154543 0.179477 0.149905
0.162203 0.182742 0.149996
0.171481 0.186648 0.149905
0.183383 0.192294 0.149599
0.197330 0.198520 0.149020
0.220432 0.209140 0.144930
0.247074 0.220645 0.139773
0.277195 0.233524 0.133303
0.310246 0.247745 0.125643
0.346258 0.263890 0.116243
0.390661 0.284672 0.104005
0.436896 0.306889 0.085725
0.484688 0.330114 0.031708
0.533379 0.354528 0.000000
0.582208 0.379644 0.000000
0.630060 0.405035 0.000000
0.674372 0.429328 0.000000
0.713405 0.451972 0.000000
0.748501 0.473060 0.000000
0.781430 0.493629 0.000000
0.812863 0.514183 0.000000
0.843168 0.535088 0.000000
0.872099 0.556329 0.000000
0.899657 0.577996 0.000000
0.925536 0.600092 0.000000
0.154757 0.186770 0.152102
0.154635 0.186923 0.152071
0.155032 0.187198 0.152224
0.156863 0.187808 0.152071
0.159243 0.188815 0.152071
0.162417 0.190311 0.151919
0.166903 0.192264 0.152071
0.172732 0.194919 0.151858
0.180179 0.197910 0.151492
0.188754 0.201480 0.151186
0.198886 0.205844 0.150393
0.212863 0.212009 0.149691
0.228641 0.218784 0.148684
0.251499 0.229038 0.145052
0.281407 0.242405 0.138827
0.315435 0.257786 0.131380
0.355962 0.276890 0.122774
0.399023 0.297581 0.111543
0.443915 0.319341 0.095918
0.490089 0.341924 0.056184
0.536492 0.365240 0.000000
0.582452 0.388769 0.000000
0.627344 0.412390 0.000000
0.669551 0.435187 0.000000
0.708644 0.456855 0.000000
0.744411 0.477363 0.000000
0.777920 0.497505 0.000000
0.809323 0.517754 0.000000
0.839872 0.538537 0.000000
0.869291 0.559777 0.000000
0.897337 0.581537 0.000000
0.923705 0.603723 0.000000
0.176883 0.205264 0.153964
0.177157 0.205264 0.153964
0.178012 0.205570 0.153872
0.179263 0.206394 0.153902
0.181765 0.207370 0.153628
0.185336 0.208865 0.153414
0.189883 0.210880 0.153292
0.195651 0.213382 0.152804
0.202823 0.216434 0.152346
0.211673 0.219944 0.151705
0.221683 0.224002 0.150637
0.233341 0.228519 0.149752
0.249241 0.235569 0.148440
0.266941 0.243381 0.147066
0.290623 0.254246 0.145449
0.326543 0.271855 0.138827
0.365545 0.290654 0.131014
0.406867 0.310765 0.120546
0.449928 0.331792 0.106600
0.494057 0.353582 0.085267
0.538506 0.375952 0.024140
0.582879 0.398627 0.000000
0.626581 0.421637 0.000000
0.667811 0.443702 0.000000
0.706264 0.464851 0.000000
0.741604 0.485023 0.000000
0.775662 0.504997 0.000000
0.808621 0.525231 0.000000
0.840543 0.545800 0.000000
0.869932 0.566705 0.000000
0.897673 0.588006 0.000000
0.923796 0.609796 0.000000
0.205417 0.227970 0.154696
0.205661 0.227939 0.154696
0.206271 0.228336 0.154574
0.208011 0.228977 0.154391
0.210239 0.230137 0.154238
0.213687 0.231601 0.153780
0.218753 0.233555 0.153353
0.224674 0.236057 0.152956
0.231968 0.239017 0.152163
0.240818 0.242649 0.151095
0.250919 0.246738 0.150240
0.262669 0.251286 0.149111
0.297642 0.271000 0.147494
0.320745 0.282475 0.146944
0.345617 0.294804 0.146487
0.371405 0.307591 0.146242
0.407843 0.325750 0.139620
0.450660 0.347051 0.128023
0.494057 0.368902 0.112612
0.537682 0.390906 0.091218
0.580896 0.413062 0.030549
0.622370 0.434607 0.000000
0.661524 0.455146 0.000000
0.698268 0.475013 0.000000
0.732448 0.493965 0.000000
0.764889 0.512413 0.000000
0.795987 0.530785 0.000000
0.825956 0.549157 0.000000
0.854856 0.567956 0.000000
0.882841 0.587121 0.000000
0.909514 0.606714 0.000000
0.934142 0.626917 0.000000
0.248203 0.261082 0.153536
0.248203 0.261082 0.153536
0.248539 0.261021 0.153536
0.249790 0.261479 0.153353
0.251743 0.262119 0.152895
0.254795 0.263035 0.152712
0.259037 0.264561 0.152071
0.264897 0.266819 0.151369
0.272160 0.269871 0.150759
0.282444 0.274540 0.149874
0.297185 0.281773 0.148898
0.314000 0.290288 0.148287
0.332799 0.299565 0.147707
0.352575 0.309026 0.147402
0.376074 0.320531 0.146822
0.400610 0.332708 0.146151
0.425177 0.344640 0.145357
0.454108 0.358831 0.141878
0.495094 0.379522 0.128969
0.536126 0.400244 0.112856
0.577020 0.421180 0.090669
0.617212 0.441993 0.028290
0.655451 0.462135 0.000000
0.691798 0.481605 0.000000
0.725826 0.500237 0.000000
0.758297 0.518608 0.000000
0.789761 0.537041 0.000000
0.820188 0.555718 0.000000
0.849699 0.574640 0.000000
0.878172 0.594110 0.000000
0.905180 0.613855 0.000000
0.930785 0.633997 0.000000
0.287480 0.291722 0.151858
0.287480 0.291722 0.151858
0.288212 0.291905 0.151766
0.289647 0.292485 0.151522
0.292027 0.293431 0.151492
0.295598 0.295048 0.151156
0.300969 0.297398 0.150698
0.307774 0.300481 0.150271
0.316625 0.304662 0.149752
0.327642 0.309941 0.149447
0.340887 0.316655 0.149020
0.356451 0.324285 0.148592
0.373663 0.332769 0.148165
0.392004 0.341405 0.147341
0.410437 0.349645 0.146914
0.431617 0.359686 0.146242
0.454292 0.370367 0.145418
0.476875 0.381201 0.144594
0.500206 0.392432 0.143984
0.537163 0.411170 0.132479
0.576532 0.431434 0.116182
0.615595 0.451789 0.094942
0.653040 0.471595 0.045655
0.688869 0.490852 0.000000
0.722530 0.509270 0.000000
0.754849 0.527581 0.000000
0.786252 0.545922 0.000000
0.816678 0.564508 0.000000
0.846220 0.583337 0.000000
0.874723 0.602777 0.000000
0.901854 0.622614 0.000000
0.927581 0.642817 0.000000
0.341863 0.335058 0.152407
0.342016 0.335027 0.152224
0.342504 0.334997 0.151797
0.343450 0.335088 0.151492
0.345037 0.335302 0.151095
0.347509 0.336034 0.150851
0.351598 0.337621 0.150546
0.357427 0.339971 0.150423
0.365087 0.343359 0.150118
0.375128 0.348028 0.149691
0.387213 0.353887 0.149142
0.401587 0.360815 0.148623
0.417212 0.368566 0.148135
0.433906 0.376349 0.147311
0.450721 0.383642 0.146761
0.466743 0.390265 0.146029
0.485573 0.398383 0.145541
0.506432 0.408240 0.144900
0.527672 0.418097 0.144533
0.549310 0.428412 0.144594
0.578637 0.443366 0.138552
0.616297 0.463203 0.123934
0.652644 0.482460 0.107057
0.687465 0.501213 0.087495
0.720394 0.519432 0.040589
0.752468 0.537560 0.000000
0.783902 0.555962 0.000000
0.814572 0.574823 0.000000
0.844480 0.594171 0.000000
0.873472 0.614099 0.000000
0.901091 0.634546 0.000000
0.927092 0.655360 0.000000
0.394903 0.377661 0.154391
0.395239 0.377844 0.154269
0.395911 0.377935 0.153780
0.397223 0.378241 0.152712
0.399390 0.378820 0.151431
0.402136 0.379797 0.150942
0.406561 0.381506 0.150576
0.412360 0.384039 0.150332
0.419867 0.387366 0.150118
0.428962 0.391424 0.149538
0.439368 0.396124 0.149111
0.451118 0.401373 0.148806
0.463935 0.406958 0.148135
0.477150 0.412573 0.147707
0.490547 0.417914 0.147280
0.504234 0.422980 0.146700
0.517967 0.428016 0.146426
0.534630 0.434760 0.146395
0.554345 0.443824 0.146456
0.574517 0.453376 0.146731
0.595483 0.463630 0.148013
0.618128 0.475196 0.149477
0.653834 0.494423 0.138705
0.688136 0.513207 0.127687
0.720790 0.531395 0.117617
0.752773 0.549798 0.107362
0.784085 0.568414 0.099275
0.814633 0.587366 0.093843
0.844236 0.606683 0.094636
0.872679 0.626337 0.103273
0.899657 0.646387 0.119814
0.924926 0.666682 0.143069
0.447181 0.419745 0.156741
0.447211 0.419837 0.156466
0.447791 0.419898 0.155978
0.449165 0.420325 0.154635
0.451392 0.420844 0.153140
0.454475 0.421912 0.151461
0.458259 0.423285 0.151156
0.463325 0.425299 0.150973
0.469795 0.427924 0.150698
0.477485 0.431250 0.150484
0.486671 0.435096 0.150179
0.497078 0.439582 0.149935
0.508110 0.444282 0.149660
0.519768 0.448920 0.149416
0.531670 0.453437 0.149416
0.543633 0.457649 0.149294
0.555871 0.461830 0.149264
0.568505 0.465980 0.149355
0.583276 0.471626 0.149935
0.601343 0.479896 0.151492
0.620478 0.489143 0.154208
0.640223 0.499062 0.157778
0.660609 0.509728 0.162997
0.689784 0.525902 0.160739
0.721889 0.544060 0.155856
0.753567 0.562554 0.152407
0.784726 0.581384 0.150484
0.815061 0.600488 0.152102
0.844419 0.619928 0.157321
0.872557 0.639704 0.167086
0.899138 0.659754 0.182406
0.923949 0.679988 0.202518
0.501366 0.464057 0.161166
0.501793 0.464332 0.161135
0.528405 0.485969 0.165866
0.529625 0.486213 0.164492
0.531579 0.486610 0.161990
0.534295 0.487160 0.159457
0.537621 0.488014 0.157168
0.541650 0.489204 0.156924
0.546960 0.491096 0.157046
0.553429 0.493507 0.157229
0.560906 0.496315 0.157412
0.569207 0.499336 0.157900
0.577630 0.502129 0.158297
0.586206 0.504723 0.158755
0.594720 0.506950 0.159487
0.603326 0.508843 0.159976
0.611688 0.510430 0.160494
0.620447 0.512016 0.161135
0.629633 0.513725 0.162203
0.640711 0.517052 0.164065
0.656214 0.523796 0.168002
0.672969 0.531853 0.173404
0.690303 0.540703 0.179965
0.707912 0.550256 0.188296
0.729549 0.562402 0.194003
0.759243 0.579736 0.193240
0.788510 0.597375 0.194308
0.817258 0.615534 0.197818
0.845426 0.634241 0.204807
0.872648 0.653651 0.215854
0.898528 0.673457 0.231296
0.922667 0.693446 0.251011
0.561151 0.513298 0.171817
0.563653 0.515221 0.172580
0.566583 0.517510 0.172732
0.569757 0.519463 0.172030
0.573083 0.521019 0.170871
0.575982 0.522087 0.168093
0.579095 0.522728 0.166049
0.582208 0.523461 0.165927
0.586358 0.524559 0.166171
0.591363 0.526146 0.166690
0.597528 0.528099 0.167514
0.604181 0.530297 0.168307
0.611200 0.532403 0.169253
0.618494 0.534295 0.170077
0.625940 0.536187 0.171237
0.633539 0.537774 0.172213
0.641352 0.539239 0.173556
0.649378 0.540795 0.174929
0.657984 0.542565 0.176577
0.667079 0.544671 0.178714
0.677455 0.547692 0.181643
0.692958 0.555200 0.188144
0.709102 0.563378 0.195895
0.725734 0.572381 0.204868
0.742702 0.582025 0.214847
0.760220 0.592584 0.226535
0.788388 0.609827 0.229984
0.816495 0.627863 0.235325
0.844175 0.646571 0.243992
0.870939 0.665827 0.256199
0.896422 0.685634 0.272557
0.920226 0.705592 0.292821
0.604181 0.549218 0.183871
0.606470 0.551110 0.184787
0.609400 0.553246 0.185336
0.612177 0.555138 0.185550
0.615259 0.556695 0.184268
0.617853 0.557488 0.182528
0.620142 0.557916 0.182010
0.622583 0.558343 0.182406
0.625910 0.558984 0.182742
0.629877 0.559930 0.183597
0.634668 0.561181 0.184451
0.640131 0.562768 0.185794
0.646052 0.564233 0.186984
0.652277 0.565728 0.188540
0.658717 0.567132 0.189975
0.665309 0.568414 0.191440
0.672023 0.569543 0.193088
0.679103 0.570642 0.194827
0.686610 0.572015 0.197024
0.694575 0.573754 0.199496
0.703120 0.575677 0.202396
0.712673 0.578424 0.205966
0.727993 0.586450 0.214511
0.743771 0.595117 0.224216
0.759792 0.604303 0.234836
0.776181 0.614374 0.247044
0.793088 0.625238 0.260838
0.816648 0.640925 0.271275
0.843687 0.659449 0.281193
0.869871 0.678645 0.294530
0.894743 0.698329 0.311742
0.917967 0.718105 0.332647
0.645136 0.584009 0.201053
0.647059 0.585595 0.202396
0.649348 0.587335 0.203189
0.651728 0.588891 0.204074
0.653956 0.590082 0.204471
0.655818 0.590631 0.204929
0.657618 0.590936 0.205356
0.659693 0.591211 0.205814
0.662440 0.591608 0.206516
0.665736 0.592279 0.207095
0.669642 0.593103 0.208469
0.674189 0.594141 0.209781
0.679133 0.595270 0.211368
0.684352 0.596399 0.213046
0.690059 0.597620 0.214817
0.696132 0.598810 0.216800
0.702693 0.600336 0.219150
0.709865 0.602045 0.221744
0.717647 0.604211 0.225071
0.726070 0.606806 0.228702
0.735073 0.609766 0.233005
0.744472 0.613062 0.237858
0.754055 0.616388 0.242832
0.769558 0.625452 0.254276
0.785367 0.635096 0.266972
0.801144 0.645319 0.280919
0.817166 0.656306 0.296361
0.833616 0.668421 0.313970
0.852995 0.683314 0.332128
0.877897 0.702419 0.347723
0.901274 0.721706 0.366644
0.922972 0.740841 0.388983
0.693172 0.626673 0.238437
0.693996 0.627314 0.239231
0.694728 0.627832 0.239658
0.695491 0.628107 0.240085
0.696345 0.628229 0.240299
0.697200 0.628046 0.240299
0.698299 0.627955 0.240360
0.700008 0.627955 0.240757
0.702144 0.628168 0.241215
0.705135 0.628687 0.242283
0.708522 0.629480 0.243626
0.712520 0.630396 0.245243
0.716793 0.631312 0.246708
0.721340 0.632197 0.248447
0.726253 0.633082 0.250248
0.731441 0.634028 0.252293
0.736965 0.635035 0.254337
0.742885 0.636194 0.256809
0.749294 0.637659 0.259586
0.756130 0.639399 0.262882
0.763424 0.641352 0.266453
0.771145 0.643641 0.270665
0.779141 0.646021 0.275059
0.787137 0.648554 0.279728
0.800809 0.656733 0.291478
0.815518 0.666529 0.305882
0.830655 0.677211 0.321874
0.846067 0.688930 0.340154
0.861784 0.701930 0.360876
0.877684 0.716152 0.384344
0.900084 0.734981 0.403998
0.921080 0.753689 0.426459
0.727352 0.658320 0.273869
0.727993 0.658839 0.274479
0.728634 0.659266 0.275120
0.729397 0.659632 0.275517
0.730190 0.659693 0.275883
0.731014 0.659663 0.276005
0.732021 0.659571 0.276066
0.733486 0.659571 0.276493
0.735470 0.659815 0.277104
0.737972 0.660273 0.278111
0.741024 0.660975 0.279423
0.744411 0.661738 0.280980
0.748257 0.662593 0.282658
0.752377 0.663447 0.284611
0.756802 0.664393 0.286564
0.761532 0.665400 0.288792
0.766690 0.666560 0.291234
0.772152 0.667811 0.294041
0.778073 0.669245 0.297124
0.784176 0.670954 0.300572
0.790890 0.672877 0.304601
0.797818 0.675074 0.308873
0.805051 0.677394 0.313573
0.812436 0.679927 0.318669
0.815244 0.677638 0.317174
0.827481 0.685359 0.329534
0.841672 0.695613 0.346044
0.856046 0.706905 0.364508
0.870695 0.719326 0.385412
0.885496 0.732937 0.409033
0.900267 0.747799 0.435645
0.918761 0.765255 0.460517
0.765286 0.694636 0.321019
0.766201 0.695430 0.322087
0.766751 0.695827 0.322667
0.766934 0.695705 0.322637
0.766995 0.695216 0.322118
0.766995 0.694545 0.321294
0.767117 0.693660 0.320348
0.767514 0.692866 0.319554
0.768338 0.692226 0.319036
0.769711 0.691890 0.319005
0.771481 0.691554 0.319097
0.773800 0.691646 0.319768
0.776486 0.691768 0.320684
0.779446 0.691951 0.321660
0.782620 0.692042 0.322637
0.786130 0.692256 0.323949
0.790097 0.692714 0.325566
0.794644 0.693507 0.327825
0.799802 0.694759 0.330816
0.805570 0.696559 0.334630
0.811734 0.698604 0.338964
0.818143 0.700771 0.343572
0.824491 0.702846 0.348180
0.830747 0.704799 0.352605
0.836851 0.706600 0.356847
0.843015 0.708339 0.361273
0.853513 0.715236 0.373449
0.866361 0.725429 0.391272
0.879545 0.736751 0.411475
0.892943 0.749355 0.434455
0.906493 0.763058 0.460304
0.919890 0.777646 0.488594
0.791775 0.721370 0.360082
0.792538 0.722072 0.361212
0.793210 0.722499 0.361913
0.793576 0.722652 0.362280
0.793973 0.722621 0.362280
0.794461 0.722408 0.362188
0.795163 0.722316 0.362249
0.796170 0.722225 0.362463
0.797543 0.722286 0.362951
0.799313 0.722499 0.363684
0.801236 0.722713 0.364599
0.803525 0.723049 0.365667
0.806027 0.723323 0.366857
0.808652 0.723537 0.367895
0.811398 0.723659 0.368872
0.814420 0.723720 0.369970
0.817685 0.723995 0.371344
0.821530 0.724575 0.373358
0.825864 0.725612 0.376257
0.830777 0.727108 0.379797
0.836118 0.728878 0.384009
0.841672 0.730922 0.388678
0.847379 0.732967 0.393530
0.853086 0.734981 0.398352
0.858732 0.737026 0.403265
0.864408 0.739010 0.408179
0.870176 0.741115 0.413397
0.879362 0.747677 0.426154
0.891386 0.758358 0.446509
0.903471 0.769986 0.469154
0.915679 0.782437 0.493690
0.928069 0.795682 0.520195
0.820066 0.750973 0.408118
0.820401 0.751339 0.408759
0.820676 0.751522 0.409094
0.820920 0.751522 0.409186
0.821195 0.751400 0.409064
0.821530 0.751186 0.408911
0.822080 0.750942 0.408789
0.822843 0.750820 0.408820
0.823880 0.750729 0.409033
0.825284 0.750820 0.409613
0.826902 0.750912 0.410254
0.828855 0.751186 0.411414
0.831022 0.751492 0.412451
0.833310 0.751675 0.413611
0.835660 0.751736 0.414527
0.838254 0.751858 0.415564
0.841062 0.752041 0.416907
0.844327 0.752560 0.418830
0.848051 0.753445 0.421424
0.852262 0.754726 0.424872
0.856840 0.756374 0.428992
0.861662 0.758114 0.433448
0.866545 0.759915 0.437995
0.871489 0.761715 0.442695
0.876432 0.763424 0.447272
0.881376 0.765194 0.451972
0.886381 0.767086 0.456947
0.891478 0.769039 0.462135
0.899413 0.774929 0.474617
0.910643 0.785641 0.496193
0.922118 0.797269 0.519707
0.933684 0.809567 0.544915
0.843473 0.776974 0.454414
0.843717 0.777249 0.454963
0.844022 0.777432 0.455329
0.844358 0.777584 0.455665
0.844846 0.777737 0.456092
0.845579 0.778042 0.456794
0.846830 0.778714 0.458259
0.848386 0.779568 0.460273
0.850309 0.780697 0.462776
0.852567 0.782010 0.465614
0.855100 0.783444 0.468788
0.857786 0.784787 0.472023
0.860533 0.786069 0.475044
0.863157 0.787137 0.477760
0.865751 0.787961 0.480049
0.868254 0.788418 0.481819
0.870787 0.788815 0.483436
0.873594 0.789364 0.485389
0.876768 0.790188 0.488045
0.880308 0.791318 0.491310
0.884123 0.792721 0.495094
0.888121 0.794186 0.499123
0.892180 0.795621 0.503166
0.896300 0.797116 0.507317
0.900420 0.798550 0.511406
0.904540 0.799985 0.515618
0.908782 0.801480 0.519921
0.913146 0.803128 0.524529
0.917632 0.804959 0.529595
0.924254 0.809873 0.540612
0.934325 0.819974 0.561944
0.944305 0.830625 0.584863
0.871519 0.808896 0.515618
0.871519 0.808927 0.515648
0.871580 0.808835 0.515526
0.871672 0.808774 0.515465
0.871855 0.808652 0.515343
0.872160 0.808560 0.515312
0.872679 0.808560 0.515526
0.873411 0.808652 0.515953
0.874388 0.808865 0.516686
0.875608 0.809201 0.517754
0.877043 0.809598 0.518914
0.878691 0.810086 0.520409
0.880491 0.810575 0.521965
0.882414 0.811063 0.523491
