20 Preset/Scenery style2/【3】LUT video cho PR-AE-FCPX/Tone  (3).cube
# Created by Adobe Lightroom plugin Export LUT (1.24.0)
# www.johnrellis.com/lightroom/exportlut.htm
# Preset: 暗青风光-素材江湖05
# Color profile: C:\Program Files (x86)\Common Files\Adobe\Color\Profiles\Recommended\VideoHD.icc
LUT_3D_SIZE 5
DOMAIN_MIN 0.000000 0.000000 0.000000
DOMAIN_MAX 0.903226 0.903226 0.903226
0.063966 0.104799 0.114015
0.110079 0.128206 0.130617
0.248722 0.194736 0.127535
0.558129 0.338659 0.000000
0.832578 0.506126 0.000000
0.118990 0.155673 0.144747
0.139681 0.166079 0.147341
0.273014 0.225162 0.128939
0.580163 0.370947 0.000000
0.844205 0.530571 0.000000
0.341863 0.335058 0.152407
0.357427 0.339971 0.150423
0.450721 0.383642 0.146761
0.616297 0.463203 0.123934
0.844480 0.594171 0.000000
0.693172 0.626673 0.238437
0.700008 0.627955 0.240757
0.726253 0.633082 0.250248
0.771145 0.643641 0.270665
0.861784 0.701930 0.360876
0.890318 0.830961 0.559136
0.892454 0.831296 0.560601
0.895323 0.826017 0.553094
0.914641 0.833249 0.573877
0.938720 0.843168 0.603479
0.022736 0.145388 0.210910
0.096529 0.148684 0.198367
0.209964 0.193088 0.175326
0.521904 0.331823 0.074372
0.808011 0.494362 0.000000
0.103853 0.170169 0.193240
0.123079 0.181430 0.197940
0.236667 0.223270 0.185763
0.547906 0.361486 0.021668
0.817502 0.514611 0.000000
0.281437 0.313603 0.246281
0.299413 0.320012 0.241306
0.385290 0.353155 0.218875
0.589075 0.446174 0.140200
0.837858 0.589593 0.000000
0.662348 0.623682 0.366918
0.672480 0.626001 0.359930
0.709529 0.631525 0.322881
0.767910 0.639551 0.266056
0.860349 0.699672 0.357733
0.889616 0.830045 0.557305
0.891478 0.830106 0.558190
0.900786 0.832273 0.565759
0.917693 0.837034 0.581567
0.941436 0.846952 0.611749
0.000000 0.232059 0.489662
0.000000 0.243809 0.475868
0.208042 0.270939 0.431098
0.391638 0.334752 0.394598
0.746700 0.531823 0.394568
0.060578 0.285374 0.453529
0.133547 0.288396 0.444068
0.243534 0.304082 0.419013
0.447639 0.398291 0.427070
0.755337 0.557214 0.409552
0.272068 0.381079 0.426581
0.290929 0.388159 0.426215
0.390173 0.450843 0.460273
0.543145 0.499825 0.437659
0.794003 0.624323 0.424323
0.605829 0.638270 0.572839
0.607996 0.635737 0.564660
0.633143 0.639918 0.551507
0.688441 0.650660 0.525475
0.829007 0.708156 0.484657
0.859556 0.835630 0.674647
0.863188 0.836179 0.671443
0.877531 0.836973 0.654780
0.906035 0.836881 0.614862
0.939025 0.842191 0.601892
0.280613 0.460090 0.730190
0.315526 0.470588 0.727901
0.408728 0.499886 0.715816
0.511650 0.530510 0.690425
0.640955 0.571405 0.667079
0.364599 0.504021 0.718837
0.381476 0.508324 0.715785
0.440314 0.524376 0.703456
0.521202 0.544121 0.679530
0.645991 0.585229 0.661952
0.485298 0.584344 0.691188
0.493568 0.586267 0.687800
0.523644 0.593835 0.678737
0.569665 0.601465 0.663416
0.696895 0.658442 0.670924
0.592187 0.668147 0.681666
0.595300 0.668025 0.679164
0.618036 0.677089 0.677516
0.681910 0.715297 0.694209
0.806790 0.766537 0.694697
0.832914 0.855711 0.807584
0.841398 0.859953 0.812436
0.852873 0.862882 0.806638
0.868193 0.860777 0.782193
0.902892 0.861662 0.749844
0.658656 0.730983 0.880400
0.664302 0.733181 0.879606
0.688075 0.743221 0.877104
0.726619 0.758724 0.871885
0.774655 0.776547 0.864103
0.673487 0.742550 0.877775
0.678492 0.744472 0.877165
0.698939 0.752590 0.874815
0.733547 0.765713 0.869871
0.778744 0.781765 0.862547
0.719478 0.779965 0.873716
0.722164 0.780545 0.872953
0.735622 0.784909 0.870756
0.760342 0.792538 0.866331
0.798245 0.804746 0.861051
0.781003 0.829557 0.870329
0.781979 0.829526 0.869902
0.788815 0.831266 0.869444
0.805600 0.836301 0.868315
0.835325 0.845212 0.864469
0.840391 0.877012 0.873899
0.841550 0.877379 0.873594
0.847929 0.879911 0.873136
0.859709 0.884154 0.871305
0.881163 0.892912 0.869657
