20 Preset/Scenery style2/【3】LUT video cho PR-AE-FCPX/Tone  (6).cube
# Created by Adobe Lightroom plugin Export LUT (1.24.0)
# www.johnrellis.com/lightroom/exportlut.htm
# Preset: 暗青风光-素材江湖08
# Color profile: C:\Program Files (x86)\Common Files\Adobe\Color\Profiles\Recommended\VideoHD.icc
LUT_3D_SIZE 8
DOMAIN_MIN 0.000000 0.000000 0.000000
DOMAIN_MAX 0.903226 0.903226 0.903226
0.000000 0.025849 0.105318
0.000000 0.025635 0.105318
0.106996 0.043458 0.103670
0.190066 0.081910 0.101656
0.313512 0.111330 0.095399
0.486732 0.157809 0.061982
0.631220 0.207584 0.000000
0.745113 0.258183 0.000000
0.006134 0.032715 0.104982
0.025483 0.038209 0.106325
0.103273 0.061250 0.107118
0.180514 0.091768 0.105806
0.298314 0.118837 0.100160
0.455848 0.160800 0.083742
0.597925 0.205936 0.026215
0.723354 0.256779 0.000000
0.097932 0.093416 0.113130
0.104585 0.095705 0.114321
0.133700 0.105531 0.118013
0.199832 0.129549 0.124697
0.326879 0.167025 0.118776
0.481727 0.213077 0.106325
0.632044 0.264530 0.084901
0.747219 0.310277 0.036072
0.185489 0.167575 0.131106
0.190066 0.168734 0.131502
0.215793 0.178744 0.134066
0.293706 0.215824 0.143465
0.405493 0.265476 0.163027
0.526909 0.307469 0.165591
0.645930 0.344884 0.157687
0.749020 0.379400 0.150698
0.316258 0.281895 0.151186
0.320989 0.283482 0.151644
0.344915 0.293431 0.155306
0.395148 0.315190 0.164920
0.460182 0.340093 0.180453
0.540124 0.373449 0.207553
0.635279 0.418585 0.240024
0.740993 0.455329 0.240024
0.451331 0.402533 0.184024
0.462928 0.411139 0.188693
0.478584 0.416602 0.193179
0.509270 0.427405 0.203647
0.552270 0.442267 0.220127
0.606439 0.462898 0.245701
0.673884 0.496010 0.285496
0.752285 0.542443 0.333898
0.585138 0.524193 0.235630
0.589227 0.526543 0.238010
0.597833 0.527825 0.242100
0.616419 0.532616 0.251804
0.641627 0.537987 0.265476
0.678279 0.550134 0.287724
0.721920 0.567163 0.316777
0.778378 0.594446 0.351141
0.712856 0.639338 0.294804
0.714382 0.639582 0.295659
0.722072 0.641962 0.300969
0.738125 0.648249 0.314061
0.742214 0.638117 0.314275
0.773556 0.651972 0.342260
0.810605 0.669520 0.375769
0.846616 0.685451 0.407935
0.000000 0.030549 0.116701
0.000000 0.026246 0.119142
0.099611 0.044953 0.114534
0.180697 0.085664 0.117433
0.298344 0.113344 0.116182
0.446967 0.152102 0.109041
0.582971 0.196170 0.091890
0.707301 0.245853 0.031922
0.000000 0.043519 0.116762
0.021424 0.052918 0.118349
0.104250 0.075074 0.119875
0.181491 0.097169 0.121279
0.297307 0.123995 0.119783
0.440894 0.161593 0.112551
0.570062 0.201450 0.097017
0.693843 0.248325 0.045045
0.097322 0.101137 0.129274
0.103700 0.103578 0.130495
0.131350 0.113008 0.134554
0.198459 0.136904 0.140871
0.314977 0.168704 0.136812
0.452979 0.207034 0.129091
0.586114 0.248447 0.117220
0.710872 0.294987 0.099825
0.176944 0.168490 0.145052
0.182162 0.170291 0.145693
0.207889 0.180819 0.148928
0.267369 0.206058 0.157259
0.358892 0.243748 0.172610
0.476265 0.282017 0.172366
0.598077 0.319219 0.164004
0.712490 0.358679 0.157687
0.308904 0.283055 0.167727
0.312078 0.283330 0.167849
0.332250 0.290043 0.170809
0.374487 0.305943 0.178408
0.432074 0.325628 0.190494
0.512322 0.359594 0.215000
0.612360 0.405646 0.242191
0.720180 0.442969 0.241764
0.436164 0.394873 0.197208
0.440253 0.396735 0.198276
0.456550 0.402808 0.202792
0.489296 0.415900 0.213260
0.534630 0.433295 0.229374
0.593408 0.458167 0.255711
0.661463 0.491188 0.292424
0.738918 0.535454 0.336339
0.569146 0.513878 0.241306
0.569421 0.512322 0.240482
0.577783 0.513603 0.243839
0.598505 0.520256 0.254063
0.628382 0.530083 0.270085
0.665278 0.542412 0.291295
0.706691 0.556817 0.316197
0.762020 0.582300 0.347143
0.699519 0.630030 0.295659
0.702968 0.632380 0.299016
0.710384 0.634302 0.303319
0.726925 0.640528 0.314611
0.749386 0.647578 0.329198
0.775784 0.654292 0.345037
0.808316 0.667018 0.373297
0.844114 0.682551 0.405158
0.000000 0.082185 0.195926
0.000000 0.079500 0.197971
0.000000 0.087831 0.201816
0.167575 0.126314 0.194247
0.312322 0.120302 0.174624
0.473854 0.180514 0.183810
0.607233 0.234531 0.184085
0.723507 0.285710 0.180056
0.000000 0.095430 0.193851
0.000000 0.095430 0.194675
0.032563 0.101717 0.197971
0.174502 0.140047 0.190951
0.316472 0.140658 0.178927
0.468025 0.191073 0.184360
0.594720 0.238865 0.183413
0.713161 0.287846 0.179110
0.028809 0.134859 0.191379
0.059876 0.138827 0.192142
0.124697 0.154940 0.195377
0.220096 0.174929 0.197269
0.347387 0.209110 0.201846
0.478889 0.246799 0.203372
0.602228 0.287053 0.203128
0.716609 0.329534 0.200717
0.178164 0.209323 0.205478
0.187076 0.214206 0.207309
0.217105 0.227298 0.214237
0.277714 0.252506 0.228305
0.374701 0.293858 0.249332
0.495338 0.327581 0.247410
0.613275 0.362432 0.246555
0.721096 0.397192 0.245182
0.310582 0.317723 0.235782
0.315190 0.319219 0.236790
0.336858 0.327214 0.241123
0.380774 0.345190 0.252171
0.439979 0.367254 0.267430
0.517144 0.399725 0.290990
0.615747 0.438819 0.306828
0.721309 0.473121 0.307408
0.433173 0.419104 0.264683
0.437659 0.421576 0.266148
0.452705 0.426795 0.270298
0.482368 0.437507 0.278904
0.525536 0.453590 0.293065
0.583032 0.478553 0.317235
0.652766 0.513725 0.351019
0.734066 0.560327 0.390539
0.567864 0.535149 0.307256
0.568627 0.534051 0.306401
0.575494 0.533623 0.307530
0.593744 0.538201 0.314519
0.621973 0.546654 0.326787
0.660029 0.560693 0.346441
0.705165 0.579309 0.371160
0.764920 0.608057 0.400000
0.693843 0.641657 0.346868
0.694514 0.640925 0.346471
0.701656 0.642664 0.349920
0.720699 0.651453 0.362219
0.743221 0.658412 0.374365
0.772427 0.667811 0.389899
0.807340 0.679683 0.408820
0.844846 0.692378 0.428626
0.000000 0.123690 0.327398
0.000000 0.124392 0.331273
0.000000 0.126406 0.333684
0.000000 0.149996 0.338293
0.266850 0.206699 0.336706
0.419501 0.274846 0.312016
0.573724 0.247318 0.281834
0.697902 0.318639 0.292851
0.000000 0.141451 0.330999
0.000000 0.142306 0.332036
0.000000 0.144991 0.333989
0.014954 0.167269 0.339178
0.279057 0.224308 0.338079
0.429572 0.272801 0.308904
0.575555 0.262882 0.286107
0.698939 0.327794 0.294774
0.000000 0.188876 0.323033
0.000000 0.192050 0.323705
0.000000 0.200290 0.325139
0.151858 0.217502 0.329931
0.312688 0.280583 0.332372
0.476722 0.272618 0.302617
0.609064 0.338018 0.319097
0.719997 0.380407 0.318242
0.085908 0.268406 0.321538
0.110384 0.271458 0.321843
0.174319 0.286351 0.324865
0.258152 0.314580 0.330724
0.377234 0.340337 0.334173
0.492500 0.370184 0.338048
0.606958 0.404211 0.342138
0.714382 0.438727 0.344182
0.291356 0.367651 0.341711
0.298039 0.368933 0.341466
0.327886 0.382574 0.345434
0.374975 0.403815 0.358373
0.434943 0.426947 0.373907
0.514916 0.461311 0.395819
0.618067 0.489082 0.395727
0.719783 0.516869 0.394629
0.433570 0.470130 0.368048
0.442634 0.477241 0.373602
0.455482 0.480293 0.375586
0.484413 0.490822 0.383429
0.525322 0.505333 0.394995
0.575097 0.523888 0.411383
0.644007 0.557122 0.437415
0.731838 0.596704 0.458137
0.557427 0.564843 0.394873
0.560510 0.566247 0.396124
0.570977 0.569635 0.399725
0.590936 0.576165 0.406897
0.618769 0.584649 0.416571
0.655024 0.596582 0.429938
0.698329 0.612573 0.446906
0.761654 0.641871 0.469642
0.689052 0.667750 0.426490
0.690547 0.667964 0.426764
0.697688 0.669520 0.429084
0.713130 0.674189 0.435157
0.735378 0.680476 0.443397
0.765011 0.689387 0.454810
0.801907 0.702083 0.469947
0.843229 0.716915 0.486946
0.000000 0.185550 0.468818
0.000000 0.187991 0.471229
0.000000 0.193423 0.471901
0.000000 0.204837 0.474922
0.123659 0.252628 0.481880
0.361486 0.313909 0.477089
0.502617 0.399786 0.456458
0.643549 0.422248 0.432532
0.000000 0.204532 0.470527
0.000000 0.207004 0.473243
0.000000 0.211795 0.473854
0.000000 0.220768 0.474006
0.151431 0.265568 0.481209
0.369879 0.324285 0.476387
0.505699 0.408057 0.455543
0.648066 0.420172 0.430030
0.000000 0.258640 0.466133
0.000000 0.260258 0.466377
0.000000 0.263645 0.466163
0.000000 0.275578 0.470008
0.218112 0.305516 0.470680
0.391485 0.352941 0.463874
0.512200 0.434089 0.446845
0.661341 0.405432 0.414588
0.000000 0.330327 0.459449
0.000000 0.333074 0.459510
0.000000 0.344976 0.460945
0.204135 0.361608 0.462928
0.307561 0.380346 0.464210
0.435157 0.426276 0.456336
0.570367 0.430121 0.430671
0.687373 0.456214 0.427619
0.213107 0.414099 0.449744
0.223972 0.416785 0.450233
0.263340 0.425269 0.450629
0.323796 0.441382 0.451301
0.393378 0.462043 0.451209
0.494850 0.482033 0.452430
0.598383 0.507073 0.454994
0.702632 0.534203 0.455970
0.362036 0.479408 0.440009
0.370306 0.481819 0.442603
0.394751 0.486519 0.446204
0.432105 0.499763 0.447791
0.480140 0.520409 0.458167
0.541741 0.550011 0.480201
0.620264 0.588922 0.505547
0.720333 0.617762 0.507439
0.525322 0.584436 0.472541
0.527123 0.584314 0.471138
0.537133 0.586358 0.469215
0.559319 0.594232 0.474647
0.591333 0.606104 0.484718
0.630243 0.619348 0.495705
0.675990 0.635492 0.508598
0.743893 0.663478 0.524712
0.654902 0.674311 0.483986
0.656428 0.674495 0.484077
0.663905 0.676081 0.485603
0.686000 0.686641 0.495277
0.711666 0.694942 0.503075
0.744533 0.705196 0.512383
0.783902 0.717891 0.523980
0.827268 0.731655 0.536492
0.000000 0.267857 0.587152
0.000000 0.270268 0.587976
0.000000 0.276432 0.586206
0.000000 0.294865 0.590051
0.000000 0.318120 0.591302
0.272313 0.370275 0.587579
0.452247 0.431434 0.583062
0.595880 0.510216 0.578759
0.000000 0.276646 0.579126
0.000000 0.278386 0.578973
0.000000 0.284031 0.578271
0.000000 0.299138 0.580743
0.000000 0.319310 0.581933
0.273198 0.369574 0.580041
0.449805 0.429755 0.576745
0.592065 0.508263 0.572930
0.000000 0.333471 0.581537
0.000000 0.334722 0.581476
0.000000 0.340887 0.582055
0.000000 0.347448 0.578698
0.054841 0.362585 0.578271
0.316564 0.403906 0.576593
0.472663 0.457832 0.574670
0.600885 0.531151 0.569390
0.000000 0.407660 0.578576
0.000000 0.408789 0.577417
0.000000 0.418036 0.576745
0.162966 0.431373 0.580102
0.277531 0.444099 0.580713
0.391577 0.470527 0.577966
0.520195 0.512902 0.576501
0.624994 0.576013 0.568322
0.171145 0.470100 0.560388
0.185061 0.471504 0.560082
0.233616 0.478126 0.559869
0.303655 0.491829 0.560479
0.372045 0.504875 0.560418
0.444648 0.518944 0.559350
0.549248 0.556420 0.555932
0.665614 0.569024 0.538720
0.336645 0.535607 0.545556
0.345006 0.539391 0.547387
0.365850 0.543481 0.546685
0.402777 0.552087 0.545892
0.451453 0.564538 0.544762
0.515496 0.586847 0.547784
0.613611 0.610864 0.553674
0.718685 0.634852 0.555596
0.480293 0.604730 0.549767
0.485023 0.607294 0.551415
0.496010 0.612879 0.551995
0.524468 0.623468 0.556970
0.563745 0.634607 0.556542
0.611231 0.653315 0.564111
0.663508 0.672297 0.576745
0.743526 0.705501 0.595087
0.617639 0.690944 0.567102
0.618891 0.690761 0.565911
0.628473 0.693874 0.564080
0.652125 0.703700 0.562707
0.680995 0.712062 0.562524
0.719905 0.725246 0.572412
0.766293 0.741299 0.585016
0.814939 0.756832 0.597620
0.000000 0.352483 0.672267
0.000000 0.355566 0.673243
0.000000 0.362737 0.672511
0.000000 0.377539 0.672419
0.000000 0.396582 0.670832
0.171695 0.419684 0.668605
0.384436 0.472053 0.663508
0.526360 0.524468 0.658778
0.000000 0.358801 0.666865
0.000000 0.362371 0.668025
0.000000 0.368536 0.667597
0.000000 0.380835 0.666560
0.000000 0.398413 0.664942
0.176974 0.418769 0.662196
0.380560 0.468025 0.656580
0.520623 0.518700 0.651667
0.000000 0.402258 0.666255
0.000000 0.403601 0.666163
0.000000 0.407721 0.664973
0.000000 0.417304 0.663722
0.000000 0.430579 0.661372
0.247288 0.448066 0.659510
0.409918 0.493782 0.656672
0.542260 0.543114 0.655146
0.000000 0.467231 0.663630
0.000000 0.466468 0.662531
0.000000 0.469001 0.660975
0.000000 0.476509 0.660395
0.228214 0.486549 0.658625
0.336736 0.501091 0.657984
0.456519 0.535943 0.656214
0.573022 0.576135 0.656001
0.145541 0.522240 0.651881
0.158297 0.521996 0.650813
0.206455 0.525444 0.649531
0.275578 0.534447 0.649531
0.341283 0.542535 0.648859
0.409613 0.551598 0.648188
0.498116 0.574304 0.647272
0.611688 0.612696 0.653040
0.326177 0.584741 0.640192
0.331426 0.585901 0.640314
0.351354 0.589441 0.640497
0.386786 0.596338 0.641108
0.434943 0.605921 0.641871
0.492561 0.618067 0.644312
0.559197 0.631586 0.644953
0.661402 0.665339 0.644892
0.446662 0.646601 0.633539
0.450538 0.647944 0.634058
0.462379 0.650568 0.633845
0.485847 0.656306 0.633875
0.520073 0.664302 0.633051
0.566491 0.676326 0.632227
0.627008 0.694270 0.632410
0.735317 0.718379 0.637964
0.559258 0.707515 0.636072
0.562646 0.707576 0.635737
0.577234 0.710964 0.636835
0.599268 0.718746 0.639643
0.627222 0.732662 0.640986
0.680354 0.745296 0.642451
0.741512 0.768978 0.653040
0.802701 0.790738 0.671260
0.000000 0.462501 0.767636
0.000000 0.464576 0.768032
0.000000 0.468757 0.766140
0.000000 0.480629 0.765469
0.000000 0.496468 0.763851
0.195346 0.514794 0.761318
0.360632 0.539666 0.759457
0.500084 0.581811 0.755184
0.000000 0.465980 0.763729
0.000000 0.468299 0.764248
0.000000 0.473152 0.763210
0.000000 0.483558 0.762234
0.000000 0.498573 0.760647
0.204715 0.516411 0.758328
0.361212 0.539086 0.755917
0.498543 0.580346 0.751400
0.000000 0.492164 0.760189
0.000000 0.493538 0.760220
0.000000 0.496712 0.758999
0.000000 0.508385 0.760067
0.000000 0.519768 0.757870
0.255985 0.533715 0.754849
0.382300 0.552667 0.753262
0.510704 0.591302 0.749630
0.000000 0.534173 0.755978
0.000000 0.535515 0.756252
0.000000 0.538293 0.755459
0.000000 0.545830 0.755337
0.210697 0.555657 0.754299
0.326665 0.567254 0.752651
0.420569 0.580041 0.752255
0.536034 0.614405 0.750027
0.010651 0.582452 0.750149
0.085817 0.583764 0.750668
0.155062 0.585199 0.750149
0.234318 0.590082 0.749996
0.311955 0.596216 0.748806
0.388128 0.603998 0.747738
0.464515 0.614008 0.748531
0.568475 0.644038 0.749599
0.298741 0.636347 0.742458
0.301671 0.635828 0.741787
0.315984 0.635523 0.740627
0.346899 0.637903 0.740749
0.393256 0.643580 0.743099
0.456367 0.653834 0.746883
0.526726 0.665949 0.751492
0.620020 0.691585 0.755337
0.423499 0.696986 0.737392
0.425544 0.697047 0.737148
0.435187 0.697658 0.736660
0.456519 0.700679 0.737301
0.489754 0.705989 0.738857
0.537072 0.714961 0.742794
0.601038 0.728634 0.750271
0.676234 0.741695 0.750454
0.540276 0.759884 0.738766
0.541924 0.760006 0.738460
0.550256 0.761624 0.738399
0.568658 0.766110 0.739254
0.596857 0.772671 0.739956
0.636286 0.781796 0.740352
0.690333 0.795285 0.741329
0.763943 0.815305 0.743313
