20 Preset/Scenery style2/【3】LUT video cho PR-AE-FCPX/Tone  (6).cube
# Created by Adobe Lightroom plugin Export LUT (1.24.0)
# www.johnrellis.com/lightroom/exportlut.htm
# Preset: 暗青风光-素材江湖08
# Color profile: C:\Program Files (x86)\Common Files\Adobe\Color\Profiles\Recommended\VideoHD.icc
LUT_3D_SIZE 5
DOMAIN_MIN 0.000000 0.000000 0.000000
DOMAIN_MAX 0.903226 0.903226 0.903226
0.000000 0.025849 0.105318
0.092164 0.035065 0.104311
0.248081 0.096498 0.099794
0.528283 0.170779 0.045167
0.745113 0.258183 0.000000
0.081300 0.081666 0.111116
0.111360 0.092775 0.114809
0.251682 0.133791 0.114992
0.522972 0.212619 0.093233
0.751980 0.300175 0.002777
0.246311 0.220981 0.140383
0.267918 0.228824 0.142397
0.386175 0.283055 0.160647
0.551995 0.352453 0.201083
0.742000 0.414191 0.192538
0.495308 0.442573 0.200381
0.508446 0.447333 0.205051
0.558892 0.464210 0.224949
0.637476 0.490791 0.264622
0.757961 0.555291 0.338140
0.712856 0.639338 0.294804
0.719356 0.641016 0.298985
0.729946 0.633326 0.303563
0.782712 0.656367 0.350622
0.846616 0.685451 0.407935
0.000000 0.070527 0.167971
0.000000 0.067659 0.174746
0.241337 0.101106 0.155337
0.494972 0.180606 0.158175
0.711543 0.267308 0.146059
0.025879 0.111391 0.167361
0.102846 0.125887 0.170779
0.264988 0.161563 0.172457
0.497993 0.227298 0.172549
0.714076 0.305333 0.165438
0.241367 0.247990 0.198337
0.262699 0.255558 0.201511
0.353857 0.291173 0.220218
0.521996 0.358862 0.251347
0.728298 0.431525 0.257786
0.487282 0.459785 0.266819
0.501213 0.465309 0.271885
0.550530 0.482124 0.288945
0.626215 0.507195 0.321111
0.748196 0.571130 0.383093
0.705318 0.647730 0.341650
0.711269 0.648768 0.344488
0.738857 0.657160 0.359991
0.787686 0.672419 0.387243
0.854185 0.697353 0.426337
0.000000 0.152529 0.401038
0.000000 0.156252 0.404028
0.000000 0.195743 0.410895
0.424720 0.326055 0.393866
0.680507 0.327916 0.345647
0.000000 0.209415 0.399786
0.000000 0.212161 0.399878
0.158358 0.246220 0.408545
0.438544 0.362188 0.388067
0.690364 0.373754 0.361425
0.145815 0.342535 0.388861
0.197024 0.351904 0.389166
0.326909 0.390723 0.393744
0.518669 0.433906 0.398810
0.708186 0.489418 0.405341
0.451026 0.508965 0.419318
0.461677 0.510887 0.417700
0.512566 0.530297 0.431983
0.593378 0.561395 0.457801
0.722438 0.617395 0.490578
0.669062 0.666743 0.451331
0.677363 0.669947 0.454780
0.708278 0.680354 0.466133
0.760616 0.696132 0.483162
0.830869 0.719051 0.506706
0.000000 0.281437 0.602472
0.000000 0.289097 0.603449
0.000000 0.318791 0.605829
0.293828 0.389197 0.602258
0.577173 0.502556 0.598230
0.000000 0.328038 0.598291
0.000000 0.332952 0.598230
0.000000 0.353094 0.597772
0.320317 0.409583 0.593439
0.581384 0.515862 0.591028
0.000000 0.437201 0.582269
0.000000 0.442451 0.580804
0.255711 0.461128 0.580163
0.411872 0.489113 0.576776
0.615717 0.580224 0.577111
0.372869 0.568688 0.570550
0.386511 0.569940 0.568597
0.445747 0.584222 0.567651
0.541955 0.612940 0.567895
0.717433 0.650385 0.571740
0.606134 0.696803 0.588495
0.614954 0.698390 0.586633
0.658564 0.715419 0.585229
0.728237 0.738766 0.594507
0.811856 0.764401 0.614679
0.000000 0.462501 0.767636
0.000000 0.467018 0.766567
0.000000 0.488167 0.764950
0.245487 0.520134 0.760983
0.500084 0.581811 0.755184
0.000000 0.484779 0.761929
0.000000 0.488960 0.761349
0.000000 0.506096 0.759701
0.280186 0.533318 0.756039
0.508873 0.589624 0.751736
0.000000 0.558373 0.753902
0.000000 0.559594 0.752529
0.209598 0.568841 0.750423
0.375189 0.584009 0.747189
0.549889 0.627008 0.748928
0.338048 0.654566 0.743862
0.349157 0.654414 0.742916
0.398688 0.658717 0.743282
0.490730 0.670436 0.747127
0.632227 0.702571 0.754269
0.540276 0.759884 0.738766
0.547417 0.760983 0.738338
0.581598 0.769192 0.739712
0.648310 0.784726 0.740536
0.763943 0.815305 0.743313
