20 Preset/Scenery style2/【3】LUT video cho PR-AE-FCPX/Tone  (6).cube
# Created by Adobe Lightroom plugin Export LUT (1.24.0)
# www.johnrellis.com/lightroom/exportlut.htm
# Preset: 暗青风光-素材江湖08
# Color profile: C:\Program Files (x86)\Common Files\Adobe\Color\Profiles\Recommended\VideoHD.icc
LUT_3D_SIZE 32
DOMAIN_MIN 0.0 0.0 0.0
DOMAIN_MAX 1.0 1.0 1.0
0.000000 0.025849 0.105318
0.000000 0.025849 0.105318
0.000000 0.025849 0.105318
0.000000 0.025849 0.105318
0.000000 0.025635 0.105318
0.029541 0.024445 0.105196
0.064302 0.028412 0.104829
0.092164 0.035065 0.104311
0.106996 0.043458 0.103670
0.124483 0.051820 0.102907
0.143374 0.061097 0.102327
0.165194 0.071901 0.102174
0.190066 0.081910 0.101656
0.217533 0.089906 0.101045
0.248081 0.096498 0.099794
0.280034 0.103761 0.098207
0.313512 0.111330 0.095399
0.347539 0.120363 0.092317
0.390600 0.130953 0.086366
0.441108 0.144289 0.076143
0.486732 0.157809 0.061982
0.528283 0.170779 0.045167
0.565240 0.183047 0.030365
0.599268 0.195926 0.013733
0.631220 0.207584 0.000000
0.660609 0.219974 0.000000
0.689113 0.232029 0.000000
0.717098 0.244755 0.000000
0.745113 0.258183 0.000000
0.774228 0.272770 0.000000
0.804837 0.288670 0.000000
0.836790 0.306035 0.000000
0.000000 0.025849 0.105318
0.000000 0.025849 0.105318
0.000000 0.025849 0.105318
0.000000 0.025849 0.105318
0.001160 0.025391 0.105318
0.030823 0.025422 0.105135
0.063600 0.029603 0.104768
0.090669 0.035523 0.104311
0.106020 0.042725 0.103731
0.122225 0.051728 0.102968
0.140719 0.061463 0.102388
0.162295 0.070527 0.102358
0.186435 0.080995 0.101900
0.213718 0.089235 0.101350
0.243015 0.095918 0.100221
0.274876 0.103273 0.098726
0.307958 0.111116 0.096010
0.342351 0.119234 0.093202
0.384070 0.130037 0.088228
0.432136 0.142672 0.079530
0.476570 0.155123 0.065034
0.516747 0.167422 0.050538
0.552728 0.179355 0.036561
0.586297 0.191592 0.020844
0.618036 0.203403 0.003937
0.648096 0.214939 0.000000
0.677241 0.226963 0.000000
0.705898 0.239628 0.000000
0.734615 0.252995 0.000000
0.764340 0.267369 0.000000
0.795346 0.283177 0.000000
0.827573 0.300603 0.000000
0.000000 0.025849 0.105318
0.000000 0.025849 0.105318
0.000000 0.025849 0.105318
0.000000 0.025849 0.105318
0.008392 0.025696 0.105257
0.034668 0.028382 0.105013
0.066163 0.031556 0.104677
0.090883 0.037690 0.104219
0.105013 0.045350 0.103639
0.120821 0.054597 0.103243
0.139498 0.064302 0.103029
0.160616 0.073823 0.102968
0.184329 0.082734 0.102602
0.211063 0.090608 0.102052
0.240482 0.096895 0.100984
0.271550 0.104372 0.099214
0.304356 0.112123 0.096956
0.338598 0.120180 0.093874
0.380591 0.131014 0.088930
0.427344 0.143160 0.081422
0.470802 0.155428 0.070100
0.510491 0.167758 0.056184
0.546349 0.179385 0.040681
0.579980 0.190677 0.025086
0.611536 0.202487 0.008759
0.641596 0.213840 0.000000
0.670863 0.226078 0.000000
0.699916 0.238560 0.000000
0.729030 0.251774 0.000000
0.758938 0.265934 0.000000
0.790066 0.281498 0.000000
0.822354 0.298772 0.000000
0.000000 0.025849 0.105318
0.000000 0.025849 0.105318
0.000000 0.025849 0.105318
0.000458 0.026612 0.105257
0.013519 0.029633 0.105074
0.036774 0.033722 0.105104
0.067536 0.038117 0.104738
0.090455 0.044465 0.104982
0.105165 0.051881 0.104768
0.120882 0.061128 0.104707
0.138735 0.071290 0.104524
0.159823 0.079194 0.104189
0.183017 0.087587 0.103761
0.209049 0.093782 0.103243
0.237552 0.099916 0.102205
0.268498 0.106935 0.100526
0.300267 0.114839 0.098451
0.333715 0.122713 0.095491
0.375189 0.133364 0.090822
0.418463 0.144778 0.086091
0.459724 0.155856 0.077729
0.498329 0.167391 0.064637
0.533989 0.178927 0.051179
0.568444 0.190494 0.035492
0.601831 0.202213 0.018524
0.634211 0.214115 0.000000
0.665583 0.226780 0.000000
0.696071 0.240055 0.000000
0.726162 0.253483 0.000000
0.756527 0.267460 0.000000
0.787320 0.282689 0.000000
0.818753 0.299260 0.000000
0.006134 0.032715 0.104982
0.007813 0.032471 0.105318
0.010376 0.034424 0.105226
0.016602 0.035950 0.105470
0.025483 0.038209 0.106325
0.040589 0.041962 0.107454
0.064118 0.048249 0.107729
0.088655 0.054810 0.107271
0.103273 0.061250 0.107118
0.119570 0.069306 0.106783
0.137270 0.079103 0.106600
0.157473 0.085695 0.106233
0.180514 0.091768 0.105806
0.206760 0.097566 0.104982
0.234897 0.104372 0.103944
0.265385 0.111666 0.102205
0.298314 0.118837 0.100160
0.331670 0.127321 0.097169
0.374273 0.138277 0.093568
0.415961 0.149569 0.089784
0.455848 0.160800 0.083742
0.493812 0.171725 0.072419
0.529351 0.182834 0.058198
0.564050 0.194461 0.043366
0.597925 0.205936 0.026215
0.630915 0.218112 0.008179
0.662470 0.230716 0.000000
0.693263 0.243442 0.000000
0.723354 0.256779 0.000000
0.753292 0.270451 0.000000
0.783841 0.285252 0.000000
0.815000 0.301091 0.000000
0.024598 0.044984 0.106752
0.025879 0.045960 0.106691
0.027863 0.045716 0.106691
0.033082 0.048432 0.107240
0.041962 0.050690 0.108095
0.055390 0.054688 0.108858
0.073762 0.059205 0.109865
0.089723 0.065248 0.111086
0.103853 0.074098 0.110536
0.120119 0.080659 0.109895
0.138094 0.087098 0.109712
0.158968 0.092012 0.109285
0.182132 0.097536 0.108461
0.207889 0.104036 0.107485
0.236423 0.111025 0.105989
0.267460 0.118379 0.104555
0.299565 0.126528 0.102296
0.336034 0.135683 0.099916
0.378424 0.146853 0.096864
0.419501 0.158114 0.093111
0.458930 0.168948 0.088289
0.496193 0.180148 0.080903
0.596124 0.216983 0.043763
0.629480 0.229496 0.028534
0.659998 0.241367 0.013397
0.688655 0.252995 0.000000
0.715755 0.264836 0.000000
0.742214 0.277043 0.000000
0.769039 0.289647 0.000000
0.796414 0.303319 0.000000
0.824277 0.317845 0.000000
0.852476 0.332921 0.000000
0.054353 0.064851 0.109133
0.054353 0.064851 0.109133
0.058595 0.066560 0.109346
0.062837 0.068299 0.109590
0.071717 0.070558 0.110414
0.083375 0.075532 0.111086
0.092134 0.079347 0.112093
0.101656 0.083650 0.113252
0.112886 0.088350 0.114900
0.128695 0.092378 0.115389
0.148043 0.097353 0.114687
0.170443 0.103517 0.113619
0.195132 0.109987 0.112459
0.222263 0.116945 0.111482
0.251499 0.124269 0.109682
0.282109 0.132021 0.107912
0.315343 0.140261 0.105928
0.358129 0.152102 0.103609
0.402869 0.164370 0.100038
0.445869 0.177035 0.095796
0.488533 0.189792 0.090700
0.530236 0.203281 0.083101
0.570825 0.217136 0.069276
0.609827 0.231327 0.051270
0.645411 0.244816 0.035157
0.676753 0.257664 0.018799
0.705470 0.269505 0.004486
0.732448 0.281102 0.000000
0.759243 0.293462 0.000000
0.786496 0.305913 0.000000
0.814115 0.319768 0.000000
0.842222 0.334630 0.000000
0.081300 0.081666 0.111116
0.081300 0.081666 0.111116
0.082734 0.082918 0.111330
0.086671 0.083864 0.111574
0.090394 0.086061 0.112032
0.095277 0.088350 0.112764
0.103334 0.089784 0.113710
0.111360 0.092775 0.114809
0.122164 0.095796 0.116396
0.134859 0.100069 0.118013
0.150118 0.105043 0.119966
0.171511 0.111666 0.118837
0.196017 0.118410 0.117678
0.222965 0.125826 0.115999
0.251682 0.133791 0.114992
0.282750 0.141817 0.113436
0.318914 0.151858 0.111788
0.360693 0.163821 0.109377
0.401709 0.175357 0.106355
0.441901 0.187503 0.102449
0.482734 0.199680 0.097749
0.522972 0.212619 0.093233
0.562799 0.226078 0.086641
0.601190 0.239750 0.075410
0.636805 0.253056 0.059083
0.668544 0.265446 0.043915
0.697536 0.277073 0.030457
0.724910 0.288273 0.015595
0.751980 0.300175 0.002777
0.779202 0.312505 0.000000
0.806912 0.325780 0.000000
0.835264 0.339910 0.000000
0.097932 0.093416 0.113130
0.098512 0.093355 0.113466
0.099611 0.093629 0.113405
0.101259 0.094575 0.113893
0.104585 0.095705 0.114321
0.109529 0.097322 0.114961
0.115541 0.099153 0.115877
0.123781 0.101869 0.116884
0.133700 0.105531 0.118013
0.145907 0.109773 0.119539
0.160616 0.115206 0.121340
0.178042 0.121736 0.123262
0.199832 0.129549 0.124697
0.226902 0.137362 0.123476
0.255802 0.145815 0.122286
0.288212 0.155032 0.120607
0.326879 0.167025 0.118776
0.365362 0.178378 0.116854
0.404242 0.189334 0.113527
0.442695 0.201083 0.110231
0.481727 0.213077 0.106325
0.520684 0.225498 0.102022
0.559228 0.238499 0.097505
0.596674 0.251926 0.092592
0.632044 0.264530 0.084901
0.663722 0.276524 0.075685
0.692714 0.287724 0.062135
0.720211 0.298802 0.048798
0.747219 0.310277 0.036072
0.774533 0.321965 0.022187
0.802152 0.334997 0.007935
0.830289 0.348577 0.000000
0.114992 0.104891 0.115816
0.114900 0.104891 0.116121
0.115602 0.105470 0.116030
0.117525 0.106203 0.116518
0.120699 0.107118 0.116945
0.124605 0.108888 0.117556
0.130251 0.110933 0.118318
0.137850 0.113863 0.119234
0.147036 0.117220 0.120577
0.158328 0.121920 0.122194
0.172152 0.126833 0.123568
0.189395 0.133547 0.126101
0.208896 0.141238 0.128969
0.230625 0.149783 0.131563
0.261479 0.159823 0.130678
0.297734 0.171908 0.129366
0.335241 0.183230 0.127474
0.372473 0.194919 0.125063
0.409918 0.206424 0.122713
0.447364 0.217777 0.119570
0.484138 0.229252 0.116426
0.520348 0.240360 0.112490
0.555627 0.252049 0.108705
0.590265 0.263737 0.104555
0.623499 0.275029 0.099336
0.654078 0.286351 0.094942
0.683101 0.297337 0.090394
0.711238 0.308019 0.084108
0.739010 0.319127 0.075471
0.766873 0.331426 0.063630
0.795377 0.344182 0.050629
0.824338 0.358068 0.039002
0.131807 0.119661 0.120607
0.132235 0.119600 0.120607
0.132937 0.120333 0.121065
0.134646 0.120974 0.120943
0.137423 0.122255 0.121279
0.141756 0.123842 0.121798
0.147433 0.126497 0.122652
0.154849 0.129580 0.123690
0.163973 0.133181 0.124544
0.175235 0.137636 0.125948
0.188418 0.142733 0.127657
0.204074 0.148653 0.129274
0.223301 0.156252 0.131807
0.248051 0.166415 0.135103
0.275822 0.177951 0.138491
0.307469 0.189975 0.139895
0.343084 0.201572 0.137850
0.378698 0.212924 0.135744
0.414740 0.223819 0.133028
0.450294 0.234714 0.130159
0.485176 0.245670 0.127382
0.519951 0.256626 0.124361
0.554437 0.267765 0.121035
0.588006 0.279271 0.117678
0.620600 0.290410 0.114046
0.651087 0.301030 0.110506
0.680079 0.311437 0.107179
0.708064 0.321965 0.103853
0.735653 0.332921 0.100801
0.763668 0.344610 0.097597
0.792050 0.357275 0.093477
0.821073 0.370550 0.089570
0.152529 0.138582 0.125399
0.152895 0.138521 0.125399
0.153567 0.139132 0.125277
0.155428 0.139803 0.125643
0.158785 0.141146 0.126162
0.162997 0.143038 0.126528
0.168704 0.145541 0.127291
0.176120 0.148531 0.127871
0.185336 0.152499 0.129000
0.196536 0.156954 0.130159
0.209720 0.162051 0.131563
0.226200 0.168490 0.133455
0.274784 0.195804 0.139742
0.304112 0.209079 0.143832
0.334417 0.222629 0.148867
0.365148 0.235966 0.153811
0.395605 0.249302 0.159609
0.431525 0.260899 0.157168
0.466255 0.272099 0.154910
0.500725 0.282444 0.152010
0.533867 0.292729 0.149691
0.565728 0.302708 0.147524
0.596765 0.312413 0.145022
0.626673 0.322148 0.143252
0.654658 0.331304 0.141329
0.681300 0.339910 0.139193
0.706233 0.348241 0.137026
0.730892 0.356420 0.134585
0.755520 0.365728 0.132570
0.781094 0.375616 0.130465
0.807187 0.386481 0.128145
0.834409 0.398474 0.125948
0.185489 0.167575 0.131106
0.185489 0.167575 0.131106
0.186007 0.167514 0.131350
0.187625 0.168185 0.131411
0.190066 0.168734 0.131502
0.193820 0.170138 0.132113
0.199374 0.171969 0.132570
0.206729 0.174960 0.133181
0.215793 0.178744 0.134066
0.228275 0.184146 0.135378
0.247135 0.193484 0.137575
0.269047 0.204257 0.140200
0.293706 0.215824 0.143465
0.320073 0.227604 0.147189
0.348760 0.240574 0.151644
0.377478 0.253391 0.157290
0.405493 0.265476 0.163027
0.432990 0.277470 0.169406
0.463416 0.288487 0.170901
0.495613 0.298009 0.168246
0.526909 0.307469 0.165591
0.557763 0.317174 0.163577
0.588220 0.326665 0.161624
0.617884 0.335851 0.159243
0.645930 0.344884 0.157687
0.672816 0.353338 0.155734
0.698451 0.361913 0.154391
0.723598 0.370245 0.152438
0.749020 0.379400 0.150698
0.775113 0.389532 0.149386
0.801663 0.400366 0.148226
0.829160 0.412299 0.146761
0.211154 0.190372 0.135439
0.211185 0.190372 0.135195
0.211826 0.190280 0.135439
0.213046 0.190433 0.135348
0.215396 0.190982 0.135622
0.218753 0.192294 0.135927
0.225528 0.195407 0.136629
0.234134 0.199435 0.137514
0.245487 0.204868 0.138827
0.259342 0.211460 0.140352
0.276036 0.219608 0.142336
0.295872 0.229038 0.144717
0.318120 0.239445 0.147890
0.341558 0.250095 0.151614
0.365515 0.260349 0.155550
0.391089 0.271366 0.160678
0.416693 0.282383 0.166171
0.442084 0.293248 0.172702
0.467414 0.304601 0.179812
0.493019 0.315679 0.186130
0.523339 0.324681 0.183566
0.553857 0.333928 0.181491
0.583856 0.343389 0.179660
0.613123 0.352605 0.177615
0.641138 0.361303 0.176059
0.667811 0.370062 0.174838
0.693751 0.378149 0.172946
0.719020 0.386542 0.171603
0.744442 0.395605 0.170687
0.770565 0.405615 0.170138
0.797452 0.416449 0.169558
0.825193 0.428321 0.168795
0.246311 0.220981 0.140383
0.246494 0.220951 0.140383
0.247166 0.220981 0.140352
0.248447 0.221408 0.140658
0.250950 0.222049 0.140597
0.254795 0.223423 0.140993
0.260197 0.225620 0.141543
0.267918 0.228824 0.142397
0.277836 0.233402 0.143587
0.290318 0.239109 0.144961
0.305547 0.246433 0.147127
0.323461 0.254826 0.149691
0.343359 0.264286 0.153017
0.364599 0.273899 0.156466
0.386175 0.283055 0.160647
0.407233 0.291447 0.164920
0.429633 0.300572 0.170077
0.453315 0.310704 0.176608
0.476875 0.320806 0.183352
0.500389 0.331456 0.191165
0.524132 0.342626 0.199435
0.551995 0.352453 0.201083
0.581353 0.361395 0.198825
0.609796 0.370428 0.197299
0.637263 0.379034 0.195743
0.663966 0.387396 0.194614
0.689906 0.395941 0.193576
0.715877 0.404425 0.192569
0.742000 0.414191 0.192538
0.769223 0.424689 0.192538
0.797238 0.436255 0.193088
0.825956 0.449165 0.194583
0.282444 0.252476 0.145510
0.282841 0.252720 0.145632
0.283391 0.252720 0.145815
0.284947 0.253239 0.145815
0.287572 0.253971 0.146120
0.291478 0.255497 0.146548
0.297124 0.257847 0.147494
0.304631 0.261234 0.148226
0.314244 0.265599 0.149538
0.325689 0.270909 0.151461
0.339147 0.276921 0.153506
0.354192 0.283482 0.155947
0.370642 0.290654 0.158724
0.387945 0.298009 0.162509
0.405859 0.304967 0.165713
0.423987 0.311955 0.169924
0.442603 0.318517 0.174289
0.462989 0.326513 0.179904
0.485328 0.336217 0.186770
0.507774 0.346441 0.194369
0.531212 0.357092 0.202823
0.554894 0.368933 0.212253
0.580194 0.380591 0.219852
0.608453 0.389807 0.218570
0.636194 0.398596 0.217563
0.662928 0.407477 0.216892
0.689082 0.416114 0.216251
0.715023 0.424964 0.215824
0.741421 0.434363 0.215824
0.768185 0.444739 0.216159
0.795682 0.455787 0.216495
0.823667 0.467994 0.217990
0.316258 0.281895 0.151186
0.316411 0.282048 0.151125
0.317052 0.282231 0.151247
0.318547 0.282719 0.151431
0.320989 0.283482 0.151644
0.324590 0.284764 0.152255
0.329808 0.286992 0.152865
0.336461 0.289799 0.153811
0.344915 0.293431 0.155306
0.355138 0.297887 0.156985
0.366949 0.303014 0.159396
0.380407 0.308995 0.161837
0.395148 0.315190 0.164920
0.410712 0.321599 0.168215
0.426917 0.327947 0.172000
0.443305 0.334142 0.176059
0.460182 0.340093 0.180453
0.477516 0.346258 0.185092
0.496620 0.353704 0.191470
0.517876 0.363104 0.199191
0.540124 0.373449 0.207553
0.563165 0.384710 0.216922
0.586114 0.396582 0.226902
0.609125 0.408728 0.237888
0.635279 0.418585 0.240024
0.661860 0.427558 0.239780
0.688106 0.436439 0.239628
0.714321 0.445655 0.239811
0.740993 0.455329 0.240024
0.767910 0.465705 0.240635
0.795407 0.477058 0.241764
0.823667 0.488991 0.243076
0.351751 0.313634 0.157992
0.352209 0.313939 0.158267
0.378058 0.336584 0.165438
0.379339 0.336950 0.165591
0.381598 0.337560 0.165927
0.384894 0.338720 0.166567
0.389258 0.340093 0.167605
0.395178 0.342168 0.168612
0.402777 0.345251 0.170352
0.412055 0.349157 0.172457
0.422766 0.353704 0.175051
0.434668 0.358526 0.178317
0.446998 0.363256 0.181613
0.460060 0.367956 0.185183
0.473274 0.372290 0.188693
0.486702 0.376501 0.192874
0.500084 0.380285 0.196841
0.513909 0.384070 0.201328
0.528283 0.388251 0.206088
0.544427 0.393805 0.212161
0.563836 0.402258 0.220462
0.584283 0.411688 0.229557
0.604883 0.421759 0.239139
0.625238 0.432319 0.249668
0.645228 0.443061 0.260655
0.666621 0.452735 0.267613
0.690883 0.460090 0.266178
0.715541 0.468238 0.265721
0.741207 0.477180 0.265446
0.767636 0.487251 0.266178
0.794980 0.498268 0.267185
0.822873 0.510002 0.268467
0.393683 0.350958 0.168612
0.396216 0.353063 0.169253
0.399359 0.355688 0.170504
0.402869 0.358038 0.171298
0.406531 0.360174 0.172335
0.410132 0.361669 0.173068
0.414282 0.363104 0.174319
0.419226 0.364813 0.175174
0.425849 0.367041 0.176761
0.433783 0.370092 0.178866
0.442939 0.373999 0.181308
0.453468 0.377996 0.184329
0.464485 0.381964 0.187350
0.476204 0.386297 0.191165
0.488411 0.390356 0.194705
0.500816 0.394263 0.198734
0.513787 0.398260 0.202945
0.527123 0.402258 0.207614
0.541375 0.406653 0.212650
0.556054 0.411719 0.218479
0.572137 0.417273 0.224949
0.591608 0.426673 0.234165
0.611414 0.436439 0.243992
0.631098 0.446357 0.254215
0.650324 0.456428 0.264775
0.669520 0.466957 0.275914
0.688838 0.477974 0.287144
0.712886 0.486519 0.288243
0.738216 0.495430 0.287999
0.764736 0.505303 0.288396
0.791897 0.516411 0.289860
0.820127 0.528222 0.291142
0.421820 0.376135 0.175845
0.424323 0.378485 0.176913
0.427619 0.380987 0.177859
0.431128 0.383520 0.178927
0.434730 0.385748 0.180240
0.438270 0.387366 0.181308
0.441962 0.388556 0.182345
0.446540 0.389807 0.183108
0.452125 0.391852 0.185092
0.458869 0.394141 0.186679
0.467079 0.397284 0.189181
0.476356 0.400610 0.192050
0.486336 0.404334 0.195346
0.497078 0.408057 0.198917
0.508110 0.411841 0.202579
0.519738 0.415625 0.206485
0.531670 0.419318 0.210910
0.544213 0.422919 0.215274
0.557183 0.427131 0.220462
0.570855 0.431586 0.225986
0.584833 0.436378 0.232425
0.599664 0.441993 0.239658
0.618860 0.451392 0.249363
0.637842 0.460945 0.259678
0.656428 0.470588 0.270054
0.675013 0.480446 0.280522
0.693935 0.490944 0.291508
0.713588 0.502525 0.303441
0.736019 0.513848 0.310918
0.762325 0.523674 0.311315
0.789395 0.534752 0.312596
0.817441 0.546471 0.314000
0.451331 0.402533 0.184024
0.453559 0.404669 0.184878
0.456489 0.406989 0.186221
0.459693 0.409155 0.187442
0.462928 0.411139 0.188693
0.466102 0.412543 0.189425
0.469490 0.413458 0.190463
0.473518 0.414801 0.191592
0.478584 0.416602 0.193179
0.484810 0.418616 0.195285
0.492012 0.421118 0.197696
0.500237 0.424262 0.200381
0.509270 0.427405 0.203647
0.519005 0.430732 0.206943
0.529381 0.434455 0.211246
0.540459 0.438056 0.215152
0.552270 0.442267 0.220127
0.564752 0.446632 0.225467
0.577935 0.451484 0.231571
0.592004 0.457069 0.238163
0.606439 0.462898 0.245701
0.621210 0.469123 0.253941
0.635920 0.475380 0.262577
0.654932 0.485634 0.273930
0.673884 0.496010 0.285496
0.692714 0.506554 0.297093
0.711879 0.517510 0.308568
0.731624 0.529290 0.320623
0.752285 0.542443 0.333898
0.773892 0.556695 0.347570
0.800748 0.568170 0.349950
0.828641 0.580041 0.351659
0.495308 0.442573 0.200381
0.496223 0.443549 0.200870
0.497505 0.444343 0.201450
0.498787 0.444984 0.201938
0.500511 0.445533 0.202518
0.502434 0.445869 0.203372
0.504997 0.446479 0.204166
0.508446 0.447333 0.205051
0.512993 0.448554 0.206668
0.518669 0.450599 0.208499
0.525353 0.452918 0.211032
0.532921 0.455695 0.214176
0.541039 0.458442 0.217685
0.549615 0.461341 0.220920
0.558892 0.464210 0.224949
0.568566 0.467323 0.228946
0.578851 0.470436 0.233738
0.589502 0.473976 0.238926
0.600855 0.477699 0.244663
0.612573 0.481819 0.250645
0.624872 0.486122 0.257267
0.637476 0.490791 0.264622
0.650202 0.495674 0.272313
0.662867 0.500603 0.280095
0.680323 0.509728 0.290745
0.698878 0.519951 0.301793
0.717861 0.530755 0.313268
0.737514 0.542504 0.325383
0.757961 0.555291 0.338140
0.779355 0.569055 0.351537
0.801389 0.584009 0.365728
0.826566 0.597711 0.373724
0.524712 0.469245 0.210819
0.525475 0.469978 0.211124
0.526604 0.470741 0.211734
0.527977 0.471321 0.212314
0.529503 0.471839 0.213016
0.531365 0.472145 0.213535
0.533745 0.472755 0.214511
0.536919 0.473487 0.215366
0.541070 0.474739 0.217075
0.546075 0.476417 0.219150
0.552087 0.478401 0.221836
0.558709 0.480751 0.224887
0.566094 0.483162 0.228122
0.574090 0.485847 0.231724
0.582635 0.488716 0.236210
0.591577 0.491646 0.240513
0.601160 0.494759 0.245426
0.611139 0.497993 0.250706
0.621668 0.501640 0.256443
0.632654 0.505486 0.262821
0.644099 0.509697 0.269657
0.655818 0.514214 0.276982
0.667933 0.518944 0.284703
0.680262 0.523796 0.292515
0.686244 0.521996 0.294163
0.702937 0.530663 0.304173
0.721767 0.541344 0.315648
0.741146 0.552789 0.327428
0.761501 0.565179 0.339544
0.782742 0.578759 0.352697
0.804990 0.593530 0.366674
0.827909 0.609247 0.381079
0.561669 0.503105 0.227085
0.562951 0.504356 0.228336
0.563867 0.504997 0.228702
0.564508 0.504997 0.229007
0.564996 0.504631 0.229129
0.565698 0.503960 0.229007
0.566613 0.503105 0.228946
0.568231 0.502647 0.229129
0.570611 0.502495 0.230076
0.573999 0.502678 0.231357
0.578058 0.503258 0.233005
0.583185 0.504326 0.235355
0.588952 0.505638 0.237858
0.595117 0.507073 0.240574
0.601923 0.508476 0.243961
0.609125 0.510155 0.247349
0.617090 0.512169 0.251591
0.625818 0.514763 0.256443
0.635431 0.517845 0.261997
0.645930 0.521691 0.268345
0.656977 0.525994 0.275425
0.668391 0.530388 0.282506
0.679713 0.534752 0.289860
0.690883 0.538842 0.296849
0.701869 0.542687 0.303685
0.712703 0.546532 0.310857
0.728267 0.554192 0.319677
0.746731 0.564599 0.330480
0.766323 0.576013 0.341802
0.786893 0.588708 0.353887
0.808591 0.602716 0.367010
0.831449 0.618006 0.381018
0.585138 0.524193 0.235630
0.586328 0.525261 0.236545
0.587366 0.525963 0.237156
0.588251 0.526360 0.237613
0.589227 0.526543 0.238010
0.590539 0.526543 0.238895
0.592340 0.526665 0.239261
0.594690 0.527092 0.240238
0.597833 0.527825 0.242100
0.601648 0.528801 0.243870
0.606012 0.529839 0.246006
0.610986 0.531273 0.249027
0.616419 0.532616 0.251804
0.622217 0.533867 0.254765
0.628199 0.534997 0.257664
0.634638 0.536309 0.261326
0.641627 0.537987 0.265476
0.649500 0.539940 0.269535
0.658289 0.542687 0.274968
0.667903 0.546166 0.281041
0.678279 0.550134 0.287724
0.689021 0.554406 0.295048
0.700008 0.558740 0.302098
0.710964 0.562982 0.309575
0.721920 0.567163 0.316777
0.732784 0.571252 0.323766
0.743740 0.575372 0.331121
0.758999 0.583185 0.340124
0.778378 0.594446 0.351141
0.798611 0.606683 0.362768
0.819974 0.620203 0.375463
0.842283 0.635798 0.390753
0.614679 0.550958 0.248753
0.615259 0.551598 0.249485
0.615869 0.551873 0.249851
0.616541 0.552026 0.250248
0.617243 0.551965 0.250645
0.618189 0.551904 0.251011
0.619745 0.551843 0.251438
0.621668 0.552056 0.252323
0.624323 0.552392 0.253727
0.627588 0.553063 0.255406
0.631464 0.553948 0.257755
0.635950 0.555077 0.260410
0.640955 0.556359 0.263035
0.646265 0.557458 0.266026
0.651881 0.558434 0.269108
0.657771 0.559594 0.272282
0.664240 0.560967 0.275944
0.671504 0.562768 0.280186
0.679622 0.565423 0.285496
0.688685 0.568444 0.291051
0.698421 0.572198 0.297612
0.708583 0.576135 0.304631
0.718837 0.580133 0.311437
0.729213 0.584039 0.318303
0.739498 0.587854 0.325139
0.749783 0.591485 0.331640
0.760159 0.595331 0.338598
0.770626 0.599268 0.345586
0.785306 0.606622 0.354376
0.805447 0.618585 0.365545
0.826749 0.631952 0.377813
0.848173 0.649622 0.398962
0.640833 0.574426 0.259251
0.641321 0.574823 0.259739
0.641932 0.575219 0.260136
0.642786 0.575647 0.260655
0.643885 0.575982 0.261418
0.645655 0.576715 0.262699
0.648432 0.578180 0.264775
0.651972 0.579980 0.267277
0.656397 0.582422 0.270603
0.661524 0.585138 0.274449
0.667353 0.588220 0.278904
0.673518 0.591333 0.283635
0.679927 0.594354 0.288273
0.686366 0.596948 0.292851
0.692805 0.599298 0.297185
0.698970 0.600916 0.300847
0.705409 0.602533 0.304784
0.712337 0.604425 0.309117
0.719997 0.606958 0.314244
0.728573 0.609949 0.319829
0.737636 0.613367 0.325933
0.747097 0.617090 0.332494
0.756680 0.620661 0.339025
0.766293 0.624170 0.345647
0.775845 0.627649 0.351965
0.785458 0.630976 0.358282
0.795224 0.634363 0.364660
0.805051 0.637964 0.371191
0.815244 0.641901 0.377966
0.829252 0.648951 0.386633
0.849302 0.663813 0.403723
0.870207 0.680934 0.424537
0.682887 0.613275 0.284489
0.682979 0.613336 0.284459
0.683070 0.613336 0.284459
0.683436 0.613184 0.284489
0.684077 0.613092 0.284733
0.685023 0.613153 0.285435
0.686549 0.613336 0.286168
0.688563 0.613886 0.287358
0.691279 0.614710 0.289128
0.694636 0.615869 0.291600
0.698512 0.617121 0.294133
0.703029 0.618647 0.297154
0.707881 0.620264 0.300298
0.713069 0.621881 0.303899
