20 Preset/Scenery style2/【3】LUT video cho PR-AE-FCPX/Tone  (9).cube
# Created by Adobe Lightroom plugin Export LUT (1.24.0)
# www.johnrellis.com/lightroom/exportlut.htm
# Preset: 暗青风光-素材江湖01
# Color profile: C:\Program Files (x86)\Common Files\Adobe\Color\Profiles\Recommended\VideoHD.icc
LUT_3D_SIZE 5
DOMAIN_MIN 0.000000 0.000000 0.000000
DOMAIN_MAX 0.903226 0.903226 0.903226
0.076997 0.118929 0.133852
0.192477 0.150149 0.157259
0.694697 0.220371 0.124788
0.997589 0.397436 0.163149
1.000000 0.552911 0.342107
0.115297 0.214969 0.167727
0.221592 0.228824 0.149264
0.668605 0.309728 0.080995
0.981659 0.438453 0.133364
1.000000 0.577508 0.345251
0.483589 0.615229 0.352911
0.573327 0.610559 0.379889
0.766873 0.637324 0.243412
0.951171 0.620996 0.293736
1.000000 0.661860 0.409918
0.766476 0.821714 0.642908
0.791623 0.822721 0.654444
0.854185 0.831357 0.651392
0.927276 0.818784 0.563256
1.000000 0.794919 0.557214
0.872770 0.901946 0.778531
0.880186 0.901579 0.782101
0.902190 0.896757 0.786343
0.935454 0.903441 0.761837
0.976959 0.885985 0.690669
0.042145 0.151247 0.211673
0.164187 0.132662 0.223331
0.546654 0.252049 0.261234
0.907439 0.458778 0.371679
1.000000 0.604639 0.477058
0.023621 0.192752 0.211887
0.154452 0.209537 0.226017
0.536767 0.320562 0.276066
0.898466 0.490944 0.377050
1.000000 0.625055 0.487709
0.377264 0.549218 0.395331
0.476112 0.557061 0.421881
0.658930 0.579614 0.373358
0.885740 0.617548 0.428626
1.000000 0.700343 0.535851
0.749844 0.813016 0.663355
0.776059 0.815579 0.675105
0.840299 0.825254 0.685481
0.907469 0.817685 0.622065
0.988495 0.806058 0.622065
0.870420 0.901671 0.789212
0.877470 0.901244 0.792233
0.902922 0.900572 0.806180
0.931975 0.905180 0.787503
0.968780 0.891295 0.733150
0.000000 0.196658 0.506279
0.143740 0.190890 0.509178
0.482399 0.149874 0.497475
0.841581 0.372259 0.538170
0.956023 0.711635 0.685084
0.155520 0.311131 0.466865
0.218296 0.300725 0.470283
0.463355 0.277653 0.480018
0.819883 0.485512 0.559838
0.947601 0.738827 0.701167
0.000000 0.481117 0.483803
0.237125 0.491646 0.491463
0.548211 0.562921 0.555016
0.789609 0.667720 0.630121
0.945800 0.766842 0.705745
0.654200 0.781247 0.676692
0.690822 0.779019 0.689448
0.792477 0.800717 0.733333
0.858640 0.811093 0.718471
0.947143 0.824887 0.731319
0.851896 0.898466 0.807736
0.860899 0.898894 0.812070
0.889616 0.899870 0.826444
0.919005 0.903380 0.828489
0.949462 0.896880 0.797299
0.300023 0.381048 0.730037
0.360723 0.380285 0.732082
0.543328 0.357763 0.737819
0.790921 0.362829 0.727657
0.949645 0.564965 0.734890
0.404852 0.481453 0.712398
0.433265 0.475196 0.713558
0.554223 0.446174 0.718654
0.765866 0.436164 0.710964
0.936950 0.603571 0.733516
0.526818 0.615625 0.679561
0.540612 0.615259 0.678401
0.591363 0.610040 0.686213
0.722225 0.593744 0.688106
0.917937 0.731807 0.756893
0.506188 0.729824 0.705531
0.530877 0.727901 0.703883
0.629480 0.737423 0.712490
0.795773 0.785122 0.759457
0.913634 0.843931 0.809445
0.758236 0.897246 0.797879
0.775387 0.897002 0.802701
0.845090 0.897246 0.832425
0.905760 0.903136 0.865263
0.930388 0.903532 0.854795
0.597986 0.605249 0.853788
0.611658 0.601465 0.854093
0.675257 0.589960 0.858061
0.794400 0.553613 0.864103
0.942870 0.577234 0.859098
0.621149 0.639948 0.845029
0.632563 0.636744 0.845792
0.684169 0.623774 0.849729
0.790036 0.588464 0.855985
0.933318 0.602411 0.853300
0.689876 0.731868 0.830320
0.692378 0.727474 0.830045
0.716487 0.715114 0.833005
0.784634 0.686061 0.839078
0.912413 0.691310 0.845426
0.722957 0.798032 0.830808
0.731380 0.797757 0.829099
0.770596 0.803952 0.827237
0.809842 0.803769 0.839048
0.899962 0.806241 0.851865
0.695949 0.880461 0.853422
0.707729 0.879667 0.852873
0.758022 0.879637 0.854002
0.827420 0.880583 0.856687
0.908354 0.898497 0.879484
