20 Preset/Scenery style2/【3】LUT video cho PR-AE-FCPX/Tone  (9).cube
# Created by Adobe Lightroom plugin Export LUT (1.24.0)
# www.johnrellis.com/lightroom/exportlut.htm
# Preset: 暗青风光-素材江湖01
# Color profile: C:\Program Files (x86)\Common Files\Adobe\Color\Profiles\Recommended\VideoHD.icc
LUT_3D_SIZE 8
DOMAIN_MIN 0.000000 0.000000 0.000000
DOMAIN_MAX 0.903226 0.903226 0.903226
0.076997 0.118929 0.133852
0.095521 0.125429 0.139620
0.244205 0.156893 0.156344
0.544213 0.189364 0.137758
0.802884 0.259586 0.115053
0.970245 0.368566 0.142153
1.000000 0.468971 0.233799
1.000000 0.552911 0.342107
0.080964 0.137697 0.145876
0.100313 0.140719 0.147494
0.226963 0.170626 0.154543
0.500725 0.209812 0.134768
0.771023 0.273228 0.106538
0.941863 0.362158 0.119844
1.000000 0.451484 0.200931
1.000000 0.538811 0.314488
0.145998 0.252171 0.170840
0.186099 0.252018 0.177279
0.289708 0.273960 0.134585
0.542321 0.315892 0.085176
0.785702 0.367102 0.000000
0.945495 0.433631 0.111238
1.000000 0.515953 0.239628
1.000000 0.582635 0.344549
0.341375 0.486122 0.249424
0.381506 0.488655 0.259373
0.502464 0.519707 0.249027
0.663752 0.548516 0.137850
0.840696 0.553460 0.158968
0.944121 0.559838 0.232639
1.000000 0.597498 0.317388
1.000000 0.637476 0.393774
0.580621 0.688960 0.449195
0.599054 0.688533 0.455421
0.670649 0.692714 0.489326
0.751369 0.717220 0.440925
0.829740 0.699214 0.339208
0.923308 0.680629 0.332494
0.987671 0.681575 0.386542
1.000000 0.692409 0.436439
0.729824 0.795529 0.603937
0.746212 0.801266 0.615930
0.778347 0.802609 0.630213
0.819883 0.808621 0.631830
0.865446 0.815915 0.591882
0.914061 0.801450 0.530419
0.971557 0.786801 0.518578
1.000000 0.778988 0.539635
0.821622 0.863096 0.707301
0.826688 0.863859 0.710719
0.841642 0.863340 0.717128
0.867948 0.863584 0.731411
0.890654 0.867460 0.710994
0.921416 0.868925 0.679286
0.955016 0.855650 0.631891
0.992798 0.837308 0.605493
0.872770 0.901946 0.778531
0.874662 0.901823 0.779355
0.882963 0.901488 0.783658
0.897734 0.901213 0.792508
0.910063 0.897978 0.783871
0.929229 0.902281 0.767208
0.951019 0.900359 0.740566
0.976959 0.885985 0.690669
0.079713 0.129244 0.151339
0.094423 0.126040 0.152804
0.208652 0.153964 0.164157
0.451728 0.198184 0.162997
0.744900 0.266697 0.154299
0.920500 0.359411 0.180545
1.000000 0.451026 0.246159
1.000000 0.533806 0.329351
0.055146 0.136690 0.153048
0.094820 0.139895 0.155276
0.196536 0.171328 0.170260
0.443977 0.215915 0.164157
0.734066 0.284367 0.155001
0.909667 0.368200 0.179904
1.000000 0.449073 0.236973
1.000000 0.527306 0.314702
0.122103 0.225956 0.194736
0.152773 0.227726 0.199924
0.231357 0.242557 0.181765
0.464240 0.293645 0.170413
0.728878 0.359167 0.166537
0.899992 0.427558 0.202640
0.998535 0.500694 0.272618
1.000000 0.572259 0.356634
0.286320 0.437415 0.267247
0.322423 0.439979 0.274937
0.434180 0.466438 0.278599
0.570275 0.486030 0.204288
0.762081 0.504479 0.205478
0.889036 0.522362 0.249577
0.982574 0.569635 0.316442
1.000000 0.620844 0.390417
0.552667 0.670375 0.452552
0.568994 0.668635 0.456062
0.637659 0.670405 0.483192
0.714076 0.688991 0.439551
0.790188 0.669703 0.346410
0.894652 0.659846 0.346258
0.969329 0.668879 0.396735
1.000000 0.685451 0.443671
0.709316 0.782132 0.596612
0.718868 0.782925 0.600671
0.754086 0.785489 0.616052
0.801419 0.793851 0.624048
0.850278 0.804135 0.589227
0.902068 0.793942 0.538811
0.962219 0.782498 0.529534
1.000000 0.775937 0.546410
0.810178 0.855894 0.699153
0.812955 0.854917 0.699062
0.828672 0.854429 0.705409
0.857786 0.855863 0.721767
0.883787 0.861784 0.707393
0.915404 0.863951 0.676783
0.948943 0.850156 0.628199
0.988403 0.832334 0.601068
0.867582 0.899199 0.773617
0.870420 0.899565 0.775906
0.878843 0.899199 0.780087
0.894377 0.899168 0.789425
0.911101 0.899779 0.793362
0.928435 0.902770 0.774258
0.949371 0.900237 0.745571
0.974914 0.886259 0.697780
0.000000 0.156039 0.243687
0.061036 0.149172 0.250706
0.192905 0.135988 0.251560
0.405585 0.135317 0.258793
0.680934 0.323949 0.328649
0.868254 0.472053 0.419501
0.966339 0.572442 0.487587
1.000000 0.642817 0.539330
0.070130 0.169802 0.232944
0.097566 0.167941 0.234897
0.174014 0.164370 0.236057
0.384710 0.181247 0.251560
0.663478 0.346624 0.333196
0.855344 0.469184 0.410040
0.959655 0.562615 0.472206
1.000000 0.635096 0.526696
0.000000 0.217899 0.237339
0.069825 0.222385 0.240696
0.190616 0.244236 0.259648
0.381292 0.301213 0.289952
0.674983 0.412512 0.354528
0.853513 0.510307 0.422553
0.955108 0.591669 0.484291
1.000000 0.655116 0.536736
0.182681 0.412299 0.326360
0.243565 0.417914 0.342321
0.376959 0.440925 0.380499
0.499031 0.467109 0.354589
0.706722 0.522759 0.391974
0.848173 0.575280 0.443671
0.946807 0.640314 0.505791
1.000000 0.688777 0.553094
0.503960 0.646540 0.499550
0.523705 0.647761 0.505425
0.596185 0.655695 0.532464
0.678798 0.676783 0.536248
0.752834 0.672663 0.490028
0.857786 0.680842 0.500847
0.936278 0.700557 0.532769
0.993591 0.726558 0.567559
0.688411 0.771847 0.622980
0.698634 0.773495 0.627314
0.733181 0.776761 0.640833
0.783963 0.784329 0.659602
0.828733 0.795987 0.634485
0.877531 0.791440 0.605158
0.939757 0.791257 0.608148
0.985260 0.792966 0.623072
0.806485 0.855802 0.721767
0.809293 0.855100 0.721981
0.823453 0.854185 0.726467
0.850767 0.855314 0.739803
0.876646 0.860197 0.734951
0.906584 0.864500 0.713039
0.937987 0.855589 0.681971
0.975402 0.844266 0.667781
0.865629 0.899443 0.786465
0.867216 0.899107 0.786618
0.875425 0.898833 0.790463
0.891600 0.899596 0.800961
0.908934 0.899748 0.808957
0.924743 0.903288 0.794705
0.944030 0.902129 0.772396
0.966674 0.890440 0.735470
0.000000 0.173312 0.411322
0.000000 0.168368 0.419715
0.192477 0.157534 0.420050
0.365301 0.143374 0.404211
0.615656 0.159304 0.436500
0.838712 0.358709 0.470253
0.908873 0.619898 0.600793
0.969757 0.701411 0.651789
0.000000 0.209232 0.397223
0.001434 0.207523 0.399023
0.198337 0.196231 0.402838
0.358038 0.183108 0.396704
0.620844 0.220645 0.440497
0.826688 0.415442 0.490761
0.900755 0.637476 0.610071
0.968475 0.702907 0.651331
0.139254 0.283055 0.363867
0.158358 0.284886 0.365515
0.212680 0.282933 0.375555
0.349859 0.280827 0.390448
0.627680 0.375921 0.455818
0.792233 0.587854 0.576104
0.905852 0.675593 0.635004
0.968994 0.727626 0.669001
0.000000 0.387793 0.399512
0.000000 0.390143 0.401038
0.229007 0.413031 0.418616
0.437324 0.464607 0.464942
0.623621 0.532891 0.510948
0.781949 0.618463 0.576013
0.895933 0.689143 0.627680
0.964630 0.739651 0.665797
0.337102 0.628168 0.507286
0.378729 0.626947 0.516136
0.517632 0.630884 0.562829
0.637201 0.660029 0.610101
0.701839 0.669154 0.592187
0.810941 0.698329 0.614252
0.897642 0.729976 0.640253
0.961791 0.768002 0.674922
0.658015 0.763424 0.657313
0.675715 0.769924 0.666651
0.709804 0.773342 0.677394
0.767330 0.784146 0.702144
0.811826 0.796689 0.700130
0.851316 0.794339 0.680476
0.913085 0.804074 0.690486
0.960601 0.813230 0.703761
0.791836 0.852476 0.744350
0.796780 0.853178 0.746731
0.814237 0.854826 0.754299
0.843137 0.858183 0.768460
0.871885 0.862852 0.778256
0.896574 0.867796 0.762448
0.922667 0.861509 0.741634
0.957549 0.856931 0.736751
0.863645 0.901488 0.808072
0.865507 0.901396 0.808743
0.873320 0.901213 0.812070
0.887602 0.901274 0.819181
0.905028 0.901274 0.828702
0.919310 0.903929 0.822385
0.936339 0.904601 0.807065
0.955077 0.896544 0.783871
0.000000 0.234897 0.588830
0.000000 0.235538 0.591974
0.226352 0.228031 0.592554
0.408179 0.196414 0.596338
0.603540 0.184909 0.588281
0.774136 0.290532 0.589593
0.904723 0.488441 0.617609
0.969665 0.654536 0.676722
0.016175 0.280613 0.580102
0.130922 0.280949 0.584039
0.256321 0.271122 0.586175
0.410224 0.239078 0.588128
0.597986 0.231876 0.583246
0.767330 0.327001 0.589624
0.899931 0.511833 0.622339
0.963775 0.670588 0.684321
0.246464 0.385107 0.552483
0.258366 0.383337 0.553887
0.309697 0.374731 0.558923
0.415839 0.351995 0.566735
0.568719 0.341680 0.560906
0.735378 0.423163 0.582483
0.881376 0.578393 0.633722
0.941192 0.719600 0.707027
0.300725 0.469642 0.547173
0.320043 0.471778 0.546197
0.389654 0.486244 0.547601
0.453712 0.491463 0.564691
0.578363 0.494209 0.574914
0.742916 0.586572 0.619226
0.856748 0.710445 0.693233
0.928649 0.770748 0.735286
0.225315 0.571252 0.563287
0.259251 0.573449 0.565057
0.359319 0.581445 0.571496
0.494179 0.605249 0.591424
0.635309 0.640955 0.626581
0.747005 0.682124 0.654353
0.858305 0.742336 0.699580
0.931212 0.788083 0.736202
0.485695 0.720607 0.621393
0.501610 0.721584 0.624384
0.553765 0.722683 0.633173
0.664790 0.731380 0.672999
0.754482 0.759548 0.710964
0.806424 0.774258 0.709194
0.880980 0.800381 0.732113
0.935668 0.818997 0.749294
0.728206 0.839750 0.736141
0.734737 0.838834 0.738338
0.763821 0.838041 0.751003
0.805539 0.844907 0.768612
0.850736 0.854368 0.792142
0.879088 0.862364 0.790555
0.903349 0.859373 0.776638
0.939574 0.860502 0.776852
0.840330 0.897215 0.811429
0.842618 0.897154 0.812131
0.852445 0.897124 0.815671
0.873045 0.899260 0.826841
0.894224 0.900420 0.837858
0.912108 0.902525 0.844205
0.927550 0.904997 0.833036
0.943755 0.899321 0.816770
0.265934 0.360296 0.715328
0.288670 0.361334 0.716518
0.356298 0.354467 0.715450
0.475135 0.346471 0.721279
0.621515 0.311254 0.725277
0.769894 0.339879 0.711574
0.879698 0.458076 0.707729
0.960418 0.596063 0.727230
0.294591 0.386481 0.701198
0.309209 0.384985 0.701259
0.366644 0.378271 0.702083
0.468452 0.364477 0.706203
0.606531 0.329656 0.710719
0.753902 0.353460 0.699825
0.867643 0.464454 0.700130
0.954467 0.599237 0.723018
0.414954 0.498512 0.692439
0.420874 0.496437 0.692500
0.450629 0.489418 0.694392
0.504234 0.465949 0.692988
0.609491 0.436072 0.697383
0.737240 0.448188 0.690120
0.851011 0.534600 0.701747
0.944518 0.649409 0.731777
0.506554 0.592889 0.680446
0.510307 0.591913 0.679377
0.533410 0.594293 0.680568
0.569909 0.591058 0.689387
0.635279 0.574304 0.696254
0.731838 0.575189 0.693721
0.841245 0.630518 0.715541
0.934386 0.730251 0.756252
0.500786 0.630976 0.671260
0.509392 0.631708 0.670710
0.543206 0.636469 0.670314
0.598779 0.649958 0.674006
0.640345 0.652613 0.684901
0.719661 0.654047 0.691035
0.842130 0.722530 0.731411
0.913237 0.805753 0.786984
0.459663 0.696101 0.675196
0.475135 0.699184 0.677943
0.512932 0.700771 0.679408
0.574029 0.706905 0.684718
0.658442 0.723903 0.699062
0.770809 0.761807 0.736965
0.854154 0.800137 0.767849
0.917815 0.838041 0.801266
0.621271 0.827268 0.735866
0.632715 0.828580 0.738521
0.666438 0.829648 0.743740
0.723842 0.833371 0.756374
0.805997 0.841642 0.789761
0.864836 0.859464 0.820768
0.887877 0.861326 0.811917
0.925231 0.869657 0.819425
0.772671 0.898131 0.795560
0.775540 0.897673 0.795987
0.797238 0.896483 0.804623
0.837156 0.896208 0.824033
0.874205 0.897887 0.842771
0.902342 0.901457 0.858213
0.919188 0.905669 0.858152
0.932891 0.902739 0.847959
0.454231 0.489631 0.793881
0.466529 0.492134 0.795529
0.497932 0.487861 0.795926
0.560937 0.481025 0.798611
0.648310 0.461280 0.801236
0.761990 0.430854 0.803098
0.869749 0.471962 0.791714
0.940703 0.558007 0.782895
0.459480 0.500755 0.783566
0.471870 0.503929 0.785763
0.500389 0.499245 0.786587
0.555200 0.488106 0.788266
0.637720 0.466346 0.790738
0.747219 0.431495 0.791684
0.854154 0.463905 0.779141
0.928985 0.545708 0.771237
0.533013 0.580255 0.777249
0.537224 0.579217 0.777523
0.552941 0.572229 0.777401
0.590295 0.560693 0.779019
0.651575 0.538842 0.780636
0.745602 0.508507 0.783749
0.846616 0.533928 0.777279
0.924834 0.603815 0.779171
0.606500 0.661982 0.770108
0.606104 0.659144 0.769039
0.612360 0.652583 0.768368
0.635554 0.645106 0.771115
0.676387 0.629206 0.773556
0.750271 0.607813 0.779263
0.837705 0.618738 0.776486
0.913695 0.671229 0.785214
0.636744 0.704646 0.755459
0.637507 0.702998 0.753597
0.645136 0.701564 0.753017
0.665553 0.702876 0.756466
0.688716 0.693507 0.760372
0.738979 0.675807 0.765469
0.817594 0.678889 0.766384
0.901610 0.731624 0.790188
0.617151 0.738003 0.759792
0.622675 0.738705 0.759976
0.643000 0.740749 0.759945
0.678706 0.745571 0.760769
0.724697 0.754849 0.763302
0.761715 0.759457 0.774868
0.825589 0.763577 0.782650
0.905516 0.817472 0.816312
0.593011 0.802579 0.773465
0.600366 0.803494 0.774441
0.621332 0.803067 0.774258
0.660517 0.803799 0.775418
0.713222 0.807004 0.779110
0.774441 0.816831 0.788663
0.859251 0.846769 0.821988
0.909453 0.870573 0.843565
0.684108 0.891447 0.809445
0.691035 0.891478 0.810300
0.720607 0.892210 0.814878
0.764279 0.892180 0.821286
0.816068 0.893004 0.832212
0.872679 0.896788 0.855100
0.911528 0.905150 0.878813
0.923552 0.905608 0.872618
0.597986 0.605249 0.853788
0.603540 0.605982 0.854582
0.616815 0.600031 0.854185
0.651331 0.594659 0.856535
0.702968 0.582483 0.859434
0.773190 0.560174 0.862852
0.863066 0.545556 0.865537
0.942870 0.577234 0.859098
0.598932 0.610498 0.848875
0.604608 0.611444 0.849760
0.618982 0.607172 0.850248
0.650660 0.600366 0.852262
0.700465 0.587823 0.855253
0.769314 0.565454 0.858762
0.857481 0.547143 0.860990
0.937469 0.575158 0.854246
0.627771 0.650263 0.842313
0.631006 0.649775 0.842710
0.641108 0.644739 0.842893
0.671839 0.642939 0.847196
0.711238 0.628717 0.849393
0.769711 0.605646 0.852110
0.851652 0.586572 0.855467
0.929137 0.607630 0.850217
0.668208 0.704585 0.834104
0.671077 0.704768 0.834806
0.678035 0.701106 0.835447
0.697017 0.696559 0.838315
0.727718 0.686427 0.841703
0.775479 0.668971 0.845731
0.846769 0.650141 0.850889
0.919066 0.664973 0.847929
0.701137 0.750637 0.826230
0.704372 0.751705 0.827054
0.710719 0.750484 0.827146
0.724025 0.748409 0.829404
0.742123 0.739345 0.832303
0.776669 0.725521 0.836637
0.837583 0.708400 0.844236
0.907591 0.723384 0.845579
0.717464 0.785122 0.824491
0.718715 0.784451 0.823514
0.727504 0.784115 0.821225
0.747189 0.787106 0.820401
0.766354 0.789181 0.825986
0.794705 0.789303 0.835843
0.842466 0.785641 0.847562
0.903105 0.794308 0.852537
0.714931 0.827176 0.839841
0.717617 0.827115 0.839567
0.729610 0.827237 0.838865
0.754635 0.829618 0.839170
0.789303 0.834592 0.840665
0.829801 0.844602 0.845029
0.852689 0.844785 0.851041
0.895140 0.843931 0.854673
0.695949 0.880461 0.853422
0.698665 0.880095 0.853117
0.712520 0.879576 0.852873
0.740536 0.879637 0.853574
0.776333 0.879454 0.854246
0.816373 0.879942 0.855711
0.859617 0.884001 0.860868
0.908354 0.898497 0.879484
