20 Preset/Scenery style2/【3】LUT video cho PR-AE-FCPX/Tone  (3).cube
# Created by Adobe Lightroom plugin Export LUT (1.24.0)
# www.johnrellis.com/lightroom/exportlut.htm
# Preset: 暗青风光-素材江湖05
# Color profile: C:\Program Files (x86)\Common Files\Adobe\Color\Profiles\Recommended\VideoHD.icc
LUT_3D_SIZE 8
DOMAIN_MIN 0.000000 0.000000 0.000000
DOMAIN_MAX 0.903226 0.903226 0.903226
0.063966 0.104799 0.114015
0.070558 0.105531 0.115084
0.121920 0.135439 0.133425
0.193118 0.170687 0.134737
0.319127 0.224094 0.113771
0.502373 0.309728 0.006378
0.695552 0.415839 0.000000
0.832578 0.506126 0.000000
0.083833 0.118166 0.123537
0.092164 0.124178 0.128817
0.128511 0.144778 0.135897
0.196139 0.177035 0.134859
0.316411 0.228305 0.113741
0.490761 0.309606 0.014252
0.673518 0.407752 0.000000
0.817838 0.499489 0.000000
0.135012 0.170138 0.149111
0.140200 0.172641 0.149233
0.162203 0.182742 0.149996
0.220432 0.209140 0.144930
0.346258 0.263890 0.116243
0.533379 0.354528 0.000000
0.713405 0.451972 0.000000
0.843168 0.535088 0.000000
0.248203 0.261082 0.153536
0.251743 0.262119 0.152895
0.272160 0.269871 0.150759
0.332799 0.299565 0.147707
0.425177 0.344640 0.145357
0.577020 0.421180 0.090669
0.725826 0.500237 0.000000
0.849699 0.574640 0.000000
0.447181 0.419745 0.156741
0.451392 0.420844 0.153140
0.469795 0.427924 0.150698
0.508110 0.444282 0.149660
0.555871 0.461830 0.149264
0.620478 0.489143 0.154208
0.721889 0.544060 0.155856
0.844419 0.619928 0.157321
0.645136 0.584009 0.201053
0.653956 0.590082 0.204471
0.662440 0.591608 0.206516
0.679133 0.595270 0.211368
0.702693 0.600336 0.219150
0.735073 0.609766 0.233005
0.785367 0.635096 0.266972
0.852995 0.683314 0.332128
0.791775 0.721370 0.360082
0.793973 0.722621 0.362280
0.797543 0.722286 0.362951
0.806027 0.723323 0.366857
0.817685 0.723995 0.371344
0.836118 0.728878 0.384009
0.858732 0.737026 0.403265
0.891386 0.758358 0.446509
0.890318 0.830961 0.559136
0.890806 0.830961 0.559319
0.893370 0.831601 0.561425
0.898833 0.833341 0.566705
0.899748 0.827329 0.557244
0.911223 0.831754 0.569726
0.925017 0.837705 0.586481
0.938720 0.843168 0.603479
0.074495 0.123049 0.144991
0.077546 0.120302 0.142397
0.116854 0.135775 0.138277
0.188235 0.171847 0.135409
0.307836 0.223606 0.115724
0.477333 0.301610 0.029572
0.657862 0.397101 0.000000
0.803830 0.487587 0.000000
0.079561 0.126253 0.141268
0.088045 0.127535 0.139681
0.123415 0.146487 0.143801
0.196933 0.179873 0.134981
0.314549 0.230808 0.113893
0.480232 0.307927 0.022309
0.651057 0.397620 0.000000
0.795377 0.485573 0.000000
0.125307 0.168063 0.162264
0.130190 0.170352 0.161868
0.153445 0.179690 0.158328
0.216373 0.207248 0.145724
0.336706 0.260288 0.119448
0.507225 0.341955 0.003540
0.677852 0.431128 0.000000
0.815976 0.515679 0.000000
0.221164 0.247196 0.178988
0.226444 0.249088 0.176944
0.252476 0.259525 0.168215
0.310491 0.283635 0.147982
0.389044 0.320531 0.146090
0.532647 0.392401 0.102480
0.688197 0.474067 0.000000
0.822629 0.552911 0.000000
0.421881 0.406683 0.197696
0.424994 0.406806 0.194278
0.444800 0.412940 0.181399
0.486427 0.427649 0.153140
0.530205 0.441993 0.147738
0.597681 0.471656 0.149905
0.704189 0.529656 0.146212
0.829892 0.606317 0.138918
0.623682 0.571923 0.238529
0.626917 0.572839 0.235996
0.639796 0.575738 0.223026
0.664332 0.581781 0.199893
0.690242 0.588861 0.208743
0.726101 0.601312 0.224735
0.776974 0.626917 0.257633
0.845274 0.674342 0.319158
0.782040 0.711421 0.345098
0.781704 0.710109 0.343389
0.785153 0.709560 0.343786
0.795041 0.711818 0.349248
0.809903 0.715480 0.358282
0.828824 0.720668 0.371008
0.850553 0.727169 0.387243
0.883635 0.747982 0.428443
0.885527 0.825528 0.548241
0.886870 0.826444 0.550317
0.889342 0.826902 0.552026
0.895048 0.828885 0.557702
0.902770 0.830930 0.564477
0.912078 0.832792 0.571801
0.924285 0.836698 0.584344
0.938018 0.842039 0.600977
0.000000 0.150759 0.241764
0.003021 0.150912 0.239200
0.102632 0.159579 0.220432
0.153628 0.175875 0.204044
0.266789 0.220829 0.188510
0.455756 0.307652 0.166445
0.668482 0.413519 0.000000
0.818692 0.503258 0.000000
0.057160 0.162661 0.225834
0.079561 0.164065 0.222568
0.111666 0.168673 0.213291
0.163241 0.188632 0.209812
0.269352 0.228275 0.192416
0.454566 0.312505 0.168551
0.662287 0.413581 0.000000
0.812284 0.502159 0.000000
0.114229 0.187839 0.214420
0.119326 0.190249 0.214725
0.142611 0.205875 0.223636
0.193179 0.219150 0.213809
0.308690 0.266758 0.204868
0.493050 0.350072 0.166934
0.684443 0.442847 0.000000
0.823636 0.524651 0.000000
0.197574 0.255497 0.245945
0.202976 0.258183 0.245914
0.221225 0.264805 0.243259
0.263157 0.280522 0.237949
0.357244 0.323217 0.230747
0.525383 0.402899 0.192844
0.699611 0.486854 0.000000
0.832670 0.563409 0.000000
0.380011 0.401038 0.299596
0.383978 0.402167 0.298039
0.402716 0.408698 0.292393
0.443000 0.423896 0.281407
0.500603 0.442817 0.258518
0.586450 0.476936 0.226139
0.711666 0.535821 0.150301
0.835630 0.611963 0.147372
0.590265 0.569726 0.362463
0.594049 0.571252 0.361517
0.605768 0.573907 0.354192
0.629297 0.579248 0.338872
0.664363 0.586786 0.312596
0.713405 0.599237 0.274235
0.777188 0.626429 0.257267
0.848753 0.677333 0.322057
0.765530 0.718135 0.455299
0.765988 0.717037 0.451453
0.770626 0.715175 0.439216
0.783566 0.715236 0.419623
0.804776 0.716487 0.388678
0.830045 0.721065 0.371954
0.853971 0.730404 0.392676
0.888884 0.754238 0.439521
0.885832 0.825742 0.548730
0.885954 0.825345 0.548089
0.888304 0.825650 0.549615
0.895018 0.828733 0.557427
0.902678 0.830686 0.564050
0.912963 0.833677 0.573693
0.925505 0.838071 0.587335
0.939239 0.843442 0.604181
0.000000 0.192172 0.397070
0.000000 0.196445 0.394537
0.000000 0.207279 0.373724
0.150912 0.220706 0.344762
0.229526 0.233341 0.313573
0.393133 0.316106 0.332494
0.597559 0.410376 0.296544
0.771084 0.513542 0.272404
0.000000 0.212833 0.381567
0.000000 0.214817 0.377966
0.056641 0.221256 0.362585
0.163424 0.231205 0.340703
0.239811 0.245518 0.317205
0.404639 0.324498 0.331121
0.599664 0.418616 0.301366
0.772091 0.518456 0.274235
0.111330 0.247898 0.348516
0.122621 0.249241 0.345647
0.153201 0.253300 0.337163
0.195254 0.260990 0.328923
0.287053 0.298161 0.336706
0.457435 0.369604 0.326329
0.633417 0.468208 0.333257
0.794034 0.552117 0.291234
0.195987 0.300114 0.342840
0.201846 0.301854 0.342473
0.227237 0.314214 0.346380
0.293309 0.359533 0.375830
0.361395 0.371313 0.353216
0.490822 0.428779 0.352209
0.654963 0.509117 0.342168
0.810971 0.584222 0.284001
0.366979 0.438331 0.419135
0.376440 0.441749 0.422248
0.394690 0.447425 0.420356
0.419165 0.453132 0.411414
0.457496 0.460761 0.397589
0.535760 0.491463 0.388006
0.681422 0.564630 0.379034
0.824887 0.632898 0.325841
0.568963 0.591547 0.498268
0.576196 0.596887 0.502342
0.582696 0.596460 0.495766
0.600488 0.599786 0.486915
0.628595 0.604852 0.472419
0.668391 0.612757 0.451881
0.741329 0.641321 0.431281
0.846220 0.689723 0.389349
0.739010 0.728145 0.577325
0.740902 0.728786 0.576837
0.746975 0.729763 0.572564
0.759243 0.731685 0.563500
0.777890 0.733547 0.546746
0.804532 0.736446 0.521477
0.839536 0.740414 0.484169
0.893553 0.759152 0.448676
0.873869 0.835843 0.636255
0.874601 0.835691 0.634730
0.878111 0.835355 0.628748
0.885893 0.835386 0.617548
0.897948 0.834897 0.598169
0.913909 0.834867 0.576135
0.926787 0.839506 0.590448
0.941192 0.845853 0.609674
0.000000 0.283848 0.576287
0.000000 0.288334 0.575372
0.000000 0.299504 0.563928
0.182742 0.316655 0.544884
0.289372 0.337713 0.523247
0.376196 0.350896 0.491371
0.501854 0.418219 0.479744
0.707942 0.560021 0.526574
0.000000 0.305394 0.568261
0.000000 0.308934 0.568078
0.069551 0.316960 0.558404
0.205936 0.328527 0.538964
0.299168 0.347387 0.520165
0.382513 0.359258 0.490669
0.514977 0.434607 0.487831
0.712642 0.565026 0.525017
0.168643 0.352850 0.542809
0.178683 0.354009 0.541314
0.213565 0.358221 0.534386
0.265934 0.366461 0.522362
0.325383 0.375738 0.504204
0.400427 0.385748 0.483467
0.560357 0.495766 0.516381
0.727810 0.580133 0.511162
0.279484 0.408942 0.521660
0.284428 0.409857 0.519890
0.305821 0.415351 0.514977
0.338872 0.424323 0.508263
0.382422 0.435248 0.502190
0.469703 0.469581 0.504143
0.622126 0.549248 0.516381
0.752682 0.621881 0.518334
0.364111 0.469642 0.511040
0.368658 0.471534 0.511131
0.385687 0.478492 0.510979
0.421424 0.496834 0.516075
0.487709 0.540490 0.540185
0.547082 0.550896 0.520531
0.653254 0.599023 0.523705
0.783413 0.663386 0.522576
0.477424 0.581292 0.546715
0.490242 0.585351 0.551843
0.533379 0.598169 0.568688
0.573327 0.615076 0.580652
0.587304 0.613153 0.565362
0.619593 0.620813 0.556298
0.688136 0.649470 0.551995
0.811063 0.713039 0.551507
0.718685 0.739651 0.663752
0.718441 0.738552 0.661341
0.721218 0.737331 0.654261
0.730648 0.738705 0.647425
0.745937 0.740810 0.637812
0.767453 0.742824 0.622553
0.798001 0.747127 0.602472
0.857786 0.768338 0.577996
0.849943 0.840208 0.716426
0.850431 0.839994 0.715206
0.853086 0.839506 0.710689
0.861936 0.842100 0.706874
0.872892 0.842496 0.694697
0.888884 0.842985 0.676112
0.910613 0.843626 0.649836
0.937499 0.843534 0.612421
0.223362 0.429114 0.709407
0.237583 0.432593 0.708888
0.276646 0.440131 0.702663
0.345556 0.461646 0.697536
0.412055 0.481239 0.685145
0.475807 0.498024 0.667292
0.543969 0.513909 0.648096
0.639399 0.559014 0.635859
0.249454 0.437018 0.699519
0.257969 0.438788 0.698268
0.292943 0.447059 0.694331
0.347784 0.462074 0.687312
0.409216 0.479255 0.675563
0.472023 0.496010 0.659419
0.540185 0.512108 0.641810
0.637079 0.559106 0.631586
0.352605 0.491615 0.693355
0.356756 0.492348 0.692226
0.375036 0.496712 0.688624
0.401282 0.499825 0.678126
0.443885 0.509972 0.666773
0.494331 0.522057 0.652827
0.556909 0.536492 0.639704
0.654078 0.589288 0.637232
0.438331 0.547753 0.679896
0.440528 0.547662 0.678035
0.454383 0.551751 0.673823
0.478676 0.560204 0.671260
0.506645 0.566735 0.663447
0.540429 0.572442 0.652064
0.595697 0.584619 0.645716
0.703243 0.654688 0.663386
0.495460 0.587762 0.657313
0.497292 0.588128 0.656489
0.505913 0.590600 0.653925
0.523369 0.596704 0.650813
0.544335 0.602716 0.646326
0.572045 0.609308 0.641474
0.634577 0.633234 0.644678
0.764187 0.711360 0.674708
0.547845 0.628992 0.647333
0.552056 0.631617 0.648768
0.558862 0.633845 0.647486
0.573022 0.639460 0.646509
0.597040 0.651209 0.648310
0.647578 0.684565 0.666743
0.708888 0.705776 0.662379
0.803586 0.750942 0.669368
0.609522 0.711513 0.676997
0.612970 0.714137 0.678157
0.639612 0.725917 0.684718
0.695430 0.748714 0.706294
0.750851 0.775296 0.731106
0.757473 0.769162 0.711940
0.774655 0.766262 0.693812
0.831022 0.787594 0.684352
0.843900 0.858183 0.804196
0.843503 0.857481 0.802518
0.844114 0.856352 0.797696
0.848264 0.856168 0.789548
0.855009 0.854917 0.775937
0.866484 0.854826 0.763607
0.884794 0.856260 0.748135
0.909361 0.857908 0.726253
0.468971 0.585870 0.804013
0.473945 0.588098 0.803922
0.488716 0.593347 0.801694
0.516411 0.603693 0.797971
0.550866 0.615442 0.791470
0.590173 0.628138 0.782589
0.632380 0.640345 0.771328
0.679530 0.651972 0.759121
0.477211 0.590906 0.800107
0.482002 0.593133 0.800229
0.495460 0.597772 0.798154
0.519615 0.605951 0.794095
0.552026 0.616632 0.787716
0.589288 0.627924 0.778592
0.629755 0.638758 0.766934
0.676020 0.649500 0.754635
0.518730 0.620020 0.795590
0.521111 0.620722 0.795163
0.530175 0.623224 0.792996
0.548363 0.628565 0.789181
0.573724 0.635676 0.782986
0.605646 0.644556 0.774838
0.643366 0.654780 0.765316
0.689235 0.666316 0.756374
0.570703 0.658839 0.789334
0.571069 0.658228 0.788327
0.576867 0.659297 0.786191
0.590356 0.662959 0.783108
0.609277 0.667475 0.777768
0.634882 0.673915 0.771176
0.666194 0.681239 0.763149
0.708705 0.690883 0.757107
0.613947 0.692744 0.779141
0.614435 0.692439 0.778286
0.619135 0.693385 0.776486
0.629755 0.696407 0.774319
0.643824 0.699306 0.770169
0.662715 0.702785 0.764279
0.688228 0.707393 0.757351
0.733608 0.719478 0.757473
0.662287 0.730404 0.770321
0.663325 0.730770 0.770199
0.667323 0.731991 0.769528
0.674952 0.734340 0.768307
0.686427 0.737636 0.766354
0.703212 0.742611 0.764157
0.725338 0.747524 0.759854
0.773220 0.763760 0.761471
0.705531 0.766720 0.770077
0.706813 0.767361 0.770260
0.710323 0.768460 0.769528
0.717739 0.771084 0.768460
0.729091 0.775143 0.766812
0.746944 0.782956 0.766598
0.779110 0.801907 0.775113
0.835996 0.825772 0.778805
0.750057 0.822477 0.792752
0.750668 0.822995 0.792691
0.755001 0.826444 0.793545
0.764553 0.833646 0.794736
0.814542 0.855558 0.812558
0.866239 0.878782 0.842374
0.871397 0.874327 0.825040
0.887785 0.874266 0.810697
0.658656 0.730983 0.880400
0.660700 0.731991 0.880369
0.666377 0.733974 0.879332
0.679408 0.739559 0.878050
0.697749 0.747158 0.875853
0.720302 0.756130 0.872740
0.746700 0.766629 0.869017
0.774655 0.776547 0.864103
0.661219 0.732937 0.879026
0.663294 0.733974 0.879026
0.669215 0.736294 0.878202
0.681422 0.741299 0.876860
0.699184 0.748470 0.874723
0.721126 0.757076 0.871641
0.746639 0.766812 0.867735
0.773983 0.776150 0.862638
0.678218 0.746304 0.876982
0.679622 0.746914 0.876860
0.684413 0.748531 0.876036
0.696529 0.753902 0.875395
0.711421 0.759365 0.873198
0.730434 0.766140 0.870024
0.753872 0.774716 0.866423
0.779629 0.783047 0.861692
0.704616 0.767666 0.874632
0.705928 0.768246 0.874632
0.709987 0.769619 0.873960
0.718929 0.773037 0.873075
0.731746 0.777676 0.871366
0.748196 0.783291 0.868803
0.768582 0.790219 0.865660
0.791653 0.797055 0.861509
0.734829 0.792599 0.872282
0.735866 0.793088 0.872404
0.738247 0.793515 0.872068
0.744747 0.795682 0.871336
0.754665 0.798734 0.869688
0.768093 0.802823 0.867338
0.785672 0.808316 0.864652
0.806943 0.814450 0.861357
0.769680 0.820706 0.869718
0.769741 0.820493 0.869535
0.770932 0.820371 0.868986
0.774746 0.821286 0.868711
0.781857 0.823484 0.868925
0.794736 0.828275 0.868345
0.811093 0.834012 0.866819
0.829648 0.839109 0.864042
0.808896 0.851133 0.869535
0.809201 0.851194 0.869444
0.810452 0.851469 0.869139
0.813809 0.852628 0.869047
0.819272 0.854551 0.868986
0.827512 0.857481 0.869230
0.838926 0.861265 0.868894
0.852171 0.863279 0.864866
0.840391 0.877012 0.873899
0.840604 0.877073 0.873747
0.842069 0.877592 0.873533
0.845548 0.878996 0.873350
0.850675 0.880919 0.872770
0.857603 0.883391 0.871641
0.867033 0.886809 0.870085
0.881163 0.892912 0.869657
