20 Preset/Scenery style2/【3】LUT video cho PR-AE-FCPX/Tone  (9).cube
# Created by Adobe Lightroom plugin Export LUT (1.24.0)
# www.johnrellis.com/lightroom/exportlut.htm
# Preset: 暗青风光-素材江湖01
# Color profile: C:\Program Files (x86)\Common Files\Adobe\Color\Profiles\Recommended\VideoHD.icc
LUT_3D_SIZE 32
DOMAIN_MIN 0.0 0.0 0.0
DOMAIN_MAX 1.0 1.0 1.0
0.076997 0.118929 0.133852
0.076997 0.118929 0.133852
0.076997 0.118929 0.133852
0.076997 0.118929 0.133852
0.095521 0.125429 0.139620
0.118379 0.135927 0.149966
0.150515 0.143954 0.155001
0.192477 0.150149 0.157259
0.244205 0.156893 0.156344
0.307469 0.163668 0.152590
0.381445 0.170260 0.147127
0.461769 0.178347 0.142214
0.544213 0.189364 0.137758
0.623682 0.203464 0.131685
0.694697 0.220371 0.124788
0.753750 0.239292 0.118837
0.802884 0.259586 0.115053
0.846250 0.281132 0.113588
0.884825 0.303288 0.115267
0.933715 0.337255 0.125093
0.970245 0.368566 0.142153
0.997589 0.397436 0.163149
1.000000 0.423041 0.185611
1.000000 0.446845 0.209537
1.000000 0.468971 0.233799
1.000000 0.490028 0.258915
1.000000 0.510796 0.285069
1.000000 0.531640 0.312718
1.000000 0.552911 0.342107
1.000000 0.574975 0.373602
1.000000 0.597742 0.406958
1.000000 0.620996 0.441657
0.076997 0.118929 0.133852
0.076997 0.118929 0.133852
0.076997 0.118929 0.133852
0.076997 0.118929 0.133852
0.095521 0.125429 0.139620
0.117159 0.135805 0.149569
0.148135 0.143374 0.154940
0.188327 0.149569 0.157259
0.237949 0.156619 0.156405
0.298741 0.163607 0.153048
0.370336 0.170230 0.147951
0.449104 0.177951 0.142428
0.530571 0.188785 0.138247
0.610193 0.202090 0.132540
0.682521 0.218631 0.125734
0.743587 0.237034 0.119661
0.794369 0.257176 0.115236
0.838651 0.278294 0.113069
0.878050 0.300267 0.114290
0.925994 0.332219 0.122438
0.962249 0.362066 0.137240
0.989837 0.389441 0.156069
1.000000 0.414221 0.176761
1.000000 0.437354 0.199069
1.000000 0.459174 0.222385
1.000000 0.480079 0.246555
1.000000 0.500969 0.272374
1.000000 0.522148 0.300023
1.000000 0.543877 0.329595
1.000000 0.566369 0.361395
1.000000 0.589685 0.395178
1.000000 0.613519 0.430610
0.076997 0.118929 0.133852
0.076997 0.118929 0.133852
0.076997 0.118929 0.133852
0.076997 0.118929 0.133852
0.096864 0.126345 0.140414
0.118379 0.135927 0.149966
0.148013 0.143587 0.154910
0.186160 0.151156 0.156893
0.233951 0.158785 0.156252
0.293339 0.166079 0.152926
0.363348 0.173190 0.147707
0.441108 0.181003 0.142184
0.521447 0.191897 0.138033
0.600549 0.205356 0.132082
0.673793 0.221103 0.125216
0.735592 0.239261 0.118532
0.787503 0.258671 0.113863
0.832517 0.279179 0.111482
0.874174 0.301518 0.112459
0.921019 0.331853 0.119783
0.957275 0.360357 0.133639
0.985168 0.387091 0.151400
1.000000 0.411231 0.171420
1.000000 0.433906 0.193362
1.000000 0.455299 0.215946
1.000000 0.475837 0.239872
1.000000 0.496712 0.265385
1.000000 0.517906 0.293065
1.000000 0.539696 0.322667
1.000000 0.562402 0.354681
1.000000 0.585718 0.388647
1.000000 0.609644 0.424140
0.076295 0.119234 0.133822
0.076295 0.119234 0.133822
0.075563 0.120119 0.134218
0.079408 0.121340 0.135531
0.099550 0.129946 0.142458
0.119387 0.139315 0.150393
0.148409 0.147677 0.154604
0.185489 0.155489 0.156344
0.232395 0.163760 0.155398
0.290349 0.171572 0.152224
0.358862 0.179538 0.146914
0.434485 0.188174 0.141146
0.514000 0.199466 0.136568
0.591943 0.212833 0.130495
0.664393 0.228244 0.123262
0.726619 0.245518 0.116396
0.778805 0.263645 0.111086
0.823667 0.282780 0.108370
0.867704 0.304967 0.108309
0.911650 0.331762 0.114504
0.946960 0.357397 0.126284
0.975219 0.382238 0.142275
0.997864 0.405585 0.161379
1.000000 0.428260 0.182956
1.000000 0.450416 0.206516
1.000000 0.472267 0.231754
1.000000 0.494240 0.258885
1.000000 0.516411 0.288090
1.000000 0.538842 0.318822
1.000000 0.561608 0.351293
1.000000 0.584588 0.384924
1.000000 0.607630 0.419471
0.080964 0.137697 0.145876
0.080323 0.137942 0.146059
0.081117 0.138613 0.146426
0.090028 0.139101 0.148226
0.100313 0.140719 0.147494
0.119661 0.145968 0.150576
0.146944 0.153414 0.154055
0.182162 0.161929 0.155337
0.226963 0.170626 0.154543
0.282719 0.179446 0.151064
0.348791 0.188174 0.145754
0.422889 0.197757 0.139528
0.500725 0.209812 0.134768
0.579004 0.223575 0.128267
0.652613 0.239170 0.120333
0.716640 0.255955 0.112276
0.771023 0.273228 0.106538
0.817288 0.291539 0.102998
0.864591 0.314000 0.102907
0.907134 0.338384 0.108522
0.941863 0.362158 0.119844
0.970153 0.385229 0.135836
0.993256 0.407507 0.155184
1.000000 0.429603 0.176852
1.000000 0.451484 0.200931
1.000000 0.473335 0.226780
1.000000 0.495064 0.254459
1.000000 0.516838 0.283726
1.000000 0.538811 0.314488
1.000000 0.561059 0.346654
1.000000 0.583551 0.380133
1.000000 0.606195 0.414557
0.078920 0.156252 0.154726
0.079744 0.156405 0.154696
0.088350 0.156313 0.155459
0.098482 0.156497 0.157107
0.110018 0.158053 0.157931
0.124453 0.160372 0.153658
0.149874 0.165499 0.153506
0.184634 0.173007 0.153994
0.227298 0.181094 0.152590
0.282628 0.191104 0.148745
0.347906 0.201266 0.142885
0.421149 0.212528 0.136172
0.498238 0.225772 0.130709
0.575799 0.240482 0.123079
0.649348 0.256260 0.114107
0.714015 0.272496 0.105165
0.768490 0.289158 0.098512
0.816281 0.306584 0.094484
0.866117 0.329198 0.094118
0.907286 0.351446 0.100710
0.941344 0.373693 0.113741
0.969421 0.395422 0.131014
1.000000 0.464698 0.200076
1.000000 0.486000 0.227665
1.000000 0.506004 0.255344
1.000000 0.525353 0.282963
1.000000 0.544274 0.310918
1.000000 0.563043 0.339513
1.000000 0.582055 0.368841
1.000000 0.601282 0.399054
1.000000 0.620539 0.429572
1.000000 0.639551 0.459998
0.094881 0.185916 0.163058
0.096468 0.186007 0.163394
0.103975 0.185916 0.164279
0.117189 0.185916 0.166323
0.132998 0.186374 0.168551
0.150515 0.192844 0.162112
0.170413 0.194064 0.154910
0.207919 0.200076 0.149874
0.256718 0.209018 0.146609
0.313878 0.217899 0.141146
0.379461 0.227634 0.134127
0.455909 0.242191 0.126833
0.533837 0.257481 0.118837
0.609461 0.273014 0.108919
0.678157 0.288457 0.097475
0.736477 0.303044 0.088045
0.786435 0.317662 0.077333
0.840421 0.338354 0.067353
0.888304 0.360662 0.078340
0.928313 0.383246 0.095735
0.962158 0.406592 0.117556
0.990478 0.430671 0.143862
1.000000 0.454963 0.173800
1.000000 0.478920 0.205386
1.000000 0.501610 0.237736
1.000000 0.522332 0.268437
1.000000 0.541161 0.297063
1.000000 0.559594 0.325902
1.000000 0.578180 0.355657
1.000000 0.596735 0.385657
1.000000 0.615625 0.416480
1.000000 0.634485 0.447333
0.115297 0.214969 0.167727
0.117006 0.215000 0.168215
0.124239 0.214878 0.169039
0.137636 0.214847 0.170993
0.154726 0.214755 0.174166
0.173129 0.221134 0.168276
0.195773 0.227512 0.159396
0.221592 0.228824 0.149264
0.268040 0.236027 0.139712
0.326177 0.246128 0.132815
0.390326 0.256596 0.124453
0.457679 0.267430 0.117617
0.526299 0.279057 0.110109
0.600336 0.294804 0.097749
0.668605 0.309728 0.080995
0.726986 0.323400 0.054322
0.784360 0.340246 0.031006
0.836667 0.358495 0.022583
0.881285 0.376898 0.031800
0.919829 0.396094 0.065553
0.953246 0.416449 0.101564
0.981659 0.438453 0.133364
1.000000 0.461372 0.167941
1.000000 0.484230 0.201999
1.000000 0.506096 0.234745
1.000000 0.525719 0.264591
1.000000 0.543725 0.292302
1.000000 0.560540 0.318212
1.000000 0.577508 0.345251
1.000000 0.595666 0.375677
1.000000 0.614130 0.406928
1.000000 0.632746 0.438361
0.145998 0.252171 0.170840
0.147890 0.252262 0.171145
0.154788 0.252171 0.172091
0.167727 0.252262 0.174075
0.186099 0.252018 0.177279
0.205692 0.257603 0.172519
0.230900 0.267247 0.161410
0.257939 0.272435 0.148898
0.289708 0.273960 0.134585
0.343328 0.281743 0.118624
0.409033 0.293797 0.107179
0.476020 0.305394 0.097047
0.542321 0.315892 0.085176
0.605249 0.325475 0.062837
0.664271 0.334813 0.037140
0.729854 0.351385 0.005768
0.785702 0.367102 0.000000
0.833555 0.382238 0.000549
0.875700 0.398047 0.024231
0.912840 0.415137 0.077302
0.945495 0.433631 0.111238
0.973724 0.453590 0.142977
0.997650 0.474647 0.176028
1.000000 0.495796 0.208682
1.000000 0.515953 0.239628
1.000000 0.534295 0.268284
1.000000 0.551202 0.294957
1.000000 0.567071 0.319768
1.000000 0.582635 0.344549
1.000000 0.598077 0.369543
1.000000 0.615473 0.399908
1.000000 0.633509 0.431739
0.176913 0.295171 0.178775
0.178561 0.295079 0.179080
0.185092 0.294682 0.179873
0.198672 0.294713 0.181827
0.217472 0.294652 0.185031
0.239261 0.297032 0.185092
0.262730 0.306218 0.173281
0.293828 0.317449 0.157778
0.322637 0.320592 0.141787
0.358129 0.321508 0.122255
0.413855 0.328405 0.100069
0.482063 0.341497 0.086183
0.547265 0.352239 0.064088
0.613642 0.364019 0.035889
0.678248 0.375830 0.014862
0.732631 0.384894 0.010407
0.781460 0.394751 0.015778
0.828794 0.408789 0.033143
0.870665 0.423346 0.071839
0.907256 0.438819 0.103426
0.938933 0.454902 0.129427
0.965942 0.471778 0.157321
0.988952 0.489265 0.185824
1.000000 0.506859 0.213626
1.000000 0.523949 0.240879
1.000000 0.540307 0.267002
1.000000 0.556085 0.292607
1.000000 0.571283 0.316838
1.000000 0.586358 0.341253
1.000000 0.601373 0.365972
1.000000 0.616632 0.391424
1.000000 0.634424 0.423804
0.211215 0.341100 0.190463
0.212863 0.341131 0.190433
0.220066 0.341192 0.191714
0.233463 0.341711 0.193759
0.253086 0.342443 0.197208
0.278325 0.343420 0.202213
0.301793 0.351690 0.193118
0.331121 0.363104 0.177768
0.364843 0.373419 0.158572
0.397436 0.376623 0.138003
0.434852 0.376349 0.112154
0.494697 0.384710 0.074006
0.569329 0.401190 0.028595
0.635126 0.412604 0.007294
0.692622 0.420813 0.000214
0.742214 0.426978 0.012055
0.785672 0.432288 0.038483
0.824887 0.438117 0.077699
0.863127 0.448310 0.100618
0.899046 0.461799 0.122621
0.930449 0.475959 0.146242
0.957519 0.490913 0.171664
0.980896 0.506798 0.198428
1.000000 0.522606 0.224796
1.000000 0.538323 0.250828
1.000000 0.553429 0.275914
1.000000 0.567956 0.300053
1.000000 0.582086 0.323583
1.000000 0.596094 0.346929
1.000000 0.610040 0.370367
1.000000 0.624018 0.394018
1.000000 0.638331 0.419135
0.259983 0.398993 0.209781
0.261814 0.399145 0.210056
0.268376 0.399451 0.211093
0.281376 0.400122 0.213718
0.300908 0.401434 0.217624
0.326574 0.402869 0.223545
0.354253 0.408118 0.223209
0.381140 0.418708 0.207950
0.415381 0.431617 0.187991
0.454902 0.444099 0.165988
0.494179 0.449775 0.139193
0.536950 0.451270 0.102419
0.658442 0.502556 0.020050
0.719905 0.510613 0.025483
0.766842 0.512718 0.088350
0.808408 0.514702 0.114137
0.844694 0.516747 0.137087
0.877043 0.519493 0.157107
0.905425 0.523156 0.177768
0.930755 0.527886 0.196994
0.955352 0.538445 0.220859
0.976989 0.550744 0.245243
0.995514 0.563012 0.269017
1.000000 0.575525 0.292851
1.000000 0.587457 0.315190
1.000000 0.598627 0.335882
1.000000 0.608972 0.354925
1.000000 0.618952 0.373144
1.000000 0.629145 0.391577
1.000000 0.639307 0.409613
1.000000 0.649592 0.427863
1.000000 0.659998 0.446357
0.341375 0.486122 0.249424
0.342443 0.486091 0.249607
0.348760 0.486000 0.251194
0.362036 0.487312 0.254246
0.381506 0.488655 0.259373
0.407813 0.490974 0.266850
0.441138 0.494911 0.277501
0.468513 0.505638 0.266331
0.502464 0.519707 0.249027
0.544610 0.536156 0.226444
0.582696 0.544915 0.202640
0.622461 0.549218 0.174716
0.663752 0.548516 0.137850
0.708431 0.544884 0.100191
0.764553 0.552422 0.110292
0.805478 0.553246 0.137331
0.840696 0.553460 0.158968
0.871336 0.553521 0.178164
0.898528 0.554650 0.196536
0.922576 0.556695 0.214786
0.944121 0.559838 0.232639
0.963592 0.564416 0.250858
0.983215 0.575402 0.273686
1.000000 0.586572 0.295781
1.000000 0.597498 0.317388
1.000000 0.608087 0.337896
1.000000 0.618128 0.357336
1.000000 0.627832 0.375708
1.000000 0.637476 0.393774
1.000000 0.647395 0.412146
1.000000 0.657130 0.430152
1.000000 0.667048 0.448463
0.419196 0.560266 0.299596
0.419715 0.559838 0.299321
0.424323 0.558984 0.300145
0.434119 0.558190 0.302220
0.449653 0.557488 0.305974
0.470710 0.557336 0.312078
0.498360 0.558465 0.321416
0.525780 0.562829 0.322759
0.551537 0.572351 0.307347
0.583978 0.584100 0.289311
0.622156 0.596887 0.268070
0.653193 0.600336 0.247623
0.686427 0.600580 0.222416
0.720577 0.596094 0.189334
0.755673 0.587457 0.155795
0.804074 0.592218 0.163394
0.837613 0.590387 0.184390
0.866850 0.588739 0.202731
0.893217 0.587884 0.220005
0.916472 0.587884 0.236973
0.937438 0.589166 0.253819
0.956695 0.591852 0.270603
0.974243 0.595483 0.287083
0.990631 0.601495 0.304601
1.000000 0.611566 0.325475
1.000000 0.621271 0.345373
1.000000 0.630488 0.364050
1.000000 0.639521 0.382269
1.000000 0.648493 0.400031
1.000000 0.657618 0.417823
1.000000 0.666835 0.435706
1.000000 0.676020 0.453407
0.483589 0.615229 0.352911
0.484504 0.614954 0.352911
0.487556 0.614008 0.352972
0.495094 0.612665 0.354070
0.507073 0.611109 0.356603
0.523766 0.609735 0.361151
0.545983 0.609491 0.368780
0.573327 0.610559 0.379889
0.594018 0.616724 0.369207
0.619257 0.625391 0.354772
0.649897 0.635706 0.338689
0.682063 0.644434 0.320378
0.709316 0.645960 0.300969
0.737972 0.643977 0.276158
0.766873 0.637324 0.243412
0.794308 0.624964 0.208743
0.836545 0.627893 0.213230
0.864530 0.624659 0.230869
0.889586 0.622095 0.247166
0.912016 0.620417 0.262913
0.932372 0.620020 0.278447
0.951171 0.620996 0.293736
0.968292 0.622950 0.308904
0.984009 0.625849 0.323674
0.998322 0.629206 0.337591
1.000000 0.635523 0.354040
1.000000 0.644221 0.372778
1.000000 0.653010 0.391424
1.000000 0.661860 0.409918
1.000000 0.670954 0.428565
1.000000 0.680354 0.447608
1.000000 0.689509 0.466194
0.535241 0.655360 0.402686
0.536461 0.655512 0.403265
0.539818 0.655299 0.404150
0.546349 0.654871 0.405859
0.557305 0.654383 0.409216
0.572320 0.654200 0.414466
0.592157 0.654994 0.422797
0.615961 0.656672 0.434028
0.638788 0.660609 0.438392
0.658442 0.667384 0.426917
0.681849 0.674952 0.413092
0.708980 0.683101 0.396063
0.733394 0.686519 0.376623
0.754940 0.684382 0.354070
0.777462 0.679011 0.325811
0.800809 0.669734 0.291814
0.823667 0.655573 0.254307
0.860685 0.657404 0.257084
0.885008 0.653864 0.272862
0.907012 0.651270 0.288457
0.927276 0.650080 0.303593
0.945983 0.650111 0.318669
0.963043 0.651209 0.333501
0.978729 0.653010 0.347631
0.992920 0.655482 0.361608
1.000000 0.658473 0.374853
1.000000 0.661921 0.388006
1.000000 0.668910 0.404852
1.000000 0.676967 0.422827
1.000000 0.685023 0.440497
1.000000 0.692958 0.457710
1.000000 0.700679 0.474495
0.580621 0.688960 0.449195
0.581537 0.688899 0.449439
0.584131 0.688777 0.450263
0.589990 0.688655 0.452125
0.599054 0.688533 0.455421
0.611841 0.688746 0.460395
0.628351 0.689418 0.467659
0.648188 0.690730 0.477394
0.670649 0.692714 0.489326
0.686976 0.697749 0.482368
0.705409 0.703853 0.470985
0.726986 0.710475 0.457588
0.751369 0.717220 0.440925
0.770626 0.717647 0.422248
0.789364 0.714534 0.399634
0.808988 0.708461 0.372076
0.829740 0.699214 0.339208
0.850858 0.686122 0.302983
0.881621 0.685939 0.305455
0.903655 0.682826 0.318517
0.923308 0.680629 0.332494
0.941497 0.679500 0.346654
0.958190 0.679408 0.360235
0.973571 0.680201 0.373663
0.987671 0.681575 0.386542
1.000000 0.683589 0.399390
1.000000 0.686000 0.411841
1.000000 0.688869 0.423957
1.000000 0.692409 0.436439
1.000000 0.699702 0.453590
1.000000 0.706966 0.470344
1.000000 0.713863 0.486427
0.626551 0.721675 0.497719
0.627497 0.721950 0.498421
0.665766 0.746853 0.538140
0.670039 0.746822 0.539727
0.676783 0.746731 0.542138
0.686030 0.746670 0.545678
0.697780 0.746822 0.550591
0.712398 0.747433 0.557122
0.729183 0.748714 0.565545
0.744991 0.751278 0.568780
0.757870 0.755428 0.560571
0.772885 0.759823 0.550561
0.789731 0.763973 0.537621
0.808164 0.767544 0.521416
0.821225 0.764736 0.502922
0.835264 0.759884 0.480079
0.850523 0.752407 0.452003
0.867155 0.742275 0.419226
0.884947 0.729030 0.382269
0.908324 0.725704 0.380377
0.926787 0.721889 0.387823
0.942901 0.718654 0.397833
0.957977 0.716365 0.407691
0.971801 0.714839 0.417609
0.984527 0.713588 0.426398
0.996368 0.712886 0.434638
1.000000 0.712703 0.442634
1.000000 0.713252 0.451240
1.000000 0.714687 0.460578
1.000000 0.716976 0.470832
1.000000 0.720699 0.482856
1.000000 0.726589 0.497627
0.676356 0.756680 0.550256
0.679744 0.758785 0.553582
0.684718 0.760952 0.557610
0.691188 0.762844 0.561913
0.698817 0.764248 0.566217
0.707393 0.764858 0.570062
0.717647 0.765133 0.574365
0.729793 0.765499 0.579492
0.743862 0.766323 0.586114
0.759670 0.767544 0.594079
0.770871 0.770687 0.589227
0.782956 0.774258 0.581231
0.796597 0.777737 0.570886
0.811887 0.781155 0.558373
0.827115 0.782895 0.543481
0.838987 0.779995 0.526329
0.851987 0.775448 0.505699
0.866300 0.769039 0.481239
0.882170 0.760494 0.452644
0.899535 0.749508 0.419867
0.920104 0.746029 0.418036
0.938079 0.743679 0.424903
0.952758 0.740780 0.433997
0.966308 0.738399 0.442481
0.978912 0.736263 0.449744
0.990600 0.734646 0.456916
1.000000 0.733516 0.463752
1.000000 0.733089 0.471229
1.000000 0.733516 0.479255
1.000000 0.734707 0.488075
1.000000 0.736538 0.497505
1.000000 0.738552 0.506615
0.703639 0.776394 0.577844
0.706752 0.778317 0.580865
0.711269 0.780423 0.584527
0.716823 0.782193 0.588434
0.723537 0.783597 0.592248
0.730983 0.784207 0.595727
0.739467 0.784512 0.599145
0.749630 0.784726 0.603418
0.761532 0.785245 0.608850
0.774777 0.786007 0.615198
0.787076 0.787686 0.617945
0.796780 0.790585 0.611170
0.807797 0.793515 0.602899
0.820401 0.796475 0.593164
0.834318 0.799313 0.581476
0.846830 0.799649 0.567895
0.857603 0.796719 0.552300
0.869444 0.792508 0.533745
0.882628 0.786801 0.512535
0.897246 0.779355 0.487587
0.913298 0.769680 0.458259
0.931273 0.765805 0.455177
0.948150 0.763943 0.460609
0.961395 0.761013 0.468299
0.973632 0.758267 0.474647
0.985107 0.755825 0.480323
0.995911 0.753811 0.485725
1.000000 0.752438 0.491615
1.000000 0.751949 0.498451
1.000000 0.752163 0.505821
1.000000 0.752956 0.513756
1.000000 0.753872 0.521324
0.729824 0.795529 0.603937
0.732418 0.797086 0.606439
0.736019 0.798734 0.609461
0.740627 0.800168 0.612696
0.746212 0.801266 0.615930
0.752438 0.801755 0.618830
0.759701 0.801999 0.621881
0.768276 0.802182 0.625574
0.778347 0.802609 0.630213
0.789700 0.803159 0.635828
0.802152 0.804013 0.642420
0.810849 0.806149 0.638849
0.819883 0.808621 0.631830
0.830106 0.811154 0.623713
0.841733 0.813718 0.614282
0.854765 0.816342 0.603326
0.865446 0.815915 0.591882
0.875883 0.813779 0.579126
0.887419 0.810819 0.565026
0.900206 0.806821 0.548852
0.914061 0.801450 0.530419
0.929076 0.794247 0.508812
0.944610 0.790585 0.506279
0.959899 0.789425 0.511742
0.971557 0.786801 0.518578
0.982391 0.784268 0.524010
0.992584 0.781949 0.528893
1.000000 0.780148 0.533928
1.000000 0.778988 0.539635
1.000000 0.778347 0.545617
1.000000 0.778042 0.551659
1.000000 0.777829 0.557336
0.766476 0.821714 0.642908
0.767514 0.822232 0.643915
0.769131 0.822660 0.645045
0.771481 0.822934 0.646265
0.774899 0.822995 0.647700
0.779171 0.822873 0.649317
0.784756 0.822721 0.651484
0.791623 0.822721 0.654444
0.799924 0.822904 0.658289
0.809415 0.823392 0.663142
0.819791 0.824063 0.668879
0.829526 0.825223 0.671870
0.836698 0.827237 0.666072
0.844907 0.829282 0.659327
0.854185 0.831357 0.651392
0.864683 0.833463 0.642267
0.876432 0.835569 0.631800
0.884886 0.833982 0.620966
0.894072 0.831693 0.608942
0.904204 0.828489 0.595514
0.915282 0.824247 0.580438
0.927276 0.818784 0.563256
0.940368 0.811582 0.542718
0.953368 0.806577 0.536919
0.967163 0.804685 0.539544
0.977752 0.801663 0.543938
0.987701 0.798978 0.548241
0.997192 0.796719 0.552636
1.000000 0.794919 0.557214
1.000000 0.793545 0.561975
1.000000 0.792477 0.566766
1.000000 0.791470 0.571191
0.786252 0.836454 0.664851
0.787076 0.836851 0.665675
0.788449 0.837186 0.666682
0.790555 0.837430 0.667811
0.793362 0.837522 0.669093
0.797055 0.837461 0.670649
0.801785 0.837339 0.672541
0.807645 0.837369 0.675105
0.814694 0.837491 0.678492
0.822843 0.837827 0.682734
0.831785 0.838315 0.687678
0.841367 0.838956 0.693294
0.848295 0.840452 0.690974
0.855161 0.842283 0.685389
0.862913 0.844175 0.679042
0.871733 0.846128 0.671656
0.881621 0.848142 0.663294
0.891905 0.849546 0.653956
0.899779 0.848081 0.644190
0.908324 0.845945 0.633295
0.917693 0.843015 0.621210
0.927855 0.839139 0.607630
0.938781 0.834073 0.592157
0.950561 0.827573 0.574334
0.960357 0.818448 0.557641
0.973114 0.816312 0.558831
0.983001 0.813291 0.562432
0.992309 0.810636 0.566125
1.000000 0.808377 0.569848
1.000000 0.806516 0.573907
1.000000 0.804990 0.578241
1.000000 0.803403 0.581628
0.809506 0.853605 0.692805
0.810575 0.854154 0.694087
0.811612 0.854429 0.694850
0.812924 0.854337 0.695308
0.814664 0.853971 0.695583
0.817075 0.853422 0.695949
0.820218 0.852750 0.696529
0.824338 0.852140 0.697627
0.829526 0.851621 0.699428
0.835691 0.851286 0.701991
0.842618 0.851072 0.705135
0.850462 0.851041 0.709163
0.857939 0.851316 0.711604
0.863127 0.852445 0.706020
0.869169 0.853635 0.699489
0.876158 0.854887 0.692256
0.884215 0.856291 0.684199
0.893462 0.857908 0.675624
0.902342 0.858518 0.666712
0.909911 0.857176 0.657771
0.918120 0.855283 0.647883
0.926970 0.852537 0.636652
0.936431 0.848692 0.623377
0.946502 0.843534 0.607691
0.957305 0.836851 0.589105
0.967407 0.830655 0.579706
0.978729 0.827909 0.579370
0.988006 0.824552 0.580957
0.996765 0.821530 0.582910
1.000000 0.818967 0.585534
1.000000 0.816648 0.588006
1.000000 0.814450 0.590173
0.821622 0.863096 0.707301
0.822507 0.863584 0.708370
0.823545 0.863859 0.709285
0.824857 0.863951 0.709957
0.826688 0.863859 0.710719
0.829191 0.863676 0.711635
0.832456 0.863523 0.712978
0.836637 0.863401 0.714778
0.841642 0.863340 0.717128
0.847379 0.863371 0.720089
0.853727 0.863432 0.723445
0.860685 0.863523 0.727260
0.867948 0.863584 0.731411
0.873411 0.864286 0.729702
0.878355 0.865293 0.724178
0.884062 0.866331 0.717922
0.890654 0.867460 0.710994
0.898253 0.868772 0.703517
0.906950 0.870359 0.695644
0.914488 0.870298 0.687678
0.921416 0.868925 0.679286
0.928954 0.866941 0.669886
0.937041 0.864225 0.659113
0.945708 0.860502 0.646540
0.955016 0.855650 0.631891
0.965026 0.849485 0.614740
0.974243 0.843412 0.604822
0.984100 0.840452 0.604578
0.992798 0.837308 0.605493
1.000000 0.834195 0.606622
1.000000 0.831235 0.607568
1.000000 0.828367 0.607965
0.836301 0.874266 0.726284
0.836698 0.874510 0.726802
0.837339 0.874601 0.727260
0.838376 0.874571 0.727749
0.839841 0.874418 0.728237
0.841947 0.874235 0.728969
0.844663 0.874022 0.729946
0.848081 0.873777 0.731319
0.852232 0.873625 0.733211
0.857176 0.873533 0.735622
0.862669 0.873442 0.738430
0.868650 0.873472 0.741726
0.875029 0.873442 0.745327
0.881346 0.873503 0.748226
0.885496 0.874357 0.743496
0.890257 0.875273 0.738064
0.895689 0.876249 0.732113
0.902098 0.877379 0.725582
0.909392 0.878752 0.718776
0.917723 0.880247 0.711513
0.924102 0.879667 0.704250
0.930541 0.878202 0.696132
0.937469 0.876097 0.686824
0.944915 0.873259 0.676051
0.952941 0.869474 0.663478
0.961608 0.864683 0.648707
0.971038 0.858701 0.631800
0.979553 0.852415 0.620447
0.988312 0.849027 0.619348
0.996521 0.845762 0.618891
1.000000 0.842435 0.618799
1.000000 0.839170 0.617975
0.847349 0.883055 0.740932
0.847715 0.883177 0.741360
0.848325 0.883299 0.741848
0.849332 0.883330 0.742397
0.850797 0.883391 0.743252
0.852995 0.883452 0.744503
0.856046 0.883757 0.746548
0.859800 0.884123 0.749172
0.864286 0.884581 0.752346
0.869322 0.885130 0.756039
0.874846 0.885740 0.760128
0.880644 0.886259 0.764370
0.886595 0.886717 0.768673
0.892546 0.887022 0.772824
0.897276 0.887694 0.773007
0.901183 0.888640 0.769070
0.905638 0.889555 0.764523
0.910704 0.890532 0.759426
0.916472 0.891661 0.754086
0.923003 0.892882 0.748348
0.930144 0.894041 0.742123
0.935302 0.892973 0.735592
0.940826 0.891386 0.727993
0.946807 0.889250 0.719295
0.953277 0.886381 0.709010
0.960388 0.882628 0.696925
0.968078 0.878019 0.683040
0.976562 0.872343 0.667079
0.984192 0.866178 0.655116
0.991211 0.862364 0.653193
0.998413 0.858732 0.650629
1.000000 0.854826 0.647425
0.864134 0.895171 0.765866
0.864195 0.895171 0.765896
0.864500 0.895109 0.765957
0.865110 0.895018 0.766140
0.866117 0.894926 0.766476
0.867613 0.894743 0.767025
0.869657 0.894652 0.767941
0.872251 0.894530 0.769192
0.875334 0.894469 0.770840
0.879026 0.894408 0.772885
0.883085 0.894408 0.775235
0.887602 0.894377 0.777920
0.892332 0.894347 0.780850
0.897307 0.894255 0.783841
