20 Preset/Human Style/【3】LUT video cho PR-AE-FCPX/Joe-Allam/JA – Shaded Light 4.cube
# Created by Adobe Lightroom plugin Export LUT (1.24.0)
# www.johnrellis.com/lightroom/exportlut.htm
# Preset: JA – Shaded Light 4
# Color profile: E:\lut插件\exportlut.1.24\exportlut.lrplugin\color profiles\Rec709gamma2.4.icc
LUT_3D_SIZE 5
DOMAIN_MIN 0.000000 0.000000 0.000000
DOMAIN_MAX 0.903226 0.903226 0.903226
0.033692 0.062470 0.088197
0.157259 0.031067 0.092348
0.283787 0.035248 0.095583
0.657099 0.000000 0.086641
0.968566 0.000000 0.055634
0.000000 0.185641 0.087404
0.155367 0.186679 0.090272
0.313939 0.185061 0.116426
0.712581 0.233097 0.045716
0.983368 0.200107 0.031281
0.000000 0.463722 0.012268
0.000000 0.465736 0.000000
0.414130 0.470375 0.000000
0.771603 0.532952 0.000000
1.000000 0.520989 0.000000
0.000000 0.811795 0.000000
0.000000 0.808560 0.000000
0.375647 0.794308 0.000000
0.730556 0.790311 0.000000
1.000000 0.760037 0.000000
0.000000 0.999176 0.309300
0.000000 0.998413 0.295872
0.330297 0.996429 0.268132
0.653529 0.987427 0.287022
0.929320 0.976623 0.389929
0.000000 0.110353 0.193698
0.135622 0.088441 0.198093
0.282200 0.092744 0.219730
0.679835 0.000000 0.193942
0.979797 0.000000 0.187411
0.000000 0.189609 0.218814
0.148562 0.188998 0.222965
0.313787 0.179141 0.214603
0.725429 0.122560 0.197971
0.995727 0.000000 0.183719
0.000000 0.493599 0.178378
0.000000 0.492287 0.172732
0.434821 0.492744 0.157534
0.802792 0.531640 0.145480
1.000000 0.495186 0.178347
0.000000 0.819852 0.000000
0.000000 0.816190 0.000000
0.338628 0.798978 0.000000
0.733547 0.793393 0.000000
1.000000 0.761929 0.209384
0.000000 0.998016 0.427802
0.000000 0.997406 0.419501
0.358984 0.993988 0.380499
0.658045 0.985595 0.383490
0.929076 0.975128 0.453651
0.000000 0.155093 0.393256
0.097810 0.153048 0.396612
0.291814 0.147341 0.396307
0.540185 0.000000 0.496834
0.954162 0.000000 0.555535
0.000000 0.229465 0.441413
0.000000 0.209201 0.444221
0.328649 0.180850 0.437324
0.614862 0.000000 0.524804
0.974517 0.000000 0.518273
0.000000 0.533532 0.556512
0.000000 0.530083 0.556298
0.431220 0.489998 0.537774
0.782986 0.437995 0.497566
1.000000 0.393591 0.469215
0.000000 0.835752 0.574975
0.000000 0.832700 0.575311
0.394598 0.816037 0.546197
0.741604 0.797635 0.521508
0.993591 0.798123 0.635309
0.386389 0.994263 0.665888
0.412207 0.993622 0.660487
0.511101 0.991028 0.637629
0.690913 0.984100 0.604913
0.936645 0.975067 0.631067
0.000000 0.205417 0.773281
0.000000 0.192477 0.772000
0.419898 0.106111 0.768582
0.662196 0.000000 0.753872
0.881804 0.000000 0.779629
0.000000 0.278843 0.786496
0.000000 0.269322 0.785702
0.412146 0.215915 0.780972
0.674952 0.090303 0.764614
0.884245 0.237461 0.782956
0.371649 0.649409 0.806516
0.421241 0.644312 0.805905
0.501854 0.583276 0.803281
0.706386 0.524468 0.783688
0.874693 0.526848 0.788357
0.455085 0.848539 0.843534
0.496407 0.847013 0.843565
0.618433 0.836851 0.840024
0.764401 0.798306 0.816373
0.976349 0.766262 0.792325
0.628595 0.990936 0.856291
0.643336 0.990326 0.855985
0.694453 0.987549 0.851469
0.774472 0.981567 0.827176
0.949035 0.973449 0.813046
0.391028 0.532494 0.962615
0.428992 0.530816 0.962524
0.552728 0.519921 0.962188
0.728511 0.484810 0.961456
0.900023 0.484627 0.954498
0.448859 0.591974 0.961944
0.477241 0.589380 0.961883
0.578851 0.576562 0.961669
0.737331 0.541131 0.961059
0.902251 0.529320 0.954589
0.600732 0.748836 0.960479
0.604273 0.740139 0.961151
0.651881 0.720241 0.961791
0.765103 0.687739 0.961273
0.911192 0.653101 0.955932
0.761532 0.903929 0.963165
0.772763 0.904326 0.963134
0.803586 0.898619 0.963684
0.823606 0.857420 0.964996
0.929381 0.813901 0.959564
0.800687 0.987396 0.976562
0.810178 0.987030 0.976776
0.846983 0.985595 0.977722
0.907073 0.983093 0.979400
0.965637 0.971557 0.973846
