20 Preset/Human Style/【3】LUT video cho PR-AE-FCPX/Joe-Allam/JA – Cine Night 3.cube
# Created by Adobe Lightroom plugin Export LUT (1.24.0)
# www.johnrellis.com/lightroom/exportlut.htm
# Preset: JA – Cine Night 3
# Color profile: E:\lut插件\exportlut.1.24\exportlut.lrplugin\color profiles\Rec709gamma2.4.icc
LUT_3D_SIZE 8
DOMAIN_MIN 0.000000 0.000000 0.000000
DOMAIN_MAX 0.903226 0.903226 0.903226
0.002106 0.025910 0.056245
0.075013 0.026581 0.058106
0.168521 0.048402 0.087434
0.385138 0.000000 0.101045
0.656641 0.000000 0.109773
0.870970 0.000000 0.131380
1.000000 0.000000 0.171817
1.000000 0.000000 0.220859
0.000000 0.088869 0.088472
0.051057 0.091249 0.090669
0.172305 0.096101 0.097139
0.384070 0.000000 0.104982
0.648341 0.000000 0.114351
0.857908 0.000000 0.133364
0.991608 0.000000 0.169284
1.000000 0.000000 0.216770
0.000000 0.171817 0.127962
0.000000 0.173159 0.131502
0.189792 0.193973 0.129152
0.463661 0.193301 0.124483
0.703059 0.133883 0.130983
0.886625 0.110842 0.152346
1.000000 0.180179 0.194858
1.000000 0.264714 0.244327
0.000000 0.344854 0.162478
0.000000 0.344976 0.165133
0.176669 0.361425 0.171054
0.511162 0.425727 0.151980
0.771542 0.461921 0.155276
0.915435 0.455756 0.194278
1.000000 0.455940 0.236271
1.000000 0.473518 0.285222
0.000000 0.558801 0.194125
0.000000 0.559014 0.196963
0.162417 0.564111 0.210361
0.482094 0.602167 0.210544
0.722469 0.658259 0.198886
0.882109 0.659602 0.237339
1.000000 0.659968 0.300237
1.000000 0.655024 0.354162
0.000000 0.735439 0.251286
0.000000 0.741299 0.258366
0.245945 0.742794 0.271946
0.476234 0.750149 0.295781
0.664698 0.783352 0.310460
0.844541 0.822538 0.339818
0.981384 0.819944 0.392279
1.000000 0.807767 0.472541
0.189334 0.873136 0.364324
0.243992 0.874296 0.368719
0.369879 0.874113 0.379889
0.512840 0.875517 0.404211
0.654108 0.886839 0.431525
0.803311 0.908537 0.468574
0.954894 0.924895 0.521172
1.000000 0.901671 0.576654
0.472633 0.975006 0.537194
0.485359 0.974792 0.539574
0.535363 0.974334 0.551141
0.616754 0.973754 0.575128
0.698726 0.967376 0.587701
0.807156 0.972137 0.623743
0.912840 0.972839 0.666041
1.000000 0.968170 0.709468
0.000000 0.035859 0.113344
0.030274 0.038483 0.118379
0.144350 0.053407 0.131930
0.344121 0.000000 0.142641
0.618036 0.000000 0.154971
0.837278 0.000000 0.173587
0.976043 0.000000 0.201572
1.000000 0.000000 0.239506
0.000000 0.089662 0.125856
0.013458 0.092378 0.130587
0.152377 0.095125 0.138674
0.358526 0.000000 0.148074
0.626093 0.000000 0.159243
0.837949 0.000000 0.176028
0.970489 0.000000 0.201572
1.000000 0.000000 0.237797
0.000000 0.172396 0.158724
0.000000 0.173983 0.161288
0.176883 0.190158 0.164767
0.434821 0.185367 0.170474
0.675471 0.121004 0.176547
0.859861 0.041596 0.191470
0.983276 0.136233 0.219028
1.000000 0.238499 0.258122
0.000000 0.335027 0.186496
0.000000 0.336217 0.189181
0.155459 0.348608 0.198489
0.473518 0.396979 0.188388
0.729061 0.420356 0.196231
0.881987 0.420050 0.219730
0.991241 0.424353 0.249607
1.000000 0.451179 0.290684
0.000000 0.551537 0.216678
0.000000 0.550622 0.218845
0.128237 0.552880 0.229892
0.461677 0.582147 0.233066
0.703059 0.634424 0.223423
0.865751 0.639979 0.256321
0.991760 0.645777 0.313390
1.000000 0.644770 0.359960
0.000000 0.725246 0.263737
0.000000 0.725948 0.267002
0.212375 0.728206 0.279820
0.461738 0.736019 0.304265
0.654231 0.771450 0.319860
0.835966 0.814450 0.351293
0.973571 0.813993 0.401099
1.000000 0.803952 0.476631
0.132479 0.864225 0.364843
0.197513 0.863066 0.365850
0.345251 0.862730 0.376226
0.497932 0.865385 0.400946
0.644770 0.879057 0.431891
0.794888 0.902220 0.468086
0.946685 0.919280 0.516533
1.000000 0.897795 0.568811
0.453986 0.971038 0.529992
0.470375 0.971527 0.534813
0.522240 0.971008 0.545830
0.606653 0.970764 0.569940
0.703578 0.969665 0.602747
0.807492 0.972473 0.632502
0.911559 0.972473 0.669642
1.000000 0.967956 0.712703
0.000000 0.070588 0.190738
0.000000 0.071321 0.198093
0.102998 0.075502 0.220829
0.303288 0.000000 0.246830
0.587701 0.000000 0.264652
0.821469 0.000000 0.279911
0.967224 0.000000 0.306889
1.000000 0.000000 0.336675
0.000000 0.099428 0.201724
0.000000 0.099916 0.211398
0.109834 0.102388 0.231907
0.315953 0.044739 0.251469
0.592126 0.000000 0.264866
0.819425 0.000000 0.283268
0.962066 0.000000 0.305577
1.000000 0.000000 0.334752
0.000000 0.172732 0.245579
0.000000 0.176791 0.249607
0.133181 0.189120 0.262272
0.386053 0.182040 0.273350
0.649714 0.129091 0.286534
0.844480 0.106386 0.301884
0.971496 0.186770 0.322087
1.000000 0.281163 0.350469
0.000000 0.346868 0.277653
0.000000 0.351843 0.278447
0.083223 0.363043 0.284001
0.465522 0.400031 0.293858
0.718593 0.423346 0.321141
0.867643 0.427893 0.335149
0.980926 0.445441 0.355596
1.000000 0.478767 0.384375
0.000000 0.557794 0.296117
0.000000 0.559380 0.296483
0.000000 0.563317 0.306859
0.451423 0.582940 0.323522
0.698421 0.639246 0.330724
0.857084 0.645228 0.366949
0.978241 0.655238 0.410864
1.000000 0.660273 0.443793
0.000000 0.727230 0.331304
0.000000 0.728328 0.334325
0.175113 0.729915 0.345037
0.452613 0.734127 0.367163
0.643732 0.764981 0.389136
0.824826 0.810056 0.424567
0.963012 0.815274 0.475013
1.000000 0.813230 0.547051
0.097597 0.867308 0.417395
0.183352 0.866423 0.418494
0.338628 0.865171 0.426673
0.493935 0.866484 0.447822
0.639429 0.876158 0.479561
0.789761 0.901366 0.519127
0.942687 0.921202 0.571191
1.000000 0.902312 0.620356
0.444221 0.971221 0.558434
0.457008 0.970733 0.559564
0.510948 0.970153 0.569543
0.600732 0.970764 0.594934
0.699336 0.969665 0.625422
0.805112 0.972290 0.658534
0.909331 0.972595 0.697230
0.997406 0.968383 0.740322
0.000000 0.091310 0.289250
0.000000 0.092348 0.297551
0.000000 0.092317 0.325933
0.290623 0.000000 0.359808
0.517937 0.000000 0.372168
0.766659 0.000000 0.402136
0.927214 0.000000 0.417609
1.000000 0.000000 0.439521
0.000000 0.112001 0.302800
0.000000 0.111208 0.311406
0.000000 0.112612 0.336614
0.308263 0.051087 0.369329
0.529992 0.000000 0.378302
0.772976 0.000000 0.405859
0.927672 0.000000 0.419989
1.000000 0.138186 0.442023
0.000000 0.172793 0.325383
0.000000 0.175082 0.329137
0.000000 0.187106 0.356115
0.349004 0.186465 0.389715
0.582605 0.181125 0.403174
0.800076 0.165652 0.424506
0.941985 0.247440 0.443793
1.000000 0.340185 0.468421
0.000000 0.332372 0.386969
0.000000 0.336584 0.389715
0.000000 0.354314 0.402136
0.410346 0.380743 0.423621
0.648829 0.393744 0.437354
0.818845 0.418677 0.452430
0.942962 0.457923 0.471931
1.000000 0.505180 0.496162
0.000000 0.563195 0.420233
0.000000 0.564416 0.420264
0.000000 0.572625 0.423865
0.426551 0.587091 0.441382
0.677546 0.635492 0.466377
0.832151 0.654658 0.511803
0.949065 0.668238 0.534417
1.000000 0.682704 0.556420
0.000000 0.734676 0.441138
0.000000 0.739864 0.445777
0.000000 0.742428 0.451637
0.443488 0.747036 0.472023
0.633875 0.765255 0.502098
0.809537 0.810178 0.540826
0.945586 0.822721 0.591669
1.000000 0.827909 0.646113
0.000000 0.868986 0.494301
0.000000 0.869810 0.498299
0.314855 0.870970 0.509880
0.487984 0.873503 0.531365
0.635218 0.877531 0.562921
0.781704 0.901854 0.600977
0.933532 0.922667 0.647150
1.000000 0.907134 0.689448
0.419562 0.974304 0.610773
0.435126 0.974060 0.612604
0.494087 0.973297 0.621210
0.585992 0.972442 0.639551
0.689754 0.970916 0.666133
0.797940 0.971527 0.700313
0.904234 0.972473 0.740963
0.989960 0.969085 0.786221
0.000000 0.109773 0.394659
0.000000 0.111086 0.401648
0.000000 0.112093 0.426062
0.258061 0.059846 0.474495
0.540673 0.000000 0.511254
0.723659 0.000000 0.513787
0.877867 0.000000 0.531304
1.000000 0.199771 0.556695
0.000000 0.127474 0.404456
0.000000 0.127962 0.412085
0.000000 0.129976 0.434974
0.268864 0.105562 0.479957
0.550958 0.000000 0.517205
0.727474 0.000000 0.517266
0.879789 0.005219 0.534539
1.000000 0.240116 0.559258
0.000000 0.186282 0.413581
0.000000 0.188205 0.420874
0.000000 0.194614 0.450385
0.297765 0.200961 0.493721
0.575372 0.180789 0.531395
0.729549 0.212528 0.523522
0.882139 0.265812 0.543908
1.000000 0.348760 0.566186
0.000000 0.299260 0.453620
0.000000 0.302007 0.456275
0.000000 0.314519 0.468238
0.341375 0.353033 0.510979
0.607904 0.387518 0.558221
0.749081 0.415747 0.553704
0.888762 0.456184 0.572229
1.000000 0.507774 0.592828
0.000000 0.510338 0.519432
0.000000 0.514214 0.522240
0.000000 0.528069 0.532525
0.355962 0.553338 0.552728
0.614405 0.590814 0.582055
0.767849 0.613794 0.598047
0.894835 0.642969 0.617365
1.000000 0.672724 0.637812
0.000000 0.713954 0.546380
0.000000 0.715267 0.547356
0.000000 0.717617 0.549187
0.327337 0.724941 0.558129
0.590723 0.738552 0.588434
0.772366 0.789029 0.636133
0.914855 0.818112 0.688869
1.000000 0.824430 0.713283
0.000000 0.860655 0.572198
0.000000 0.860136 0.572107
0.000000 0.860533 0.575525
0.400763 0.865843 0.597589
0.599817 0.872831 0.631159
0.751492 0.889921 0.667842
0.912963 0.917510 0.714992
1.000000 0.908812 0.758022
0.000000 0.971740 0.631464
0.171420 0.971313 0.634180
0.350591 0.970153 0.646906
0.519677 0.970916 0.677119
0.652613 0.969726 0.704341
0.775235 0.967803 0.739773
0.891905 0.970672 0.782956
0.980377 0.968688 0.828397
0.000000 0.135714 0.507073
0.000000 0.136782 0.512810
0.000000 0.137911 0.532586
0.202670 0.122072 0.573724
0.524529 0.000000 0.640955
0.738857 0.000000 0.668757
0.862089 0.122194 0.656916
0.965057 0.302525 0.664668
0.000000 0.148623 0.507378
0.000000 0.149325 0.511986
0.000000 0.151369 0.531579
0.204776 0.142580 0.571740
0.520073 0.030701 0.635920
0.734676 0.000000 0.664851
0.857328 0.167697 0.653407
0.961730 0.316411 0.662409
0.000000 0.205234 0.514549
0.000000 0.206302 0.521141
0.000000 0.210910 0.547906
0.237400 0.218173 0.584771
0.536187 0.221744 0.645319
0.743618 0.238315 0.676234
0.856748 0.310002 0.661524
0.963897 0.402655 0.674037
0.000000 0.297215 0.527214
0.000000 0.298375 0.528649
0.000000 0.311254 0.546746
0.284642 0.347662 0.604395
0.560876 0.393500 0.664546
0.754269 0.440101 0.700191
0.852811 0.482582 0.681727
0.969360 0.539117 0.701747
0.000000 0.452766 0.578668
0.000000 0.454719 0.580438
0.000000 0.463264 0.588525
0.286351 0.482246 0.605249
0.549615 0.542473 0.655879
0.737240 0.607538 0.706905
0.836423 0.626917 0.697200
0.971466 0.659144 0.720912
0.000000 0.665156 0.644007
0.000000 0.668879 0.647242
0.000000 0.676204 0.653803
0.250278 0.691035 0.667201
0.531640 0.715877 0.688960
0.724269 0.760922 0.728359
0.864714 0.785702 0.750912
0.986603 0.805905 0.771542
0.000000 0.856474 0.686427
0.000000 0.858000 0.688075
0.000000 0.859678 0.690455
0.127138 0.863218 0.697414
0.509300 0.870481 0.713466
0.712490 0.882963 0.747219
0.889097 0.914214 0.800015
0.981567 0.918273 0.847929
0.000000 0.972534 0.711910
0.000000 0.971923 0.711574
0.000000 0.970977 0.713680
0.295567 0.970855 0.722286
0.550652 0.969757 0.744289
0.739773 0.967285 0.789548
0.874540 0.967987 0.835172
0.967864 0.968719 0.882719
0.000000 0.169955 0.629175
0.000000 0.171328 0.634730
0.000000 0.172427 0.651026
0.146670 0.166964 0.683680
0.474403 0.142794 0.728908
0.705348 0.156252 0.784726
0.855650 0.213809 0.796872
0.951843 0.319890 0.779385
0.000000 0.179660 0.625147
0.000000 0.181247 0.630915
0.000000 0.183078 0.647150
0.139071 0.180117 0.678157
0.468788 0.163973 0.722896
0.698390 0.179599 0.777371
0.848295 0.226993 0.788998
0.943725 0.321660 0.770657
0.000000 0.230594 0.629511
0.000000 0.230472 0.634699
0.000000 0.232029 0.653346
0.162264 0.239261 0.683375
0.476600 0.248386 0.726040
0.700191 0.292058 0.780819
0.850584 0.341924 0.798093
0.945739 0.415290 0.782650
0.000000 0.308415 0.624811
0.000000 0.309545 0.628717
0.000000 0.316838 0.648280
0.170779 0.336370 0.689113
0.485573 0.369696 0.732204
0.700313 0.438300 0.788785
0.848936 0.492348 0.812161
0.940581 0.538598 0.795773
0.000000 0.423133 0.646265
0.000000 0.422126 0.645747
0.000000 0.421485 0.648096
0.000000 0.426093 0.658625
0.462959 0.487434 0.722255
0.680171 0.567590 0.782284
0.834073 0.627955 0.817777
0.931609 0.657008 0.807980
0.000000 0.595819 0.698634
0.000000 0.596582 0.699702
0.000000 0.598779 0.703273
0.000000 0.603418 0.710414
0.415167 0.615290 0.721523
0.654414 0.694026 0.775814
0.828641 0.768368 0.840787
0.930785 0.775387 0.829648
0.000000 0.796658 0.762875
0.000000 0.798276 0.764584
0.000000 0.801541 0.768215
0.000000 0.809354 0.776699
0.400610 0.822538 0.790738
0.626947 0.846891 0.816403
0.830198 0.887694 0.864408
0.954162 0.902708 0.886534
0.000000 0.966796 0.818784
0.000000 0.967193 0.819333
0.000000 0.969268 0.822568
0.000000 0.970825 0.825711
0.339818 0.969604 0.829892
0.628656 0.968017 0.842832
0.847410 0.964355 0.888823
0.954070 0.968597 0.935393
0.000000 0.236973 0.777218
0.000000 0.238224 0.780514
0.000000 0.238712 0.788815
0.189151 0.240848 0.809567
0.473671 0.245640 0.839750
0.670344 0.277317 0.877531
0.836851 0.361852 0.920226
0.956237 0.413397 0.921202
0.000000 0.243778 0.772793
0.000000 0.245060 0.776211
0.000000 0.246891 0.785733
0.179141 0.249729 0.805905
0.469245 0.256229 0.836210
0.666773 0.289006 0.874327
0.833127 0.370123 0.916716
0.952361 0.418402 0.917601
0.000000 0.283513 0.769619
0.000000 0.283330 0.772854
0.000000 0.284031 0.783200
0.169894 0.294743 0.806516
0.466377 0.309117 0.835538
0.662257 0.347662 0.872557
0.827634 0.429847 0.915496
0.948150 0.473823 0.918334
0.000000 0.348272 0.760098
0.000000 0.349310 0.763729
0.000000 0.351537 0.775998
0.000000 0.362860 0.801938
0.450690 0.389960 0.833280
0.653010 0.440955 0.872557
0.818448 0.527245 0.916381
0.942290 0.568872 0.923186
0.000000 0.427893 0.747250
0.000000 0.427039 0.748013
0.000000 0.424414 0.754330
0.000000 0.435950 0.780148
0.389319 0.471870 0.821103
0.623316 0.533013 0.864439
0.799344 0.624231 0.912993
0.933715 0.668269 0.928374
0.000000 0.574701 0.788235
0.000000 0.572381 0.787137
0.000000 0.565057 0.784878
0.000000 0.554192 0.784024
0.171542 0.539940 0.784878
0.567346 0.627436 0.851255
0.775235 0.728359 0.914336
0.928923 0.784848 0.941466
0.000000 0.756466 0.844602
0.000000 0.755703 0.844388
0.000000 0.752865 0.843961
0.000000 0.749813 0.845457
0.000000 0.746517 0.848112
0.472541 0.748653 0.853147
0.728481 0.815061 0.901701
0.924498 0.889372 0.950927
0.000000 0.935210 0.909148
0.000000 0.934997 0.909117
0.000000 0.935058 0.910063
0.000000 0.936187 0.913268
0.000000 0.937743 0.917784
0.468666 0.940734 0.924590
0.732296 0.946929 0.937163
0.932006 0.961517 0.963409
