20 Preset/Human Style/【3】LUT video cho PR-AE-FCPX/Joe-Allam/JA – Controlled Contrast 3.cube
# Created by Adobe Lightroom plugin Export LUT (1.24.0)
# www.johnrellis.com/lightroom/exportlut.htm
# Preset: JA – Controlled Contrast 3
# Color profile: E:\lut插件\exportlut.1.24\exportlut.lrplugin\color profiles\Rec709gamma2.4.icc
LUT_3D_SIZE 5
DOMAIN_MIN 0.000000 0.000000 0.000000
DOMAIN_MAX 0.903226 0.903226 0.903226
0.079744 0.065095 0.057282
0.082216 0.064637 0.057252
0.462165 0.000000 0.046723
0.756130 0.000000 0.000000
1.000000 0.000000 0.146304
0.065766 0.089937 0.054047
0.101961 0.094942 0.049744
0.461250 0.121035 0.000000
0.774411 0.000000 0.000000
1.000000 0.000000 0.179751
0.179232 0.395697 0.000000
0.260258 0.389532 0.000000
0.471931 0.432441 0.000000
0.818265 0.477668 0.000000
1.000000 0.442725 0.226871
0.392065 0.667140 0.268711
0.428595 0.664973 0.271885
0.546410 0.674830 0.261692
0.750423 0.712490 0.191257
0.957610 0.686275 0.255619
0.592218 0.860746 0.526574
0.609461 0.859983 0.530053
0.651057 0.844907 0.502129
0.755734 0.860319 0.494118
0.915221 0.878935 0.439887
0.068116 0.068605 0.088899
0.099092 0.058228 0.095583
0.450050 0.000000 0.191684
0.738766 0.000000 0.200839
1.000000 0.000000 0.281163
0.033509 0.103182 0.094820
0.121126 0.111421 0.106050
0.472694 0.000000 0.115328
0.753262 0.000000 0.180697
1.000000 0.000000 0.287022
0.212924 0.402350 0.204257
0.281132 0.397986 0.210147
0.453620 0.418708 0.189395
0.783383 0.460761 0.210208
0.995941 0.442023 0.307378
0.381811 0.676020 0.314031
0.422034 0.675227 0.316930
0.545373 0.678279 0.314153
0.748775 0.712795 0.264988
0.954803 0.686000 0.323583
0.597131 0.860197 0.555352
0.612421 0.858976 0.556634
0.677577 0.856840 0.572686
0.768368 0.868009 0.557122
0.921355 0.888548 0.511162
0.000000 0.051942 0.423743
0.120333 0.000000 0.432197
0.462257 0.000000 0.455238
0.705928 0.216678 0.496468
0.983429 0.000000 0.533593
0.000000 0.244785 0.431647
0.155550 0.222690 0.436866
0.471901 0.268772 0.460639
0.715084 0.287694 0.499855
0.986664 0.206180 0.528649
0.258976 0.462013 0.442664
0.310826 0.464637 0.447456
0.492409 0.480110 0.475044
0.793668 0.459144 0.486275
0.970062 0.481788 0.531792
0.336706 0.720211 0.492866
0.403815 0.712917 0.500725
0.551965 0.703914 0.508629
0.749996 0.727260 0.496407
0.934936 0.707454 0.559777
0.609003 0.855650 0.642481
0.625330 0.855741 0.646265
0.682429 0.854215 0.655879
0.766171 0.858610 0.654475
0.903166 0.879942 0.622065
0.000000 0.274784 0.756222
0.129213 0.288182 0.763119
0.497353 0.307012 0.776669
0.762814 0.317815 0.787991
0.931640 0.402502 0.761257
0.000000 0.364569 0.754788
0.155184 0.356970 0.757931
0.490242 0.358679 0.769619
0.756344 0.374365 0.779904
0.921508 0.451484 0.756497
0.000000 0.556878 0.741543
0.223484 0.554437 0.744198
0.492073 0.542260 0.759243
0.752834 0.578210 0.771817
0.887083 0.628077 0.761746
0.399084 0.760220 0.745296
0.442420 0.757687 0.744503
0.596979 0.756313 0.750942
0.754055 0.761898 0.767422
0.894102 0.760159 0.776150
0.651789 0.869352 0.769192
0.661402 0.869200 0.769619
0.700313 0.870756 0.772305
0.776455 0.866331 0.775357
0.892576 0.883848 0.762936
0.330449 0.490120 0.910521
0.386877 0.496620 0.910735
0.547936 0.526390 0.912352
0.735073 0.585595 0.914916
0.890440 0.651209 0.915648
0.381903 0.538170 0.907347
0.428107 0.544152 0.907683
0.569940 0.570428 0.909300
0.743374 0.623011 0.912139
0.889830 0.676234 0.914153
0.539422 0.689052 0.897429
0.573754 0.695918 0.897307
0.637995 0.693233 0.901579
0.766659 0.719265 0.906920
0.892424 0.741299 0.914153
0.598260 0.801938 0.894194
0.613123 0.801877 0.894408
0.668269 0.801938 0.896880
0.768276 0.799374 0.908537
0.903838 0.813687 0.921935
0.670588 0.909636 0.899443
0.678431 0.909697 0.899901
0.711604 0.911101 0.903014
0.782345 0.913451 0.909361
0.912871 0.920043 0.924468
