20 Preset/Human Style/【3】LUT video cho PR-AE-FCPX/Joe-Allam/JA – Static Pop 1.cube
# Created by Adobe Lightroom plugin Export LUT (1.24.0)
# www.johnrellis.com/lightroom/exportlut.htm
# Preset: JA – Static Pop 1
# Color profile: E:\lut插件\exportlut.1.24\exportlut.lrplugin\color profiles\Rec709gamma2.4.icc
LUT_3D_SIZE 8
DOMAIN_MIN 0.000000 0.000000 0.000000
DOMAIN_MAX 0.903226 0.903226 0.903226
0.100343 0.104952 0.108705
0.111696 0.103670 0.108675
0.244175 0.036927 0.107454
0.440497 0.000000 0.090425
0.688411 0.000000 0.000000
0.942199 0.000000 0.000000
1.000000 0.072938 0.000000
1.000000 0.113649 0.000000
0.087282 0.121767 0.106447
0.121920 0.122469 0.105989
0.242588 0.120638 0.100710
0.433539 0.122957 0.065705
0.677760 0.138735 0.000000
0.926940 0.163210 0.000000
1.000000 0.180331 0.000000
1.000000 0.182589 0.000000
0.053651 0.230716 0.048157
0.132784 0.230594 0.045563
0.238376 0.224247 0.045594
0.444709 0.276738 0.000000
0.699245 0.324376 0.000000
0.935912 0.347662 0.000000
1.000000 0.343694 0.000000
1.000000 0.325078 0.000000
0.000000 0.431067 0.000000
0.153170 0.432288 0.000000
0.309300 0.426947 0.000000
0.452979 0.416144 0.000000
0.718624 0.489204 0.000000
0.952361 0.516045 0.000000
1.000000 0.495369 0.000000
1.000000 0.463172 0.000000
0.000000 0.675227 0.000000
0.156863 0.674800 0.000000
0.362493 0.669856 0.000000
0.538811 0.651209 0.000000
0.687129 0.619837 0.000000
0.905943 0.649409 0.000000
1.000000 0.638819 0.000000
1.000000 0.599390 0.000000
0.000000 0.856138 0.000000
0.167697 0.858640 0.000000
0.376287 0.856718 0.000000
0.563012 0.842435 0.000000
0.734340 0.820188 0.000000
0.887297 0.792050 0.000000
1.000000 0.770230 0.000000
1.000000 0.728573 0.000000
0.108583 0.962646 0.000000
0.199985 0.962493 0.000000
0.366125 0.960021 0.000000
0.537682 0.952758 0.000000
0.704341 0.939330 0.000000
0.862852 0.922423 0.000000
1.000000 0.902342 0.000000
1.000000 0.846891 0.000000
0.170474 1.000000 0.000000
0.221561 1.000000 0.000000
0.350103 1.000000 0.000000
0.499458 1.000000 0.000000
0.649195 1.000000 0.000000
0.799863 0.996490 0.000000
0.944884 0.984558 0.000000
1.000000 0.970672 0.000000
0.099275 0.106691 0.119814
0.101289 0.106111 0.120119
0.226078 0.058442 0.119387
0.410651 0.000000 0.104829
0.658930 0.000000 0.000000
0.912657 0.000000 0.000000
1.000000 0.020569 0.000000
1.000000 0.102022 0.000000
0.090394 0.115877 0.122469
0.113527 0.118929 0.123384
0.226413 0.119142 0.117800
0.413428 0.124636 0.098543
0.659327 0.137636 0.000000
0.909728 0.153780 0.000000
1.000000 0.163210 0.000000
1.000000 0.172946 0.000000
0.000000 0.222385 0.113802
0.113436 0.223362 0.112123
0.230014 0.218753 0.108888
0.431403 0.263432 0.019379
0.678126 0.302586 0.000000
0.915801 0.323919 0.000000
1.000000 0.321538 0.000000
1.000000 0.309422 0.000000
0.000000 0.417182 0.000000
0.080232 0.418219 0.000000
0.288518 0.415320 0.000000
0.433509 0.399878 0.000000
0.687800 0.464485 0.000000
0.925322 0.494392 0.000000
1.000000 0.479683 0.000000
1.000000 0.451850 0.000000
0.000000 0.666102 0.000000
0.000000 0.664973 0.000000
0.336614 0.660914 0.000000
0.521630 0.639246 0.000000
0.670436 0.606073 0.000000
0.893187 0.638087 0.000000
1.000000 0.630793 0.000000
1.000000 0.592981 0.000000
0.000000 0.849638 0.000000
0.010132 0.849424 0.000000
0.350713 0.848295 0.000000
0.548638 0.835660 0.000000
0.724666 0.814084 0.000000
0.880919 0.787015 0.000000
1.000000 0.766323 0.000000
1.000000 0.725063 0.000000
0.000000 0.959564 0.000000
0.153017 0.958618 0.000000
0.348089 0.956146 0.000000
0.527337 0.949645 0.000000
0.697902 0.936919 0.000000
0.858213 0.919768 0.000000
1.000000 0.898772 0.000000
1.000000 0.843870 0.000000
0.139284 1.000000 0.000000
0.202945 1.000000 0.000000
0.340398 1.000000 0.000000
0.493507 1.000000 0.000000
0.647272 1.000000 0.000000
0.797940 0.996887 0.000000
0.943267 0.984314 0.000000
1.000000 0.970245 0.000000
0.054658 0.123964 0.210758
0.054658 0.123964 0.210758
0.192264 0.073365 0.216892
0.347906 0.012634 0.231174
0.636713 0.000000 0.232120
0.908446 0.000000 0.166415
1.000000 0.000000 0.108614
1.000000 0.000000 0.000000
0.048219 0.132174 0.210330
0.083772 0.130556 0.212161
0.196262 0.109224 0.217288
0.363745 0.067781 0.230533
0.639734 0.000000 0.207279
0.903166 0.000000 0.162081
1.000000 0.000000 0.093721
1.000000 0.000000 0.000000
0.000000 0.210941 0.221866
0.000000 0.211032 0.221225
0.200107 0.208927 0.216342
0.406592 0.209140 0.204318
0.663630 0.216861 0.181247
0.911437 0.224826 0.130831
1.000000 0.229313 0.000000
1.000000 0.229374 0.000000
0.000000 0.406043 0.219364
0.000000 0.406744 0.207614
0.202884 0.410468 0.192538
0.420874 0.395178 0.178317
0.686885 0.443671 0.130983
0.921050 0.459449 0.000000
1.000000 0.445441 0.000000
1.000000 0.419318 0.000000
0.000000 0.653346 0.079988
0.000000 0.653285 0.065400
0.208835 0.654261 0.000000
0.487922 0.639490 0.000000
0.665095 0.605280 0.000000
0.895140 0.629419 0.000000
1.000000 0.618433 0.000000
1.000000 0.578302 0.000000
0.000000 0.844968 0.000000
0.000000 0.845029 0.000000
0.241550 0.843626 0.000000
0.509026 0.834989 0.000000
0.705562 0.811917 0.000000
0.872892 0.783047 0.000000
1.000000 0.761440 0.000000
1.000000 0.719509 0.000000
0.000000 0.959686 0.000000
0.000000 0.958831 0.000000
0.293645 0.956085 0.000000
0.501488 0.950896 0.000000
0.682216 0.937652 0.000000
0.849516 0.920256 0.000000
1.000000 0.899321 0.000000
1.000000 0.843320 0.000000
0.052491 1.000000 0.000000
0.167056 1.000000 0.000000
0.322942 1.000000 0.000000
0.483192 1.000000 0.000000
0.638056 1.000000 0.000000
0.790494 0.997345 0.000000
0.937987 0.984863 0.000000
1.000000 0.970581 0.000000
0.000000 0.151736 0.394446
0.000000 0.152102 0.396246
0.146273 0.110597 0.392981
0.343175 0.000000 0.378698
0.515740 0.000000 0.383093
0.828397 0.000000 0.427253
1.000000 0.000000 0.382910
1.000000 0.000000 0.321538
0.000000 0.152590 0.399176
0.000000 0.153109 0.399237
0.167178 0.122194 0.395666
0.347051 0.000000 0.381964
0.522087 0.000000 0.384222
0.840085 0.000000 0.422492
1.000000 0.000000 0.373175
1.000000 0.000000 0.321813
0.000000 0.266514 0.401831
0.000000 0.265812 0.400824
0.154635 0.241123 0.398199
0.351568 0.175113 0.384009
0.561547 0.193851 0.394202
0.876768 0.000000 0.395270
1.000000 0.000000 0.351476
1.000000 0.000000 0.328099
0.000000 0.398779 0.417578
0.000000 0.397498 0.415747
0.000000 0.391791 0.408209
0.362066 0.373571 0.384649
0.639338 0.378241 0.377173
0.887785 0.383856 0.364813
1.000000 0.385534 0.347723
1.000000 0.377661 0.321721
0.000000 0.640345 0.431556
0.000000 0.638514 0.425299
0.000000 0.632837 0.401617
0.391882 0.630976 0.381292
0.638911 0.597101 0.350469
0.887022 0.616083 0.352453
1.000000 0.604028 0.351781
1.000000 0.567163 0.320928
0.000000 0.837705 0.386633
0.000000 0.839750 0.388830
0.000000 0.837675 0.384222
0.432868 0.835080 0.376959
0.674403 0.815061 0.347295
0.858854 0.780606 0.295933
1.000000 0.757961 0.288823
1.000000 0.719661 0.306432
0.000000 0.956390 0.407446
0.000000 0.956085 0.407019
0.237736 0.954192 0.403388
0.477028 0.950378 0.396551
0.664698 0.940368 0.370153
0.834623 0.922087 0.316045
0.993652 0.899229 0.235111
1.000000 0.843107 0.208530
0.228244 1.000000 0.423285
0.261723 1.000000 0.421576
0.364935 1.000000 0.415839
0.499245 1.000000 0.405402
0.640833 1.000000 0.381231
0.782986 0.997162 0.329107
0.927916 0.985138 0.250767
1.000000 0.971038 0.053193
0.000000 0.204807 0.635767
0.000000 0.205295 0.637201
0.000000 0.170748 0.632197
0.349371 0.000000 0.611749
0.532219 0.000000 0.575341
0.723659 0.000000 0.569604
0.956146 0.000000 0.588952
1.000000 0.000000 0.558312
0.000000 0.205966 0.639429
0.000000 0.206271 0.640772
0.000000 0.161624 0.633600
0.346349 0.000000 0.613855
0.534142 0.000000 0.576715
0.728389 0.000000 0.570764
0.962463 0.000000 0.588983
1.000000 0.000000 0.555474
0.000000 0.342870 0.645167
0.000000 0.335882 0.644495
0.000000 0.295995 0.638483
0.332189 0.223819 0.618067
0.542229 0.000000 0.582757
0.736324 0.125948 0.568353
0.983917 0.000000 0.584771
1.000000 0.000000 0.547539
0.000000 0.477943 0.652644
0.000000 0.477790 0.651972
0.101320 0.479805 0.648585
0.368688 0.444739 0.628901
0.553307 0.334203 0.586694
0.755856 0.385412 0.575250
1.000000 0.338750 0.575586
1.000000 0.376989 0.555657
0.000000 0.631159 0.650721
0.000000 0.629938 0.649256
0.000000 0.623194 0.641199
0.315068 0.605432 0.620478
0.558495 0.563867 0.574578
0.830198 0.573999 0.575586
1.000000 0.581506 0.574029
1.000000 0.575616 0.560235
0.000000 0.820798 0.623133
0.000000 0.820035 0.621241
0.000000 0.814878 0.612604
0.232731 0.805631 0.598383
0.601953 0.797208 0.585779
0.817014 0.765133 0.543816
0.999939 0.761227 0.570672
1.000000 0.739315 0.579889
0.000000 0.949584 0.610468
0.000000 0.948394 0.611048
0.159670 0.944152 0.617151
0.468971 0.939544 0.623713
0.655909 0.934997 0.618402
0.813504 0.919677 0.579919
0.970550 0.894804 0.514580
1.000000 0.846464 0.506615
0.406226 1.000000 0.645258
0.419593 1.000000 0.644221
0.472480 1.000000 0.640833
0.567712 1.000000 0.638972
0.677272 1.000000 0.629725
0.791073 0.993713 0.600946
0.915435 0.983093 0.546777
1.000000 0.969360 0.475288
0.000000 0.295018 0.835569
0.000000 0.295384 0.836057
0.000000 0.279301 0.833646
0.247013 0.135134 0.822141
0.531518 0.000000 0.798978
0.728206 0.000000 0.767269
0.919524 0.000000 0.748257
1.000000 0.000000 0.730556
0.000000 0.292943 0.832547
0.000000 0.292790 0.832395
0.000000 0.261662 0.829282
0.261814 0.152804 0.818753
0.527886 0.000000 0.797177
0.725521 0.000000 0.764279
0.917235 0.000000 0.744839
1.000000 0.039734 0.728450
0.000000 0.401495 0.837003
0.000000 0.396155 0.836484
0.000000 0.369451 0.833799
0.269139 0.309697 0.822751
0.526848 0.175387 0.804562
0.730526 0.000000 0.767361
0.924987 0.000000 0.745418
1.000000 0.295384 0.730220
0.000000 0.570855 0.842527
0.000000 0.573388 0.842069
0.256016 0.567163 0.840116
0.405249 0.535485 0.833799
0.548730 0.437201 0.814786
0.743404 0.280400 0.774044
0.933776 0.364050 0.747280
1.000000 0.447364 0.737453
0.000000 0.679957 0.839445
0.000000 0.681147 0.838895
0.272313 0.686732 0.836301
0.524895 0.700710 0.830503
0.634852 0.671229 0.808988
0.744656 0.527184 0.763302
0.917296 0.589807 0.743069
1.000000 0.598169 0.739071
0.000000 0.812558 0.826322
0.000000 0.813046 0.826627
0.000000 0.810544 0.822995
0.355413 0.804318 0.814603
0.595331 0.788388 0.796017
0.752193 0.744564 0.749599
0.956329 0.763912 0.762387
1.000000 0.769375 0.763180
0.000000 0.949432 0.776883
0.000000 0.948943 0.777188
0.000000 0.945159 0.776791
0.339452 0.937224 0.778256
0.632654 0.925322 0.783200
0.807248 0.916533 0.784421
0.936431 0.891447 0.733944
1.000000 0.874144 0.754665
0.219638 1.000000 0.748196
0.279057 1.000000 0.750210
0.435584 1.000000 0.760891
0.609644 0.997070 0.783658
0.740810 0.990478 0.803067
0.826963 0.987182 0.796933
0.913359 0.979828 0.765499
1.000000 0.967956 0.710353
0.000000 0.422431 0.942473
0.000000 0.422095 0.942351
0.000000 0.422187 0.942382
0.000000 0.345434 0.941100
0.445808 0.138888 0.935912
0.670710 0.000000 0.924834
0.870298 0.000000 0.904295
1.000000 0.000000 0.887480
0.000000 0.424231 0.943359
0.000000 0.423896 0.943206
0.000000 0.421820 0.943236
0.014862 0.337346 0.941802
0.452522 0.171328 0.937163
0.671077 0.000000 0.926238
0.872282 0.000000 0.905974
1.000000 0.000000 0.888548
0.000000 0.460731 0.943297
0.000000 0.462562 0.943236
0.000000 0.458656 0.942809
0.251957 0.416083 0.941344
0.471504 0.333318 0.937865
0.671168 0.080812 0.927062
0.873960 0.000000 0.906004
1.000000 0.000000 0.884825
0.225803 0.613336 0.939940
0.260929 0.613977 0.939757
0.364660 0.616968 0.939269
0.482673 0.613153 0.937102
0.551354 0.542596 0.934478
0.683528 0.408209 0.925597
0.876829 0.174105 0.904692
1.000000 0.329625 0.877470
0.431098 0.733364 0.937011
0.460456 0.737636 0.936706
0.558679 0.754482 0.935210
0.656580 0.769528 0.932952
0.710506 0.753353 0.928405
0.739437 0.654414 0.921141
0.882811 0.485939 0.901152
1.000000 0.578912 0.868498
0.392950 0.815915 0.935027
0.423072 0.817624 0.934722
0.522667 0.824582 0.933654
0.654994 0.837736 0.931487
0.782498 0.856596 0.928313
0.837797 0.844419 0.917967
0.887449 0.717586 0.889982
0.999237 0.775448 0.870268
0.000000 0.917021 0.928008
0.159701 0.917021 0.927733
0.370764 0.917174 0.926879
0.552697 0.917174 0.924956
0.706844 0.916167 0.921355
0.821012 0.910399 0.912840
0.891417 0.878935 0.879057
1.000000 0.893706 0.889860
0.000000 1.000000 0.868711
0.000000 1.000000 0.868864
0.000000 1.000000 0.869078
0.429450 1.000000 0.874784
0.677363 0.990967 0.885985
0.830533 0.981994 0.899046
0.920592 0.977691 0.902953
0.994415 0.966644 0.869627
0.390661 0.595483 0.995361
0.390448 0.595361 0.995361
0.391608 0.595850 0.995453
0.394171 0.574273 0.996674
0.443854 0.473640 1.000000
0.577813 0.274266 1.000000
0.765499 0.000000 1.000000
0.962585 0.000000 0.997894
0.394049 0.596979 0.995636
0.393713 0.596826 0.995605
0.394171 0.597101 0.995666
0.398016 0.571374 0.997192
0.448463 0.470527 1.000000
0.581048 0.271244 1.000000
0.765713 0.000000 1.000000
0.963287 0.000000 0.998322
0.400427 0.599969 0.996185
0.400427 0.599969 0.996185
0.401221 0.600305 0.996277
0.407630 0.559655 0.998566
0.468269 0.472847 1.000000
0.599512 0.363317 1.000000
0.766995 0.000000 1.000000
0.964385 0.000000 0.998230
0.465583 0.661677 0.993469
0.466682 0.662928 0.993378
0.480903 0.667842 0.993103
0.583032 0.688411 0.991455
0.605768 0.642573 0.994018
0.661189 0.555566 0.997345
0.777920 0.381842 0.999878
0.965881 0.000000 0.996399
0.582818 0.766812 0.985962
0.581781 0.765957 0.986023
0.607019 0.768826 0.986084
0.681910 0.785611 0.984985
0.761379 0.803067 0.983459
0.768643 0.747738 0.986633
0.815976 0.627802 0.991058
0.967834 0.444617 0.991089
0.577996 0.823636 0.984863
0.594324 0.826566 0.984558
0.655482 0.838468 0.983185
0.746487 0.859922 0.980713
0.828122 0.881865 0.978668
0.871366 0.884276 0.978515
0.878782 0.823423 0.979461
0.968841 0.696223 0.979400
0.527733 0.885527 0.984253
0.546746 0.887083 0.984009
0.616876 0.893462 0.983062
0.718318 0.905180 0.981353
0.819455 0.920653 0.979522
0.899809 0.937285 0.978485
0.938781 0.939452 0.977325
0.969635 0.868711 0.968505
0.365423 0.969726 0.981415
0.398840 0.969879 0.981323
0.505303 0.970459 0.980835
0.640772 0.971435 0.979919
0.766323 0.972961 0.979034
0.863127 0.974914 0.978454
0.930571 0.976226 0.977630
0.969879 0.963500 0.962768
