20 Preset/Human Style/【3】LUT video cho PR-AE-FCPX/Joe-Allam/JA – Shaded Light 2.cube
# Created by Adobe Lightroom plugin Export LUT (1.24.0)
# www.johnrellis.com/lightroom/exportlut.htm
# Preset: JA – Shaded Light 2
# Color profile: E:\lut插件\exportlut.1.24\exportlut.lrplugin\color profiles\Rec709gamma2.4.icc
LUT_3D_SIZE 5
DOMAIN_MIN 0.000000 0.000000 0.000000
DOMAIN_MAX 0.903226 0.903226 0.903226
0.115572 0.110903 0.104555
0.149996 0.108431 0.103975
0.276921 0.103059 0.101686
0.514519 0.026581 0.080415
0.762661 0.000000 0.000000
0.117311 0.140749 0.108156
0.151308 0.146975 0.105592
0.312413 0.162753 0.095094
0.551843 0.165805 0.028626
0.785763 0.137636 0.000000
0.063447 0.274723 0.100587
0.152773 0.279606 0.100038
0.342931 0.337377 0.000000
0.634028 0.392279 0.000000
0.882780 0.391211 0.000000
0.000000 0.494514 0.000000
0.000000 0.498817 0.000000
0.332860 0.522057 0.000000
0.600183 0.595666 0.000000
0.934783 0.671809 0.000000
0.000000 0.803647 0.071595
0.000000 0.807858 0.097719
0.370825 0.823484 0.155398
0.640040 0.867674 0.175143
0.905089 0.906493 0.143465
0.117830 0.110567 0.132631
0.145327 0.117556 0.129793
0.265263 0.105592 0.144625
0.501549 0.000000 0.126833
0.752651 0.000000 0.095857
0.117556 0.145907 0.138064
0.155520 0.149386 0.140993
0.304509 0.141756 0.136629
0.538628 0.110475 0.120150
0.775723 0.000000 0.076478
0.000000 0.286931 0.139223
0.134493 0.291691 0.140414
0.346990 0.340795 0.119203
0.640253 0.381415 0.018372
0.874571 0.371435 0.000000
0.000000 0.500450 0.111055
0.000000 0.504723 0.114687
0.329503 0.523125 0.129458
0.602411 0.597314 0.000000
0.939178 0.671107 0.000000
0.000000 0.804562 0.169100
0.000000 0.808835 0.178500
0.360723 0.825956 0.216068
0.638849 0.867796 0.244755
0.905974 0.907012 0.240879
0.136446 0.111177 0.247135
0.181949 0.112428 0.250523
0.288670 0.130007 0.254520
0.447242 0.132479 0.287999
0.712245 0.000000 0.303258
0.075074 0.140566 0.266087
0.166629 0.142672 0.270298
0.307286 0.172183 0.272435
0.477394 0.164096 0.298314
0.728542 0.000000 0.289738
0.000000 0.298711 0.285100
0.000000 0.308263 0.294163
0.363043 0.350530 0.333227
0.593164 0.323461 0.310735
0.822568 0.289647 0.285222
0.000000 0.504875 0.299504
0.000000 0.513878 0.302281
0.325933 0.539544 0.322637
0.611078 0.602899 0.356573
0.953552 0.670008 0.383185
0.000000 0.806088 0.316686
0.000000 0.810788 0.322820
0.273564 0.829343 0.348699
0.622583 0.863951 0.389654
0.907866 0.907622 0.413428
0.174136 0.083619 0.448035
0.228305 0.068544 0.453407
0.378973 0.082246 0.472297
0.537133 0.172396 0.479988
0.681941 0.250706 0.496864
0.106050 0.123232 0.458778
0.195621 0.121553 0.463539
0.375921 0.145388 0.481575
0.545769 0.227726 0.489693
0.685969 0.291997 0.502800
0.000000 0.274540 0.454749
0.000000 0.270909 0.467811
0.327672 0.292638 0.507012
0.568963 0.394263 0.519951
0.715480 0.405859 0.528222
0.000000 0.501305 0.484840
0.000000 0.507103 0.490517
0.254276 0.534295 0.516686
0.624140 0.611261 0.591821
0.906096 0.565606 0.549615
0.000000 0.787594 0.529351
0.000000 0.793912 0.529595
0.000000 0.821530 0.527581
0.533806 0.866606 0.547875
0.911101 0.908934 0.636408
0.226871 0.000000 0.745815
0.289036 0.000000 0.748318
0.459205 0.000000 0.760433
0.674006 0.257328 0.777737
0.835843 0.374701 0.775051
0.149691 0.004669 0.747341
0.243626 0.000916 0.750210
0.442786 0.106477 0.762234
0.670924 0.290776 0.779629
0.837797 0.399847 0.778286
0.000000 0.211643 0.756374
0.000000 0.210513 0.761685
0.332006 0.248295 0.775326
0.655238 0.387701 0.794308
0.854856 0.485237 0.800320
0.000000 0.499886 0.756466
0.000000 0.491676 0.757046
0.000000 0.456458 0.767391
0.537774 0.500389 0.827329
0.889799 0.651881 0.848814
0.000000 0.828794 0.825071
0.000000 0.829557 0.825772
0.000000 0.835813 0.831815
0.000000 0.850065 0.845274
0.911376 0.908202 0.901762
