20 Preset/Human Style/【3】LUT video cho PR-AE-FCPX/Joe-Allam/JA – Shaded Light 4.cube
# Created by Adobe Lightroom plugin Export LUT (1.24.0)
# www.johnrellis.com/lightroom/exportlut.htm
# Preset: JA – Shaded Light 4
# Color profile: E:\lut插件\exportlut.1.24\exportlut.lrplugin\color profiles\Rec709gamma2.4.icc
LUT_3D_SIZE 32
DOMAIN_MIN 0.0 0.0 0.0
DOMAIN_MAX 1.0 1.0 1.0
0.033692 0.062470 0.088197
0.033692 0.062470 0.088197
0.033692 0.062470 0.088197
0.033692 0.062470 0.088197
0.049958 0.061646 0.089387
0.106722 0.052674 0.089540
0.133516 0.043977 0.090486
0.157259 0.031067 0.092348
0.180179 0.017914 0.093202
0.202579 0.002075 0.093202
0.222751 0.003235 0.093935
0.240635 0.007782 0.094453
0.254704 0.016236 0.094606
0.267308 0.026307 0.095460
0.283787 0.035248 0.095583
0.308751 0.042847 0.095613
0.347417 0.041627 0.097292
0.401434 0.030549 0.098909
0.465461 0.005005 0.098787
0.533104 0.000000 0.096315
0.598291 0.000000 0.091188
0.657099 0.000000 0.086641
0.711635 0.000000 0.078920
0.762234 0.000000 0.068208
0.808774 0.000000 0.060212
0.851743 0.000000 0.055482
0.891966 0.000000 0.052552
0.930755 0.000000 0.054383
0.968566 0.000000 0.055634
1.000000 0.000000 0.062074
1.000000 0.000000 0.072236
1.000000 0.000000 0.083101
0.033692 0.062470 0.088197
0.033692 0.062470 0.088197
0.033692 0.062470 0.088197
0.033692 0.062470 0.088197
0.054231 0.061219 0.088960
0.108278 0.053193 0.089479
0.134798 0.043305 0.090455
0.158602 0.031403 0.091432
0.181674 0.016815 0.092348
0.203799 0.006531 0.093324
0.224033 0.007477 0.094026
0.241794 0.012024 0.094575
0.255619 0.019471 0.095155
0.268406 0.031495 0.095521
0.285344 0.040772 0.095583
0.311376 0.047303 0.095918
0.351476 0.044709 0.097841
0.406470 0.033967 0.099184
0.471687 0.009918 0.098238
0.539544 0.000000 0.095155
0.603967 0.000000 0.091341
0.662898 0.000000 0.085725
0.717159 0.000000 0.077241
0.767330 0.000000 0.066865
0.813352 0.000000 0.060334
0.856016 0.000000 0.053712
0.895995 0.000000 0.052369
0.934569 0.000000 0.053895
0.972076 0.000000 0.056153
1.000000 0.000000 0.064820
1.000000 0.000000 0.074891
1.000000 0.000000 0.084474
0.033692 0.062470 0.088197
0.033692 0.062470 0.088197
0.033692 0.062470 0.088197
0.033692 0.062470 0.088197
0.068421 0.059663 0.088533
0.111971 0.051637 0.090730
0.137209 0.041962 0.091310
0.160403 0.031250 0.092195
0.183108 0.026825 0.092622
0.204929 0.026703 0.093477
0.225254 0.027405 0.093812
0.242496 0.032410 0.094728
0.256138 0.040070 0.094911
0.269291 0.049256 0.095766
0.287205 0.056947 0.095827
0.314824 0.063752 0.096345
0.356725 0.064210 0.098238
0.413214 0.055177 0.099489
0.478584 0.032471 0.098268
0.546075 0.000000 0.094728
0.610040 0.000000 0.090547
0.668055 0.000000 0.084657
0.721614 0.000000 0.074891
0.771298 0.000000 0.065675
0.816953 0.000000 0.058564
0.859190 0.000000 0.052277
0.898924 0.000000 0.051911
0.937255 0.000000 0.053315
0.974548 0.000000 0.056886
1.000000 0.000000 0.064454
1.000000 0.000000 0.074678
1.000000 0.000000 0.085176
0.033936 0.064668 0.088502
0.031250 0.066072 0.088472
0.031525 0.068269 0.088777
0.030671 0.072847 0.088533
0.081758 0.077943 0.089570
0.113619 0.077790 0.090608
0.138460 0.073701 0.091341
0.161349 0.073152 0.091707
0.184146 0.070680 0.092866
0.206149 0.070314 0.092897
0.226291 0.071046 0.093629
0.243198 0.074067 0.094301
0.256535 0.079164 0.094972
0.270420 0.083589 0.095491
0.289982 0.087984 0.095766
0.319860 0.090486 0.097566
0.365026 0.091615 0.099580
0.424079 0.091035 0.099886
0.491035 0.084535 0.097963
0.558740 0.061280 0.093629
0.621485 0.025788 0.088777
0.678492 0.000000 0.079957
0.730678 0.000000 0.069612
0.778622 0.000000 0.059602
0.822782 0.000000 0.053162
0.863706 0.000000 0.048890
0.902495 0.000000 0.050446
0.940154 0.000000 0.049866
0.976898 0.000000 0.053712
1.000000 0.000000 0.062135
1.000000 0.000000 0.074647
1.000000 0.000000 0.084932
0.000000 0.109377 0.089937
0.000000 0.109773 0.089876
0.000000 0.110475 0.089784
0.010224 0.111696 0.089418
0.079133 0.112001 0.089265
0.112490 0.109102 0.091249
0.138125 0.109438 0.091646
0.162631 0.108339 0.092134
0.186435 0.106966 0.092897
0.208316 0.106813 0.092927
0.228000 0.105409 0.093538
0.243931 0.105287 0.094026
0.257298 0.105623 0.094942
0.272679 0.106416 0.095125
0.294591 0.108675 0.097871
0.328191 0.111513 0.100526
0.376623 0.114504 0.101869
0.437751 0.117037 0.100710
0.504204 0.115816 0.097658
0.570947 0.112703 0.092195
0.632166 0.106905 0.085634
0.687770 0.096529 0.076265
0.738491 0.078309 0.063630
0.785153 0.033387 0.054780
0.828122 0.000000 0.047211
0.868223 0.000000 0.043061
0.906310 0.000000 0.044923
0.943633 0.000000 0.045960
0.980072 0.000000 0.051575
1.000000 0.000000 0.059236
1.000000 0.000000 0.073243
1.000000 0.000000 0.084993
0.000000 0.136843 0.090883
0.000000 0.136751 0.091310
0.000000 0.137148 0.090272
0.000000 0.138003 0.089387
0.058564 0.138399 0.089265
0.108003 0.138460 0.089815
0.135714 0.134340 0.092103
0.161654 0.134829 0.092226
0.186709 0.136294 0.092775
0.209201 0.135561 0.092927
0.228122 0.133516 0.093385
0.243381 0.131380 0.093996
0.257450 0.129915 0.095583
0.274723 0.129580 0.099641
0.299748 0.131807 0.103609
0.337224 0.135561 0.104616
0.389441 0.141329 0.104555
0.451820 0.146456 0.101778
0.518700 0.150729 0.096162
0.583459 0.151705 0.089662
0.642664 0.150790 0.080995
0.696712 0.147005 0.066407
0.720485 0.138033 0.061860
0.768490 0.130678 0.050538
0.812894 0.121218 0.040894
0.854276 0.108980 0.036347
0.893462 0.094026 0.035920
0.931548 0.056519 0.037110
0.968750 0.003998 0.039796
1.000000 0.000000 0.045960
1.000000 0.000000 0.058106
1.000000 0.000000 0.074434
0.000000 0.159640 0.090730
0.000000 0.159609 0.090303
0.000000 0.160098 0.089631
0.000000 0.160586 0.089235
0.037263 0.160830 0.088350
0.098695 0.161257 0.088838
0.131167 0.161776 0.089479
0.155398 0.157473 0.091981
0.180819 0.156863 0.091402
0.203891 0.157870 0.092348
0.223880 0.157839 0.094392
0.239322 0.155734 0.098970
0.254246 0.152834 0.103365
0.273014 0.152468 0.106905
0.300481 0.155001 0.108888
0.340734 0.160311 0.109346
0.395178 0.168704 0.106996
0.458167 0.177218 0.103182
0.524102 0.184207 0.096407
0.586908 0.188693 0.088014
0.643641 0.190188 0.075471
0.694606 0.189273 0.058900
0.741268 0.185367 0.048219
0.784543 0.181186 0.037293
0.825315 0.175387 0.031525
0.864317 0.168887 0.027344
0.902190 0.160342 0.028626
0.939483 0.152132 0.029297
0.976104 0.141787 0.035920
1.000000 0.129519 0.042756
1.000000 0.113863 0.058473
1.000000 0.097810 0.074525
0.000000 0.185641 0.087404
0.000000 0.185611 0.087404
0.000000 0.185794 0.087068
0.000000 0.186099 0.085115
0.028107 0.186313 0.083589
0.094118 0.186252 0.085451
0.126558 0.186465 0.087434
0.155367 0.186679 0.090272
0.179751 0.184237 0.094209
0.200290 0.179843 0.098512
0.219669 0.178683 0.102541
0.235996 0.177127 0.108553
0.254887 0.178103 0.113527
0.279576 0.179965 0.116030
0.313939 0.185061 0.116426
0.361608 0.194369 0.113619
0.420844 0.205570 0.109499
0.485786 0.217044 0.101442
0.550622 0.225895 0.092927
0.610315 0.231174 0.080720
0.664118 0.233646 0.059754
0.712581 0.233097 0.045716
0.756558 0.231266 0.032563
0.797696 0.228367 0.023621
0.836667 0.223575 0.020905
0.874296 0.218814 0.017792
0.911162 0.213169 0.019348
0.947601 0.206790 0.023926
0.983368 0.200107 0.031281
1.000000 0.192294 0.042756
1.000000 0.183749 0.055848
1.000000 0.175021 0.073732
0.000000 0.208438 0.095216
0.000000 0.208377 0.095216
0.000000 0.208438 0.095094
0.000000 0.208591 0.095216
0.009613 0.208713 0.095216
0.081849 0.208103 0.096132
0.117281 0.208164 0.098146
0.146487 0.207950 0.100343
0.173709 0.207767 0.102998
0.198703 0.206882 0.106020
0.214298 0.197940 0.110811
0.231632 0.195834 0.114900
0.252140 0.197360 0.120150
0.282994 0.204623 0.123323
0.332036 0.220737 0.124269
0.387457 0.234470 0.118776
0.450019 0.249058 0.110201
0.514458 0.261387 0.100374
0.576867 0.271214 0.087556
0.633143 0.276310 0.066560
0.684077 0.279362 0.042420
0.729763 0.279026 0.025788
0.771389 0.277012 0.015839
0.810483 0.274205 0.010101
0.847868 0.270603 0.007050
0.884123 0.265782 0.009003
0.920134 0.261540 0.009827
0.955749 0.256260 0.015717
0.990631 0.250523 0.025086
1.000000 0.244144 0.037263
1.000000 0.237980 0.051453
1.000000 0.231144 0.070436
0.000000 0.225650 0.107942
0.000000 0.225620 0.107942
0.000000 0.225711 0.107515
0.000000 0.225711 0.107332
0.000000 0.225528 0.107485
0.056886 0.225254 0.107881
0.106111 0.224765 0.108888
0.135531 0.224521 0.110872
0.162417 0.224186 0.112764
0.187411 0.223819 0.115358
0.211521 0.223239 0.118105
0.227085 0.214603 0.122133
0.250370 0.217136 0.124880
0.284184 0.226749 0.126772
0.335821 0.245945 0.126772
0.405921 0.272801 0.120851
0.482704 0.298894 0.110719
0.545006 0.311345 0.096956
0.602777 0.319860 0.078950
0.655482 0.324743 0.049195
0.703853 0.326665 0.024231
0.746883 0.325719 0.012360
0.786831 0.323827 0.002289
0.824704 0.320439 0.000000
0.860868 0.317205 0.000000
0.896422 0.312505 0.000000
0.931395 0.308110 0.003326
0.965911 0.303349 0.008789
0.999634 0.298070 0.019501
1.000000 0.292424 0.032013
1.000000 0.286473 0.046509
1.000000 0.280034 0.065766
0.000000 0.243137 0.119295
0.000000 0.243229 0.119265
0.000000 0.243168 0.118929
0.000000 0.243229 0.119081
0.000000 0.243229 0.118288
0.033997 0.243137 0.118318
0.095094 0.242496 0.118746
0.125795 0.242374 0.119966
0.153262 0.242741 0.121736
0.179477 0.243076 0.123323
0.204501 0.243442 0.125032
0.229343 0.244175 0.127443
0.247990 0.238346 0.130800
0.284154 0.248753 0.129549
0.338628 0.271458 0.125887
0.408209 0.300786 0.119387
0.487312 0.331579 0.108034
0.565667 0.358495 0.091554
0.629786 0.373205 0.063294
0.679408 0.376532 0.031495
0.724056 0.376532 0.008820
0.764248 0.374701 0.000000
0.802060 0.371801 0.000000
0.837980 0.367895 0.000000
0.872923 0.363317 0.000000
0.907378 0.358923 0.000000
0.941314 0.354162 0.000000
0.974914 0.349340 0.000000
1.000000 0.343816 0.010681
1.000000 0.338384 0.021607
1.000000 0.332433 0.036469
1.000000 0.326116 0.054994
0.000000 0.271611 0.125521
0.000000 0.271763 0.125429
0.000000 0.271733 0.125643
0.000000 0.271763 0.125002
0.000000 0.271916 0.124453
0.000000 0.272007 0.123842
0.078767 0.271489 0.123934
0.117159 0.270878 0.124208
0.149020 0.272068 0.125765
0.178439 0.273472 0.126741
0.206485 0.275090 0.127779
0.234531 0.277256 0.128878
0.252598 0.269444 0.130251
0.273442 0.265171 0.134218
0.320714 0.282597 0.129274
0.387091 0.312810 0.118074
0.462379 0.345190 0.105348
0.539666 0.374792 0.088197
0.611749 0.397986 0.051789
0.677516 0.415473 0.020081
0.725795 0.419409 0.000000
0.765255 0.417060 0.000000
0.802823 0.413916 0.000000
0.838682 0.409857 0.000000
0.873625 0.405432 0.000000
0.908232 0.401160 0.000000
0.942443 0.396612 0.000000
0.976043 0.391730 0.000000
1.000000 0.386511 0.000000
1.000000 0.380987 0.000000
1.000000 0.375219 0.011627
1.000000 0.369024 0.027344
0.000000 0.312444 0.124483
0.000000 0.312474 0.124178
0.000000 0.313054 0.124117
0.000000 0.313725 0.123629
0.000000 0.314458 0.122744
0.000000 0.315526 0.121584
0.015290 0.315618 0.121065
0.105653 0.314855 0.121096
0.145449 0.315160 0.121798
0.180941 0.317418 0.121828
0.213840 0.319585 0.122225
0.245670 0.321538 0.122744
0.277226 0.324041 0.123232
0.309575 0.327337 0.123232
0.332006 0.320867 0.129183
0.390265 0.342596 0.116915
0.466133 0.377295 0.093385
0.541405 0.407568 0.040925
0.611322 0.431037 0.001129
0.675715 0.448829 0.000000
0.732570 0.460853 0.000000
0.783841 0.468818 0.000000
0.820340 0.464790 0.000000
0.854734 0.459419 0.000000
0.888548 0.454170 0.000000
0.921965 0.448493 0.000000
0.954864 0.443244 0.000000
0.986969 0.437537 0.000000
1.000000 0.431464 0.000000
1.000000 0.425360 0.000000
1.000000 0.418738 0.000000
1.000000 0.412055 0.000000
0.000000 0.383734 0.105898
0.000000 0.384131 0.105928
0.000000 0.384710 0.105287
0.000000 0.385473 0.104433
0.000000 0.386419 0.102815
0.000000 0.387610 0.100038
0.000000 0.387823 0.098177
0.065126 0.386786 0.099458
0.140352 0.384710 0.099886
0.187839 0.386206 0.099641
0.229801 0.388373 0.098695
0.268498 0.390448 0.098512
0.306065 0.392920 0.097414
0.343664 0.395727 0.096071
0.381903 0.399725 0.093965
0.409552 0.393500 0.102510
0.465034 0.407599 0.084260
0.539269 0.438758 0.000000
0.608453 0.463111 0.000000
0.671382 0.481025 0.000000
0.727413 0.493111 0.000000
0.778531 0.501335 0.000000
0.825986 0.506920 0.000000
0.869505 0.509545 0.000000
0.902312 0.502861 0.000000
0.934569 0.496376 0.000000
0.966217 0.489754 0.000000
0.997131 0.483101 0.000000
1.000000 0.476204 0.000000
1.000000 0.469154 0.000000
1.000000 0.462104 0.000000
1.000000 0.454627 0.000000
0.000000 0.463722 0.012268
0.000000 0.463874 0.011627
0.000000 0.464546 0.009888
0.000000 0.465034 0.004608
0.000000 0.465858 0.000916
0.000000 0.466682 0.000000
0.000000 0.467201 0.000000
0.000000 0.465736 0.000000
0.122713 0.463264 0.000000
0.186618 0.460822 0.000000
0.239414 0.462379 0.000000
0.286259 0.463996 0.000000
0.329747 0.465461 0.000000
0.372076 0.467597 0.000000
0.414130 0.470375 0.000000
0.456855 0.473884 0.000000
0.490761 0.469429 0.000000
0.535760 0.470985 0.000000
0.601587 0.493019 0.000000
0.664698 0.511803 0.000000
0.720485 0.524346 0.000000
0.771603 0.532952 0.000000
0.819242 0.538933 0.000000
0.865019 0.543114 0.000000
0.908812 0.546166 0.000000
0.946532 0.544396 0.000000
0.976928 0.536736 0.000000
1.000000 0.528832 0.000000
1.000000 0.520989 0.000000
1.000000 0.513054 0.000000
1.000000 0.505058 0.000000
1.000000 0.497017 0.000000
0.000000 0.538628 0.000000
0.000000 0.538445 0.000000
0.000000 0.538628 0.000000
0.000000 0.538750 0.000000
0.000000 0.538659 0.000000
0.000000 0.538659 0.000000
0.000000 0.538018 0.000000
0.000000 0.536522 0.000000
0.041993 0.533593 0.000000
0.172213 0.530114 0.000000
0.236301 0.528923 0.000000
0.291295 0.530083 0.000000
0.340948 0.531609 0.000000
0.388098 0.533257 0.000000
0.433539 0.535424 0.000000
0.479042 0.537713 0.000000
0.523980 0.540429 0.000000
0.563073 0.537499 0.000000
0.598657 0.529198 0.000000
0.655421 0.541253 0.000000
0.711940 0.554681 0.000000
0.763760 0.563745 0.000000
0.811429 0.569909 0.000000
0.857298 0.574426 0.000000
0.901396 0.577691 0.000000
0.943389 0.579614 0.000000
0.982635 0.580713 0.000000
1.000000 0.575311 0.000000
1.000000 0.566217 0.000000
1.000000 0.557549 0.000000
1.000000 0.548882 0.000000
1.000000 0.540612 0.007721
0.000000 0.603174 0.000000
0.000000 0.603143 0.000000
0.000000 0.603052 0.000000
0.000000 0.602869 0.000000
0.000000 0.602533 0.000000
0.000000 0.602106 0.000000
0.000000 0.601129 0.000000
0.000000 0.599939 0.000000
0.000000 0.597162 0.000000
0.141268 0.593866 0.000000
0.221988 0.589654 0.000000
0.286717 0.589929 0.000000
0.342199 0.590814 0.000000
0.392889 0.591638 0.000000
0.441413 0.592706 0.000000
0.488624 0.594018 0.000000
0.534905 0.595239 0.000000
0.580713 0.596521 0.000000
0.623987 0.595636 0.000000
0.652033 0.579919 0.000000
0.701137 0.583246 0.000000
0.753597 0.593286 0.000000
0.802518 0.600244 0.000000
0.848814 0.605127 0.000000
0.893309 0.608606 0.000000
0.935485 0.610834 0.000000
0.975158 0.611963 0.000000
1.000000 0.612055 0.000000
1.000000 0.611536 0.000000
1.000000 0.603296 0.038636
1.000000 0.593896 0.098939
1.000000 0.585168 0.129427
0.000000 0.655787 0.000000
0.000000 0.655665 0.000000
0.000000 0.646113 0.000000
0.000000 0.645869 0.000000
0.000000 0.645502 0.000000
0.000000 0.645136 0.000000
0.000000 0.644282 0.000000
0.000000 0.643061 0.000000
0.000000 0.641047 0.000000
0.047456 0.638087 0.000000
0.196078 0.634516 0.000000
0.266209 0.631983 0.000000
0.327459 0.632624 0.000000
0.382422 0.633265 0.000000
0.433234 0.634089 0.000000
0.482185 0.635248 0.000000
0.529778 0.636347 0.000000
0.576623 0.637476 0.000000
0.622797 0.638483 0.000000
0.667628 0.638453 0.000000
0.694087 0.621302 0.000000
0.738064 0.618585 0.000000
0.788113 0.626795 0.000000
0.836179 0.632959 0.000000
0.882017 0.637446 0.000000
0.925383 0.640436 0.000000
0.966064 0.642054 0.000000
1.000000 0.642481 0.000000
1.000000 0.642329 0.000000
1.000000 0.641871 0.117464
1.000000 0.641230 0.194888
1.000000 0.632349 0.215213
0.000000 0.697841 0.000000
0.000000 0.697108 0.000000
0.000000 0.696132 0.000000
0.000000 0.695247 0.000000
0.000000 0.694362 0.000000
0.000000 0.693385 0.000000
0.000000 0.692500 0.000000
0.000000 0.691524 0.000000
0.000000 0.689937 0.000000
0.000000 0.687404 0.000000
0.158663 0.684291 0.000000
0.245640 0.680659 0.000000
0.313329 0.679652 0.000000
0.372595 0.679835 0.000000
0.426368 0.680171 0.000000
0.477394 0.680598 0.000000
0.526146 0.680964 0.000000
0.573541 0.681270 0.000000
0.620417 0.681453 0.000000
0.666102 0.681361 0.000000
0.711238 0.680964 0.000000
0.737240 0.663447 0.000000
0.777249 0.655726 0.000000
0.825681 0.661982 0.000000
0.872404 0.667323 0.000000
0.916899 0.670802 0.000000
0.958099 0.672755 0.000000
0.996216 0.673274 0.000000
1.000000 0.673060 0.000000
1.000000 0.672633 0.106996
1.000000 0.672877 0.204929
1.000000 0.674647 0.275914
0.000000 0.739803 0.000000
0.000000 0.739101 0.000000
0.000000 0.738155 0.000000
0.000000 0.737331 0.000000
0.000000 0.736446 0.000000
0.000000 0.735592 0.000000
0.000000 0.734676 0.000000
0.000000 0.733639 0.000000
0.000000 0.732296 0.000000
0.000000 0.730282 0.000000
0.083009 0.727596 0.000000
0.217746 0.724300 0.000000
0.290745 0.721157 0.000000
0.356176 0.721004 0.000000
0.413489 0.721004 0.000000
0.466529 0.721035 0.000000
0.517205 0.721065 0.000000
0.565759 0.721096 0.000000
0.613306 0.720882 0.000000
0.659663 0.720577 0.000000
0.705287 0.720119 0.000000
0.750423 0.719417 0.000000
0.778958 0.704219 0.000000
0.816434 0.694179 0.000000
0.861570 0.696132 0.000000
0.906981 0.700374 0.000000
0.949401 0.702724 0.000000
0.988190 0.703517 0.000000
1.000000 0.703334 0.000000
1.000000 0.702785 0.078889
1.000000 0.702815 0.203830
1.000000 0.704280 0.282689
0.000000 0.778561 0.000000
0.000000 0.777981 0.000000
0.000000 0.777188 0.000000
0.000000 0.776455 0.000000
0.000000 0.775631 0.000000
0.000000 0.774868 0.000000
0.000000 0.774105 0.000000
0.000000 0.773007 0.000000
0.000000 0.771817 0.000000
0.000000 0.770047 0.000000
0.000000 0.767666 0.000000
0.176669 0.764767 0.000000
0.266178 0.761563 0.000000
0.335119 0.759518 0.000000
0.396857 0.759365 0.000000
0.452796 0.759121 0.000000
0.504906 0.758785 0.000000
0.554742 0.758358 0.000000
0.602899 0.757687 0.000000
0.649683 0.756893 0.000000
0.695338 0.755886 0.000000
0.740414 0.754635 0.000000
0.784787 0.753384 0.000000
0.816892 0.741512 0.000000
0.850645 0.728664 0.000000
0.892424 0.726314 0.000000
0.935698 0.729427 0.000000
0.975830 0.730678 0.000000
1.000000 0.730495 0.000000
1.000000 0.729793 0.000000
1.000000 0.729519 0.179995
1.000000 0.730312 0.271122
0.000000 0.811795 0.000000
0.000000 0.811551 0.000000
0.000000 0.811246 0.000000
0.000000 0.810880 0.000000
0.000000 0.810513 0.000000
0.000000 0.810056 0.000000
0.000000 0.809384 0.000000
0.000000 0.808560 0.000000
0.000000 0.807431 0.000000
0.000000 0.805936 0.000000
0.000000 0.803769 0.000000
0.106844 0.801144 0.000000
0.234592 0.798306 0.000000
0.309514 0.795071 0.000000
0.375647 0.794308 0.000000
0.435309 0.794034 0.000000
0.489693 0.793729 0.000000
0.541009 0.793362 0.000000
0.590448 0.792813 0.000000
0.638361 0.792050 0.000000
0.684749 0.791318 0.000000
0.730556 0.790311 0.000000
0.775570 0.789212 0.000000
0.820157 0.788022 0.000000
0.856077 0.779568 0.000000
0.886839 0.764645 0.000000
0.925353 0.758145 0.000000
0.966247 0.759945 0.000000
1.000000 0.760037 0.000000
1.000000 0.758968 0.000000
1.000000 0.758358 0.162783
1.000000 0.758724 0.269627
0.000000 0.846769 0.000000
0.000000 0.846555 0.000000
0.000000 0.846281 0.000000
0.000000 0.845975 0.000000
0.000000 0.845579 0.000000
0.000000 0.845182 0.000000
0.000000 0.844541 0.000000
0.000000 0.843717 0.000000
0.000000 0.842710 0.000000
0.000000 0.841428 0.000000
0.000000 0.839597 0.000000
0.000000 0.837369 0.000000
0.195895 0.834684 0.000000
0.284886 0.831754 0.000000
0.353063 0.829160 0.000000
0.416602 0.828733 0.000000
0.473487 0.828275 0.000000
0.526421 0.827726 0.000000
0.576989 0.827024 0.000000
0.625574 0.826169 0.000000
0.672938 0.825193 0.000000
0.718837 0.824125 0.000000
0.764096 0.822934 0.000000
0.808713 0.821561 0.000000
0.854704 0.821805 0.000000
0.893736 0.816373 0.000000
0.921599 0.799557 0.000000
0.957092 0.789303 0.000000
0.994995 0.789792 0.000000
1.000000 0.788968 0.000000
1.000000 0.787442 0.147402
1.000000 0.786984 0.263432
0.000000 0.877562 0.000000
0.000000 0.877256 0.000000
0.000000 0.877073 0.000000
0.000000 0.876860 0.000000
0.000000 0.876738 0.000000
0.000000 0.876585 0.000000
0.000000 0.876310 0.000000
0.000000 0.875883 0.000000
0.000000 0.875212 0.000000
0.000000 0.874327 0.000000
0.000000 0.873198 0.000000
0.000000 0.871397 0.000000
0.141390 0.869322 0.000000
0.256870 0.867002 0.000000
0.330877 0.864408 0.000000
0.396216 0.863066 0.000000
0.456611 0.862699 0.000000
0.511894 0.862119 0.000000
0.563836 0.861326 0.000000
0.613184 0.860349 0.000000
0.660975 0.859220 0.000000
0.707393 0.858030 0.000000
0.753048 0.856718 0.000000
0.797848 0.855497 0.000000
0.842191 0.854185 0.000000
0.885985 0.852811 0.000000
0.927855 0.850126 0.000000
0.953124 0.832364 0.000000
0.986908 0.820951 0.000000
1.000000 0.818448 0.000000
1.000000 0.817075 0.163577
1.000000 0.815793 0.268223
0.000000 0.908751 0.000000
0.000000 0.908507 0.000000
0.000000 0.908293 0.000000
0.000000 0.908049 0.000000
0.000000 0.907805 0.000000
0.000000 0.907500 0.000000
0.000000 0.907073 0.000000
0.000000 0.906493 0.000000
0.000000 0.905699 0.000000
0.000000 0.904692 0.000000
0.000000 0.903593 0.000000
0.000000 0.902129 0.000000
0.000000 0.900237 0.000000
0.226078 0.898192 0.000000
0.309392 0.895995 0.000000
0.374273 0.893553 0.000000
0.437690 0.893034 0.000000
0.494667 0.892424 0.000000
0.547936 0.891661 0.000000
0.598291 0.890623 0.000000
0.646693 0.889433 0.000000
0.693446 0.888151 0.000000
0.739071 0.886809 0.000000
0.783749 0.885405 0.000000
0.827604 0.883940 0.000000
0.871061 0.882383 0.000000
0.913848 0.880735 0.000000
0.957519 0.880461 0.000000
0.980133 0.862028 0.000000
1.000000 0.850401 0.000000
1.000000 0.844907 0.165347
1.000000 0.843473 0.275639
0.000000 0.935729 0.000000
0.000000 0.935607 0.000000
0.000000 0.935485 0.000000
0.000000 0.935332 0.000000
0.000000 0.935149 0.000000
0.000000 0.934905 0.000000
0.000000 0.934569 0.000000
0.000000 0.934142 0.000000
0.000000 0.933501 0.000000
0.000000 0.932738 0.000000
0.000000 0.931853 0.000000
0.000000 0.930694 0.000000
0.000000 0.929168 0.000000
0.199405 0.927459 0.000000
0.290898 0.925597 0.000000
0.359167 0.923552 0.000000
0.419837 0.921904 0.000000
0.478859 0.921202 0.000000
0.533196 0.920348 0.000000
0.584161 0.919310 0.000000
0.632837 0.918120 0.000000
0.679744 0.916838 0.000000
0.725277 0.915435 0.000000
0.769924 0.913970 0.000000
0.813443 0.912535 0.000000
0.856229 0.910948 0.000000
0.898314 0.909331 0.000000
0.939788 0.907591 0.000000
0.982666 0.907591 0.000000
1.000000 0.891508 0.145113
1.000000 0.879423 0.214633
1.000000 0.871702 0.287694
0.000000 0.960388 0.000000
0.000000 0.960296 0.000000
0.000000 0.960204 0.000000
0.000000 0.960052 0.000000
0.000000 0.959838 0.000000
0.000000 0.959533 0.000000
0.000000 0.959014 0.000000
0.000000 0.958312 0.000000
0.000000 0.957519 0.000000
0.000000 0.956512 0.000000
0.000000 0.955413 0.000000
0.000000 0.954162 0.000000
0.000000 0.952697 0.000000
0.181064 0.950958 0.000000
0.276524 0.949187 0.000000
0.346044 0.947387 0.000000
0.404181 0.945495 0.000000
0.462074 0.944366 0.000000
0.517082 0.943420 0.000000
0.568200 0.942351 0.000000
0.616876 0.941161 0.000000
0.663600 0.939879 0.000000
0.708797 0.938506 0.000000
0.752834 0.937133 0.000000
0.795895 0.935668 0.000000
0.838102 0.934173 0.000000
0.879423 0.932586 0.061982
0.920043 0.930907 0.134218
0.959869 0.929107 0.171298
1.000000 0.928801 0.208499
1.000000 0.916381 0.266758
1.000000 0.904112 0.317479
0.000000 0.979980 0.187167
0.000000 0.979980 0.186831
0.000000 0.979980 0.187076
0.000000 0.979889 0.184787
0.000000 0.979797 0.183474
0.000000 0.979644 0.178866
0.000000 0.979400 0.174075
0.000000 0.979065 0.166018
0.000000 0.978637 0.155306
0.000000 0.978119 0.141878
0.000000 0.977447 0.122225
0.000000 0.976715 0.092409
0.000000 0.975830 0.006989
0.202884 0.974609 0.000000
