20 Preset/Human Style/【3】LUT video cho PR-AE-FCPX/Joe-Allam/JA – Faded Soft 3.cube
# Created by Adobe Lightroom plugin Export LUT (1.24.0)
# www.johnrellis.com/lightroom/exportlut.htm
# Preset: JA – Faded Soft 3
# Color profile: E:\lut插件\exportlut.1.24\exportlut.lrplugin\color profiles\Rec709gamma2.4.icc
LUT_3D_SIZE 5
DOMAIN_MIN 0.000000 0.000000 0.000000
DOMAIN_MAX 0.903226 0.903226 0.903226
0.074342 0.085328 0.095247
0.231449 0.031830 0.105074
0.547051 0.000000 0.104707
0.926390 0.164187 0.000000
1.000000 0.236484 0.000000
0.036378 0.230320 0.083894
0.251957 0.236667 0.092103
0.566339 0.268284 0.000000
0.923400 0.318975 0.000000
1.000000 0.324987 0.000000
0.245274 0.560266 0.000000
0.374884 0.559869 0.000000
0.667475 0.600183 0.000000
0.919738 0.569116 0.000000
1.000000 0.516014 0.000000
0.396429 0.813230 0.129061
0.477394 0.809018 0.068025
0.670069 0.808194 0.107271
0.894041 0.802243 0.185672
1.000000 0.724605 0.137758
0.563867 0.928191 0.438911
0.589136 0.927611 0.419104
0.689418 0.922576 0.401221
0.844694 0.919463 0.456245
0.991913 0.912413 0.531945
0.079316 0.090791 0.252842
0.188083 0.089723 0.233280
0.515618 0.021790 0.226658
0.906889 0.169009 0.181674
1.000000 0.253544 0.103731
0.000000 0.220096 0.263951
0.221744 0.238041 0.260563
0.550072 0.256229 0.233371
0.910155 0.303075 0.170230
1.000000 0.327855 0.105776
0.000000 0.563195 0.272526
0.310155 0.560357 0.249302
0.641718 0.585748 0.236881
0.907103 0.554559 0.172854
1.000000 0.513237 0.156588
0.355505 0.815366 0.318822
0.442878 0.812222 0.297032
0.657862 0.807645 0.289464
0.886198 0.801816 0.331853
1.000000 0.725460 0.287633
0.591791 0.925444 0.532677
0.609796 0.925139 0.515007
0.702998 0.923156 0.495338
0.847318 0.919860 0.535637
0.985565 0.914275 0.596155
0.138949 0.000000 0.625818
0.270176 0.025116 0.609857
0.465461 0.162722 0.535637
0.811124 0.170596 0.541802
1.000000 0.330266 0.513695
0.000000 0.206271 0.652461
0.270634 0.256199 0.632685
0.490974 0.271733 0.555535
0.838865 0.283330 0.546838
1.000000 0.431281 0.540826
0.000000 0.574212 0.656977
0.116945 0.577905 0.650141
0.582330 0.590295 0.612207
0.862760 0.581628 0.579644
1.000000 0.563500 0.539330
0.525902 0.812131 0.685206
0.557824 0.808835 0.678889
0.651667 0.801602 0.626886
0.846708 0.802976 0.646845
0.988251 0.752956 0.595087
0.675654 0.916503 0.721065
0.686000 0.916625 0.715175
0.733364 0.916472 0.684932
0.846006 0.915557 0.685481
0.966705 0.913909 0.709529
0.281193 0.155550 0.853574
0.356237 0.184421 0.850340
0.539391 0.235599 0.834257
0.743130 0.281529 0.795651
0.940429 0.446693 0.744656
0.275639 0.269261 0.855741
0.375586 0.316777 0.850858
0.551843 0.346410 0.834073
0.746883 0.371618 0.794766
0.929320 0.509880 0.746822
0.257939 0.496254 0.856657
0.406928 0.531304 0.852354
0.666987 0.653040 0.827329
0.764645 0.626917 0.788754
0.909392 0.672724 0.768429
0.624414 0.795254 0.835355
0.648066 0.797147 0.833677
0.723415 0.804227 0.827970
0.807034 0.801999 0.807218
0.937041 0.795804 0.791379
0.747280 0.914519 0.853025
0.754086 0.914641 0.851316
0.780026 0.915251 0.841947
0.831693 0.913909 0.805875
0.946838 0.915496 0.813901
0.411078 0.332280 0.944854
0.454475 0.358343 0.942748
0.575952 0.419898 0.936065
0.730617 0.514427 0.920897
0.867765 0.587549 0.898131
0.422217 0.382391 0.943206
0.493507 0.440955 0.939483
0.610346 0.502098 0.931792
0.745083 0.570459 0.916930
0.868070 0.618555 0.895323
0.450843 0.511101 0.942901
0.531060 0.561364 0.938140
0.718898 0.696376 0.922026
0.789425 0.706294 0.910124
0.874693 0.707515 0.892363
0.624353 0.743404 0.931518
0.645075 0.748440 0.930480
0.718990 0.768948 0.927886
0.834867 0.821592 0.916838
0.893523 0.809171 0.899657
0.753262 0.892180 0.924529
0.762051 0.893400 0.924254
0.798642 0.899382 0.924102
0.857969 0.909392 0.923247
0.919005 0.913634 0.913603
