20 Preset/Human Style/【3】LUT video cho PR-AE-FCPX/Joe-Allam/JA – Shaded Light 1.cube
# Created by Adobe Lightroom plugin Export LUT (1.24.0)
# www.johnrellis.com/lightroom/exportlut.htm
# Preset: JA – Shaded Light 1
# Color profile: E:\lut插件\exportlut.1.24\exportlut.lrplugin\color profiles\Rec709gamma2.4.icc
LUT_3D_SIZE 32
DOMAIN_MIN 0.0 0.0 0.0
DOMAIN_MAX 1.0 1.0 1.0
0.047120 0.060426 0.076631
0.047120 0.060426 0.076631
0.047120 0.060426 0.076631
0.047120 0.060426 0.076631
0.047120 0.060426 0.076631
0.047120 0.060426 0.076631
0.071962 0.058717 0.077485
0.093446 0.055665 0.078248
0.106081 0.052399 0.078767
0.116335 0.049348 0.079988
0.127230 0.046601 0.080385
0.138918 0.046143 0.081178
0.151186 0.050111 0.082887
0.165805 0.055024 0.082856
0.182040 0.061830 0.083772
0.200076 0.069856 0.084230
0.219516 0.078462 0.088228
0.239048 0.084413 0.091432
0.257939 0.088685 0.094514
0.275486 0.091768 0.097353
0.293187 0.095064 0.099947
0.313878 0.098756 0.101930
0.340856 0.101991 0.104524
0.378363 0.105623 0.105776
0.428107 0.108949 0.105806
0.486885 0.112673 0.104555
0.549432 0.117556 0.101961
0.610956 0.122896 0.099580
0.668757 0.128389 0.098116
0.722927 0.134798 0.098238
0.772549 0.141573 0.100526
0.818173 0.149020 0.105287
0.047120 0.060426 0.076631
0.047120 0.060426 0.076631
0.047120 0.060426 0.076631
0.047120 0.060426 0.076631
0.047120 0.060426 0.076631
0.047120 0.060426 0.076631
0.075929 0.058259 0.077485
0.096193 0.054780 0.078218
0.107851 0.051728 0.078737
0.118135 0.049653 0.080568
0.129946 0.045289 0.080354
0.141604 0.047944 0.082277
0.154726 0.051270 0.082551
0.169711 0.056703 0.083101
0.186404 0.065003 0.083101
0.204715 0.073365 0.084871
0.224216 0.080232 0.089052
0.243748 0.085725 0.092622
0.262425 0.090211 0.095125
0.280308 0.093324 0.097902
0.298741 0.096651 0.100710
0.321202 0.100038 0.102846
0.351141 0.103761 0.104952
0.392523 0.106996 0.105928
0.445197 0.110689 0.105531
0.505486 0.115389 0.104067
0.568292 0.119936 0.101534
0.628534 0.125704 0.099092
0.684810 0.131685 0.098482
0.737514 0.138643 0.099123
0.785611 0.145907 0.102022
0.830259 0.153231 0.107332
0.047120 0.060426 0.076631
0.047120 0.060426 0.076631
0.047120 0.060426 0.076631
0.047120 0.060426 0.076631
0.047120 0.060426 0.076631
0.048402 0.061402 0.076478
0.081270 0.058564 0.077302
0.097993 0.055299 0.078126
0.109316 0.052247 0.079347
0.120760 0.048554 0.079835
0.131472 0.048951 0.080659
0.143099 0.053834 0.081697
0.156924 0.057679 0.082551
0.172427 0.063630 0.083711
0.189487 0.072480 0.083619
0.208255 0.080018 0.085969
0.227756 0.086152 0.089998
0.247044 0.090517 0.093111
0.265782 0.093507 0.095979
0.283391 0.096376 0.098390
0.302159 0.100038 0.101045
0.325628 0.103578 0.103365
0.357275 0.106386 0.105287
0.400580 0.110536 0.106142
0.454627 0.115358 0.105470
0.515679 0.119844 0.103578
0.578393 0.125216 0.101259
0.637751 0.131441 0.098909
0.693233 0.138460 0.098299
0.745357 0.144900 0.099641
0.792813 0.151736 0.103243
0.837064 0.159884 0.108797
0.047120 0.060426 0.076631
0.047120 0.060426 0.076631
0.047120 0.060426 0.076631
0.047120 0.060426 0.076631
0.047120 0.060426 0.076631
0.056367 0.060517 0.076417
0.086213 0.057679 0.077272
0.100618 0.054414 0.078096
0.111421 0.054749 0.079744
0.121248 0.057282 0.079774
0.132204 0.060853 0.081727
0.144961 0.065034 0.082033
0.158999 0.070832 0.082704
0.174960 0.078401 0.082948
0.192538 0.084108 0.084871
0.212100 0.088777 0.088685
0.232273 0.092866 0.091371
0.251926 0.096345 0.094362
0.270848 0.099489 0.097475
0.288975 0.103120 0.099580
0.309728 0.105867 0.102419
0.335698 0.109377 0.104372
0.370062 0.113405 0.105928
0.414862 0.118257 0.106203
0.468635 0.123140 0.105470
0.527550 0.129244 0.103182
0.586938 0.135561 0.100618
0.643671 0.141909 0.098817
0.697688 0.148470 0.098054
0.748775 0.155734 0.099245
0.796475 0.162661 0.103212
0.841855 0.169986 0.109926
0.045960 0.065003 0.077150
0.045960 0.065003 0.077150
0.045258 0.066224 0.076997
0.043854 0.068605 0.076692
0.043091 0.071992 0.078370
0.064088 0.074128 0.077821
0.088716 0.076112 0.078065
0.101381 0.076448 0.079011
0.111635 0.076997 0.079957
0.122835 0.078584 0.080690
0.134096 0.080690 0.081910
0.147585 0.083619 0.082826
0.162570 0.087434 0.082673
0.178714 0.091127 0.083406
0.197024 0.094850 0.087922
0.216403 0.098024 0.090455
0.235752 0.102052 0.093538
0.255222 0.105074 0.095949
0.273472 0.107698 0.098360
0.291722 0.111086 0.101076
0.313329 0.114321 0.103670
0.340459 0.118135 0.105287
0.376287 0.122866 0.106783
0.422095 0.128176 0.106600
0.475746 0.134340 0.105409
0.533959 0.141329 0.103090
0.592279 0.148562 0.100160
0.648432 0.155734 0.098329
0.702296 0.163241 0.097322
0.753384 0.170443 0.098909
0.801053 0.177920 0.103822
0.846464 0.185885 0.110567
0.035615 0.089204 0.080537
0.035615 0.089204 0.080537
0.036591 0.089570 0.081147
0.035157 0.090455 0.080964
0.037964 0.092012 0.081270
0.061646 0.093080 0.082155
0.089082 0.094484 0.079988
0.100099 0.092409 0.080079
0.111055 0.092531 0.081025
0.121828 0.093294 0.081758
0.134127 0.094331 0.082277
0.147494 0.096376 0.083070
0.162814 0.099153 0.084138
0.179629 0.101930 0.087007
0.197910 0.105776 0.089937
0.217014 0.109224 0.092378
0.236393 0.112367 0.094972
0.255283 0.115175 0.097383
0.273136 0.117952 0.099702
0.291508 0.120668 0.102052
0.313054 0.124117 0.104189
0.340185 0.128328 0.106325
0.322484 0.121736 0.105074
0.353796 0.126223 0.106661
0.396094 0.132601 0.106783
0.449317 0.139620 0.105715
0.509239 0.148287 0.103029
0.571740 0.156924 0.099489
0.632013 0.165530 0.096223
0.689540 0.173556 0.094728
0.744472 0.181918 0.094850
0.796048 0.190616 0.097902
0.028534 0.097108 0.082277
0.028260 0.097108 0.082979
0.027527 0.097505 0.082887
0.028809 0.097841 0.082795
0.036011 0.098695 0.083894
0.053468 0.099153 0.084291
0.077974 0.100771 0.084260
0.095155 0.102052 0.081361
0.106111 0.099763 0.081575
0.116152 0.100252 0.082399
0.127077 0.101137 0.083040
0.139406 0.103395 0.083162
0.153201 0.105653 0.085176
0.169314 0.109010 0.088777
0.186893 0.112673 0.091432
0.206058 0.116182 0.093477
0.225589 0.119966 0.095521
0.244846 0.123079 0.097505
0.263035 0.125795 0.099794
0.279911 0.128328 0.101991
0.297978 0.130648 0.104341
0.317967 0.133883 0.106050
0.342473 0.137606 0.107057
0.374914 0.142428 0.107698
0.416876 0.148928 0.107271
0.468635 0.157382 0.105379
0.527581 0.167086 0.102022
0.589075 0.177127 0.098360
0.648035 0.187106 0.095064
0.705348 0.196262 0.093751
0.759243 0.205112 0.095338
0.809995 0.213687 0.099977
0.019104 0.108278 0.087129
0.019104 0.108278 0.087129
0.023102 0.108125 0.087098
0.029328 0.108583 0.087617
0.041199 0.108827 0.088441
0.057618 0.109560 0.089021
0.078431 0.110780 0.089479
0.093507 0.112703 0.087526
0.107179 0.114168 0.084443
0.118013 0.111757 0.083314
0.129122 0.113100 0.085847
0.142000 0.115114 0.088380
0.156313 0.118685 0.090486
0.172030 0.122896 0.093141
0.190158 0.126650 0.094697
0.209476 0.130526 0.096345
0.229129 0.133883 0.098299
0.248203 0.137240 0.100069
0.266239 0.139528 0.102266
0.283696 0.142153 0.104616
0.302617 0.144900 0.106569
0.324407 0.148440 0.107942
0.351507 0.152956 0.108980
0.386694 0.159121 0.108705
0.430365 0.167300 0.107515
0.483314 0.177066 0.105104
0.542107 0.188479 0.101045
0.602045 0.199893 0.096529
0.659968 0.210300 0.093874
0.716274 0.220249 0.092622
0.768978 0.230014 0.094514
0.818906 0.238956 0.099947
0.025269 0.119814 0.090700
0.025269 0.119814 0.090700
0.028229 0.120027 0.091035
0.035462 0.120089 0.090974
0.046632 0.120607 0.091646
0.063050 0.121279 0.092226
0.081422 0.122316 0.093538
0.093935 0.124331 0.092927
0.106325 0.126741 0.092561
0.120150 0.128847 0.091737
0.130282 0.126680 0.091890
0.143801 0.127840 0.092866
0.158785 0.131289 0.093996
0.175235 0.135317 0.095918
0.192691 0.139803 0.097566
0.211002 0.144411 0.099702
0.230228 0.148257 0.100984
0.249119 0.151369 0.102632
0.266880 0.154025 0.104616
0.284947 0.156527 0.106752
0.304845 0.159609 0.108797
0.328038 0.163699 0.109712
0.357031 0.169375 0.110384
0.394354 0.176761 0.109926
0.439643 0.186587 0.107973
0.493202 0.197971 0.104616
0.551568 0.211032 0.099855
0.610590 0.223056 0.095735
0.667506 0.234867 0.092439
0.723018 0.245975 0.091066
0.775143 0.255711 0.093111
0.824949 0.264744 0.100038
0.028565 0.133761 0.095888
0.027863 0.134005 0.095827
0.030823 0.134188 0.096162
0.038331 0.134707 0.096376
0.047791 0.135683 0.097261
0.064485 0.136690 0.098085
0.083101 0.137789 0.099245
0.094759 0.139925 0.099702
0.107210 0.142428 0.099275
0.121492 0.145235 0.098299
0.136965 0.147860 0.097200
0.150423 0.147463 0.096040
0.163485 0.146273 0.097017
0.180240 0.150240 0.097993
0.197513 0.154269 0.099550
0.214633 0.158419 0.101228
0.231907 0.162264 0.103548
0.248264 0.165835 0.105745
0.265599 0.168276 0.107668
0.283848 0.170840 0.109316
0.304845 0.174502 0.111269
0.330449 0.179751 0.112490
0.363348 0.187411 0.112642
0.404883 0.197604 0.111086
0.453742 0.209934 0.107790
0.509606 0.223606 0.103883
0.567712 0.237797 0.098299
0.624842 0.250980 0.093324
0.680140 0.263035 0.090364
0.733455 0.273960 0.089265
0.783566 0.283757 0.092531
0.831998 0.292668 0.100221
0.016693 0.154086 0.101411
0.016693 0.154086 0.101411
0.020935 0.154391 0.101656
0.028443 0.154818 0.101869
0.040894 0.155337 0.102388
0.057588 0.156191 0.103151
0.080842 0.157229 0.104158
0.094575 0.158572 0.105013
0.107851 0.160433 0.104677
0.122072 0.163180 0.104036
0.137911 0.165927 0.102510
0.155032 0.168795 0.101167
0.171237 0.169863 0.099519
0.183169 0.165927 0.100099
0.200534 0.169253 0.100526
0.217929 0.172976 0.101778
0.234501 0.176272 0.104494
0.250309 0.179355 0.107057
0.266087 0.182589 0.110353
0.283299 0.186282 0.112917
0.305425 0.190646 0.114382
0.332280 0.196994 0.114961
0.367163 0.206149 0.114443
0.410071 0.217960 0.112703
0.460273 0.232059 0.108583
0.515892 0.247471 0.103700
0.573510 0.262821 0.097566
0.629816 0.276982 0.091737
0.684688 0.289586 0.088197
0.737362 0.301244 0.086366
0.786984 0.311467 0.090303
0.835142 0.320775 0.097993
0.000000 0.175113 0.105867
0.000000 0.175051 0.105867
0.001068 0.175326 0.106111
0.008576 0.175692 0.106325
0.023316 0.176120 0.106447
0.043977 0.176730 0.107179
0.070893 0.177584 0.108125
0.092073 0.178470 0.109010
0.106264 0.179385 0.110109
0.121523 0.181521 0.109224
0.137301 0.184054 0.107790
0.154086 0.186740 0.106172
0.158236 0.173617 0.102205
0.174075 0.175479 0.100343
0.185641 0.171908 0.101228
0.202090 0.174136 0.101228
0.219059 0.177951 0.102083
0.235264 0.181338 0.104707
0.250584 0.184512 0.107240
0.265995 0.187686 0.110536
0.282658 0.191653 0.113008
0.302953 0.197086 0.115480
0.331273 0.204776 0.116060
0.368963 0.216098 0.115053
0.416175 0.231052 0.112612
0.471748 0.248386 0.107301
0.532341 0.267369 0.100313
0.593774 0.285405 0.092531
0.653162 0.301762 0.084443
0.710506 0.316411 0.078981
0.764492 0.328954 0.079957
0.815457 0.340307 0.088502
0.000000 0.186404 0.108125
0.000000 0.186557 0.108064
0.000000 0.187106 0.108217
0.000000 0.187869 0.108614
0.007752 0.189029 0.109194
0.025849 0.190524 0.109926
0.051575 0.191897 0.110964
0.084443 0.192966 0.111727
0.101259 0.194064 0.112764
0.116670 0.194705 0.113527
0.131868 0.196109 0.111818
0.147341 0.197177 0.110140
0.163912 0.198276 0.107973
0.180453 0.199832 0.105806
0.196658 0.200381 0.103914
0.207858 0.195590 0.104250
0.223636 0.194827 0.104341
0.239719 0.197787 0.105501
0.255558 0.200473 0.108003
0.271702 0.204044 0.111910
0.290227 0.208865 0.115297
0.312749 0.215763 0.117708
0.341833 0.226200 0.118654
0.380163 0.239994 0.117800
0.429419 0.257145 0.113588
0.485359 0.276432 0.107179
0.545159 0.296269 0.098604
0.604242 0.314702 0.090364
0.661891 0.331273 0.079438
0.717525 0.346136 0.069978
0.770169 0.358953 0.072541
0.820554 0.370336 0.083650
0.000000 0.210697 0.113283
0.000000 0.210941 0.113527
0.000000 0.211521 0.113924
0.000000 0.212406 0.114168
0.000000 0.213748 0.114595
0.000031 0.214969 0.115572
0.031006 0.216190 0.116548
0.070649 0.217166 0.117494
0.097566 0.217868 0.118746
0.115053 0.218112 0.119814
0.131258 0.218387 0.119997
0.147951 0.218997 0.117952
0.164584 0.219577 0.115480
0.181521 0.220432 0.113100
0.198795 0.221866 0.110903
0.216434 0.222477 0.108248
0.229679 0.219547 0.107607
0.242618 0.214694 0.108309
0.258854 0.217136 0.110323
0.276982 0.221225 0.111788
0.297307 0.227024 0.115084
0.322515 0.235599 0.117861
0.354681 0.248020 0.118379
0.393866 0.263645 0.117037
0.439429 0.282261 0.113497
0.492714 0.302739 0.107332
0.551598 0.323735 0.097414
0.609552 0.342901 0.086732
0.666651 0.360143 0.071260
0.721309 0.375586 0.056886
0.773129 0.388617 0.058961
0.823178 0.400366 0.072572
0.000000 0.233219 0.120424
0.000000 0.233310 0.120394
0.000000 0.233921 0.120729
0.000000 0.234806 0.121248
0.000000 0.235935 0.121889
0.000000 0.237064 0.123018
0.008270 0.238193 0.124117
0.051575 0.239017 0.125277
0.091798 0.239506 0.126467
0.111757 0.239567 0.127749
0.129976 0.239200 0.129091
0.146700 0.239200 0.127962
0.163638 0.239567 0.125551
0.180392 0.240146 0.123201
0.198184 0.241093 0.120577
0.216220 0.242863 0.118013
0.234714 0.243992 0.114870
0.250584 0.242863 0.112917
0.262181 0.236667 0.114260
0.280735 0.239048 0.114595
0.304051 0.246281 0.114961
0.332616 0.256962 0.114961
0.367468 0.271580 0.115389
0.408515 0.289067 0.113008
0.455207 0.308843 0.108919
0.505760 0.329992 0.102510
0.557610 0.350896 0.093751
0.611719 0.370245 0.081636
0.667140 0.387854 0.058625
0.719997 0.403143 0.042176
0.770321 0.415991 0.041810
0.819059 0.427405 0.051484
0.000000 0.256046 0.129610
0.000000 0.256016 0.129580
0.000000 0.256260 0.129732
0.000000 0.256748 0.130282
0.000000 0.257542 0.130678
0.000000 0.258213 0.131838
0.000000 0.258824 0.132723
0.030304 0.259281 0.133639
0.083284 0.259464 0.134768
0.106996 0.259617 0.135927
0.126741 0.259434 0.137087
0.144930 0.259556 0.138827
0.162631 0.260716 0.136843
0.180850 0.262272 0.134401
0.199313 0.264378 0.131563
0.218692 0.266941 0.128878
0.239017 0.270024 0.125490
0.259068 0.272129 0.121950
0.277836 0.272862 0.117922
0.288640 0.264958 0.119142
0.310887 0.267765 0.116945
0.342290 0.280552 0.114199
0.379980 0.296788 0.109010
0.421576 0.315312 0.105653
0.467842 0.335637 0.100038
0.517052 0.356725 0.092073
0.566918 0.376867 0.080201
0.616693 0.396002 0.059388
0.666255 0.414130 0.040589
0.717433 0.430365 0.024170
0.768582 0.444282 0.019471
0.818601 0.456794 0.027405
0.000000 0.284977 0.138857
0.000000 0.284947 0.139071
0.000000 0.285252 0.139193
0.000000 0.285832 0.139376
0.000000 0.286412 0.139773
0.000000 0.287144 0.140780
0.000000 0.287816 0.141268
0.000000 0.288457 0.142214
0.052857 0.288945 0.143374
0.098604 0.289311 0.144503
0.123415 0.289403 0.145663
0.144289 0.289738 0.147341
0.163912 0.290379 0.147799
0.183413 0.292546 0.145022
0.203799 0.295323 0.141604
0.224857 0.298863 0.138094
0.247013 0.302922 0.133791
0.270054 0.307286 0.129244
0.292790 0.310430 0.123720
0.313787 0.311467 0.118349
0.325231 0.302953 0.119783
0.351110 0.305394 0.113619
0.390051 0.323369 0.106569
0.433783 0.343145 0.095644
0.480385 0.364050 0.082277
0.528191 0.384802 0.061189
0.576349 0.404395 0.037293
0.624475 0.423041 0.017639
0.672572 0.440558 0.000885
0.719478 0.456580 0.000000
0.765499 0.471351 0.000000
0.814633 0.484779 0.000000
0.000000 0.322484 0.144381
0.000000 0.322179 0.144503
0.000000 0.297765 0.141238
0.000000 0.298131 0.141512
0.000000 0.298863 0.141848
0.000000 0.299809 0.142489
0.000000 0.301030 0.143221
0.000000 0.301946 0.144015
0.007202 0.302800 0.145022
0.078767 0.303471 0.145998
0.110079 0.304051 0.146975
0.134005 0.304906 0.148653
0.155489 0.306310 0.150027
0.176699 0.309026 0.149813
0.197910 0.313481 0.146670
0.220523 0.318730 0.142947
0.244236 0.324895 0.138918
0.269444 0.331640 0.133608
0.295720 0.338445 0.127626
0.321752 0.344121 0.120455
0.346868 0.347784 0.112795
0.364538 0.343999 0.110689
0.390295 0.344945 0.105196
0.431434 0.361822 0.092805
0.480201 0.385107 0.059693
0.530694 0.408118 0.009918
0.580041 0.429267 0.000000
0.629114 0.449012 0.000000
0.677485 0.467201 0.000000
0.724056 0.483223 0.000000
0.769863 0.498024 0.000000
0.816159 0.512383 0.000000
0.000000 0.362066 0.145083
0.000000 0.359045 0.144930
0.000000 0.356085 0.144961
0.000000 0.354009 0.145418
0.000000 0.352819 0.145632
0.000000 0.352941 0.146090
0.000000 0.354192 0.146395
0.000000 0.355688 0.147005
0.000000 0.357061 0.148013
0.000000 0.358373 0.148745
0.076020 0.359380 0.149752
0.121950 0.360632 0.150790
0.152651 0.362554 0.152468
0.179934 0.365057 0.153567
0.206790 0.369421 0.151034
0.233799 0.375128 0.146029
0.261112 0.381262 0.140536
0.289128 0.387701 0.133730
0.317754 0.394049 0.126101
0.346685 0.399908 0.116823
0.375677 0.405158 0.105409
0.403754 0.408850 0.092042
0.427771 0.408148 0.079744
0.451484 0.404822 0.073701
0.491859 0.417151 0.025605
0.541344 0.439948 0.000000
0.590967 0.461128 0.000000
0.640009 0.480720 0.000000
0.687160 0.498177 0.000000
0.732967 0.513695 0.000000
0.778286 0.528099 0.000000
0.824613 0.542443 0.000000
0.000000 0.428779 0.139162
0.000000 0.425330 0.139925
0.000000 0.421607 0.140078
0.000000 0.418769 0.140810
0.000000 0.416999 0.141024
0.000000 0.417029 0.141726
0.000000 0.418158 0.141909
0.000000 0.419806 0.142397
0.000000 0.421332 0.143069
0.000000 0.423072 0.143771
0.000000 0.424475 0.144778
0.065156 0.425727 0.145754
0.134829 0.427832 0.146761
0.175265 0.429969 0.147829
0.209201 0.433112 0.149203
0.242039 0.438209 0.143130
0.274388 0.443946 0.135866
0.306218 0.449805 0.127871
0.337896 0.455482 0.117952
0.369299 0.460639 0.105745
0.400641 0.465400 0.091096
0.431586 0.469337 0.055451
0.462898 0.473335 0.005371
0.492470 0.475227 0.000000
0.513970 0.467628 0.000000
0.550530 0.472084 0.000000
0.599542 0.493141 0.000000
0.648432 0.512627 0.000000
0.695735 0.529747 0.000000
0.740993 0.544823 0.000000
0.786221 0.559045 0.000000
0.833585 0.573816 0.000000
0.000000 0.498329 0.125795
0.000000 0.495155 0.126467
0.000000 0.491798 0.126925
0.000000 0.489326 0.127901
0.000000 0.487709 0.128573
0.000000 0.487648 0.129091
0.000000 0.488563 0.129183
0.000000 0.489967 0.129549
0.000000 0.491279 0.130373
0.000000 0.492531 0.130861
0.000000 0.493812 0.131685
0.000000 0.495125 0.132845
0.071809 0.496742 0.133822
0.154330 0.498604 0.134920
0.202029 0.500847 0.135988
0.242405 0.503502 0.135042
0.279911 0.506859 0.127077
0.315007 0.510063 0.117922
0.348669 0.512688 0.106294
0.381018 0.514702 0.092256
0.412360 0.516075 0.063233
0.442939 0.517113 0.017914
0.473213 0.518029 0.000000
0.505272 0.521080 0.000000
0.538628 0.525170 0.000000
0.556695 0.513359 0.000000
0.591669 0.514977 0.000000
0.636469 0.529595 0.000000
0.683009 0.546838 0.000000
0.728847 0.562280 0.000000
0.774044 0.576806 0.000000
0.821134 0.591760 0.000000
0.000000 0.544671 0.111147
0.000000 0.543359 0.111421
0.000000 0.542473 0.111757
0.000000 0.542351 0.112367
0.000000 0.542718 0.112245
0.000000 0.543847 0.112673
0.000000 0.545281 0.112917
0.000000 0.546746 0.113252
0.000000 0.548028 0.113649
0.000000 0.548791 0.114443
0.000000 0.549676 0.115206
0.000000 0.550500 0.116793
0.000000 0.551904 0.117494
0.102724 0.553460 0.118898
0.178958 0.555230 0.120394
0.230106 0.557427 0.121462
0.273594 0.560143 0.117281
0.314000 0.563195 0.106477
0.351568 0.566064 0.092103
0.388037 0.568475 0.059968
0.422675 0.570764 0.014130
0.456641 0.572442 0.000000
0.489845 0.573968 0.000000
0.522942 0.575586 0.000000
0.558495 0.579919 0.000000
0.595544 0.585443 0.000000
0.618433 0.576654 0.000000
0.649409 0.572564 0.000000
0.689143 0.578973 0.000000
0.734859 0.594385 0.000000
0.781186 0.609125 0.000000
0.830442 0.625086 0.000000
0.000000 0.607874 0.083864
0.000000 0.606928 0.083955
0.000000 0.606256 0.084352
0.000000 0.605951 0.084810
0.000000 0.606165 0.085542
0.000000 0.606836 0.086488
0.000000 0.607965 0.087800
0.000000 0.609033 0.088075
0.000000 0.609949 0.089601
0.000000 0.610681 0.090730
0.000000 0.611231 0.092409
0.000000 0.611841 0.094423
0.000000 0.612573 0.096620
0.000000 0.613519 0.099275
0.137636 0.614618 0.102235
0.210483 0.615808 0.105379
0.263157 0.617182 0.108522
0.309117 0.618921 0.098787
0.351019 0.620630 0.078126
0.390234 0.622126 0.029511
0.427588 0.623346 0.000000
0.463691 0.624201 0.000000
0.498512 0.624964 0.000000
0.532769 0.625483 0.000000
0.574273 0.634363 0.000000
0.611963 0.638575 0.000000
0.651118 0.643977 0.000000
0.679744 0.638941 0.000000
0.707210 0.630488 0.000000
0.744259 0.630213 0.000000
0.791501 0.645289 0.000000
0.842008 0.661891 0.000000
0.000000 0.656092 0.049256
0.000000 0.654566 0.048646
0.000000 0.653956 0.048188
0.000000 0.654383 0.049470
0.000000 0.655726 0.053040
0.000000 0.657557 0.056641
0.000000 0.659693 0.061067
0.000000 0.662074 0.069184
0.000000 0.664210 0.078492
0.000000 0.666133 0.084596
0.000000 0.667994 0.090272
0.000000 0.669459 0.094972
0.000000 0.670954 0.100099
0.000000 0.672633 0.106203
0.007568 0.674556 0.113100
0.186648 0.676356 0.119539
0.253147 0.678096 0.127230
0.305272 0.679500 0.134310
0.351904 0.680598 0.119509
0.394293 0.681178 0.100465
0.434180 0.681331 0.055573
0.472206 0.681544 0.000000
0.509545 0.681971 0.000000
0.546105 0.682887 0.000000
0.582757 0.684077 0.000000
0.619226 0.685420 0.000000
0.658869 0.690059 0.000000
0.701442 0.697047 0.000000
0.737057 0.696925 0.000000
0.764401 0.687251 0.000000
0.804807 0.686915 0.000000
0.855589 0.701411 0.000000
0.000000 0.714748 0.111666
0.000000 0.713466 0.109133
0.000000 0.712734 0.109010
0.000000 0.712612 0.108949
0.000000 0.713039 0.110964
0.000000 0.713741 0.113222
0.000000 0.714534 0.116548
0.000000 0.715206 0.120241
0.000000 0.715816 0.123720
0.000000 0.716335 0.127810
0.000000 0.717037 0.132509
0.000000 0.717739 0.137942
0.000000 0.718563 0.144289
0.000000 0.719753 0.151247
0.000000 0.721309 0.160311
0.161715 0.722927 0.169100
0.242283 0.724544 0.178622
0.300664 0.725734 0.187564
0.349462 0.726619 0.190433
0.393072 0.727260 0.176577
0.433814 0.727504 0.160037
0.472877 0.727565 0.139864
0.510887 0.727779 0.114382
0.548333 0.728176 0.065156
0.585504 0.728725 0.000000
0.622614 0.729641 0.000000
0.659510 0.730526 0.000000
0.700313 0.735286 0.000000
0.745724 0.743709 0.000000
0.788663 0.749020 0.000000
0.816648 0.739437 0.000000
0.861601 0.741360 0.000000
0.000000 0.762173 0.185275
0.000000 0.761532 0.184024
0.000000 0.761318 0.184176
0.000000 0.761440 0.184665
0.000000 0.761929 0.186618
0.000000 0.762570 0.189303
0.000000 0.763455 0.192691
0.000000 0.764340 0.196872
0.000000 0.765103 0.201480
0.000000 0.765743 0.205509
0.000000 0.766506 0.210941
0.000000 0.767025 0.216007
0.000000 0.767819 0.222263
0.000000 0.768917 0.229221
0.000000 0.770321 0.237980
0.170260 0.771939 0.246983
0.251957 0.773587 0.256901
0.311467 0.774868 0.265934
0.361212 0.775631 0.274357
0.404028 0.776272 0.271641
0.443488 0.776883 0.259342
0.481849 0.777340 0.244877
0.519738 0.777890 0.229068
0.557488 0.778714 0.211063
0.595270 0.779904 0.191287
0.633143 0.781277 0.168063
0.671107 0.782834 0.138552
0.709407 0.784237 0.092500
0.751888 0.789456 0.000000
0.801053 0.799893 0.000000
0.852018 0.810422 0.000000
0.883757 0.803342 0.000000
0.000000 0.813443 0.279179
0.000000 0.812985 0.277958
0.000000 0.812619 0.277256
0.000000 0.812558 0.277989
0.000000 0.812436 0.278538
0.000000 0.812192 0.278965
0.000000 0.811307 0.278630
0.000000 0.810056 0.277836
0.000000 0.808469 0.276493
0.000000 0.806638 0.275212
0.000000 0.804685 0.274174
0.000000 0.802945 0.273930
0.000000 0.801511 0.275120
0.000000 0.800778 0.278172
0.000000 0.800595 0.282719
0.164553 0.801450 0.289982
0.248142 0.802640 0.298680
0.308415 0.803708 0.306981
0.358129 0.804410 0.315038
0.402441 0.804807 0.322820
0.440772 0.805478 0.314977
0.477852 0.806271 0.303075
0.514794 0.807279 0.290410
0.551720 0.808591 0.276951
0.588861 0.810239 0.263035
0.626337 0.812131 0.246860
0.664179 0.814145 0.229221
0.702388 0.816190 0.207492
0.740688 0.817929 0.180362
0.783169 0.822934 0.149783
0.834257 0.835019 0.126802
0.888945 0.848417 0.092561
0.000000 0.847196 0.338293
0.000000 0.847196 0.338476
0.000000 0.847379 0.339086
0.000000 0.847715 0.340307
0.000000 0.848173 0.342290
0.000000 0.848661 0.344396
0.000000 0.849058 0.346654
0.000000 0.849302 0.349065
0.000000 0.849516 0.351598
0.000000 0.849516 0.354223
0.000000 0.849485 0.357153
0.000000 0.849424 0.360357
0.000000 0.849485 0.364202
0.000000 0.849790 0.368841
