20 Preset/Human Style/【3】LUT video cho PR-AE-FCPX/Joe-Allam/JA – Faded Soft 3.cube
# Created by Adobe Lightroom plugin Export LUT (1.24.0)
# www.johnrellis.com/lightroom/exportlut.htm
# Preset: JA – Faded Soft 3
# Color profile: E:\lut插件\exportlut.1.24\exportlut.lrplugin\color profiles\Rec709gamma2.4.icc
LUT_3D_SIZE 8
DOMAIN_MIN 0.000000 0.000000 0.000000
DOMAIN_MAX 0.903226 0.903226 0.903226
0.074342 0.085328 0.095247
0.091951 0.084627 0.095094
0.273716 0.000000 0.108766
0.444678 0.000000 0.111788
0.669612 0.045533 0.078859
0.890074 0.146120 0.000000
1.000000 0.201999 0.000000
1.000000 0.236484 0.000000
0.028901 0.118166 0.096254
0.125795 0.123934 0.095430
0.282811 0.118746 0.096834
0.446448 0.130617 0.092836
0.666316 0.165377 0.012146
0.882841 0.207980 0.000000
0.993103 0.238041 0.000000
1.000000 0.259739 0.000000
0.106508 0.268650 0.054871
0.172183 0.269902 0.043122
0.295842 0.275547 0.071168
0.470222 0.293858 0.000000
0.692317 0.329412 0.000000
0.890135 0.353460 0.000000
0.996155 0.352758 0.000000
1.000000 0.349523 0.000000
0.194156 0.441749 0.015686
0.242649 0.439979 0.000000
0.360113 0.450294 0.000000
0.525689 0.478004 0.000000
0.762966 0.525841 0.000000
0.899229 0.504662 0.000000
0.991180 0.481086 0.000000
1.000000 0.460151 0.000000
0.296849 0.666987 0.000000
0.337682 0.665339 0.000000
0.451881 0.667353 0.000000
0.603113 0.678309 0.000000
0.766049 0.685695 0.000000
0.891539 0.652644 0.000000
0.978088 0.608026 0.000000
1.000000 0.572473 0.000000
0.376257 0.789609 0.009247
0.403937 0.790524 0.000000
0.491310 0.787015 0.000000
0.607385 0.787625 0.000000
0.740902 0.787076 0.011048
0.874876 0.783932 0.129213
0.964630 0.739376 0.063539
1.000000 0.695186 0.038575
0.452155 0.865080 0.253971
0.467903 0.864744 0.248112
0.526970 0.861234 0.225162
0.612879 0.859953 0.228977
0.718502 0.857511 0.247318
0.832334 0.855192 0.279667
0.941253 0.850126 0.324590
1.000000 0.810361 0.303777
0.563867 0.928191 0.438911
0.570153 0.928038 0.432959
0.600183 0.927184 0.415076
0.659815 0.925994 0.414130
0.731136 0.921874 0.411749
0.821653 0.919921 0.446174
0.912108 0.917784 0.488136
0.991913 0.912413 0.531945
0.074830 0.086549 0.134493
0.087465 0.086366 0.130190
0.261234 0.011109 0.115633
0.428504 0.103975 0.115053
0.649134 0.148318 0.038666
0.872984 0.193057 0.000000
0.987457 0.224338 0.000000
1.000000 0.246738 0.000000
0.012787 0.111208 0.138582
0.115389 0.124880 0.137575
0.269993 0.135439 0.129641
0.435279 0.157839 0.111696
0.653529 0.197726 0.012085
0.871672 0.236667 0.000000
0.983398 0.255589 0.000000
1.000000 0.269596 0.000000
0.019501 0.267185 0.154177
0.153445 0.269322 0.146914
0.289677 0.274479 0.143648
0.460639 0.289616 0.107393
0.679591 0.325811 0.000000
0.876829 0.353491 0.000000
0.983185 0.355077 0.000000
1.000000 0.351171 0.000000
0.153017 0.436713 0.155032
0.214145 0.436652 0.146212
0.346471 0.444068 0.133455
0.505089 0.462806 0.125948
0.734463 0.505028 0.000000
0.882628 0.491615 0.000000
0.979065 0.472969 0.000000
1.000000 0.456855 0.000000
0.263615 0.664668 0.096040
0.309911 0.662409 0.062196
0.436225 0.660853 0.000000
0.589899 0.669886 0.000000
0.753994 0.676600 0.000000
0.883024 0.646052 0.000000
0.972015 0.603052 0.000000
1.000000 0.568963 0.000000
0.356695 0.787045 0.155459
0.384955 0.786099 0.144167
0.479225 0.781857 0.110719
0.598413 0.783230 0.117556
0.734463 0.783505 0.144717
0.870603 0.781521 0.186191
0.961181 0.737179 0.151919
1.000000 0.692897 0.139467
0.443885 0.862577 0.284489
0.458045 0.861570 0.276341
0.517510 0.858183 0.252598
0.606683 0.856626 0.253056
0.714137 0.855100 0.272190
0.828580 0.852842 0.302403
0.937102 0.847501 0.342626
1.000000 0.807797 0.318212
0.562890 0.925811 0.454963
0.570428 0.925963 0.451728
0.598047 0.925261 0.431037
0.657710 0.923949 0.427192
0.735012 0.922820 0.441474
0.822538 0.920043 0.469306
0.910887 0.917266 0.504753
0.989868 0.912108 0.545769
0.080812 0.091218 0.298528
0.081697 0.091402 0.297063
0.222507 0.099611 0.272801
0.381079 0.129610 0.279118
0.636255 0.000000 0.266606
0.872770 0.107546 0.248844
0.987335 0.206790 0.222782
1.000000 0.252903 0.191928
0.000000 0.110231 0.303105
0.121065 0.132784 0.298741
0.232029 0.150576 0.280827
0.393378 0.169558 0.284520
0.643275 0.139925 0.270695
0.871153 0.182528 0.247288
0.984253 0.237217 0.218021
1.000000 0.272068 0.186069
0.000000 0.259617 0.310094
0.101167 0.263523 0.309270
0.260777 0.278569 0.303655
0.446509 0.284581 0.291447
0.684840 0.303593 0.268528
0.881346 0.325719 0.238804
0.984283 0.338750 0.214115
1.000000 0.348241 0.187930
0.000000 0.448249 0.341161
0.000000 0.451057 0.331762
0.301732 0.454719 0.301396
0.500298 0.471412 0.299138
0.733242 0.494453 0.259007
0.884031 0.482216 0.233982
0.979797 0.467018 0.220615
1.000000 0.454994 0.203006
0.000000 0.677729 0.313115
0.090700 0.676265 0.307164
0.372290 0.671260 0.282109
0.569177 0.675776 0.274327
0.751431 0.682124 0.281346
0.879454 0.642939 0.253544
0.968841 0.599390 0.237491
1.000000 0.568994 0.225681
0.292332 0.791592 0.340459
0.327306 0.790860 0.335637
0.437659 0.786526 0.311986
0.578546 0.783108 0.299870
0.722591 0.783017 0.314733
0.862028 0.781460 0.342657
0.954284 0.737362 0.316075
1.000000 0.694789 0.298436
0.452705 0.863401 0.428595
0.463966 0.862638 0.422248
0.511955 0.859922 0.396765
0.601892 0.855894 0.375647
0.709712 0.854398 0.390600
0.823362 0.852720 0.418860
0.928923 0.849149 0.457954
1.000000 0.813443 0.429755
0.597040 0.923125 0.554864
0.600610 0.922911 0.549798
0.619898 0.922667 0.531395
0.669215 0.921904 0.509728
0.741695 0.921111 0.521386
0.825193 0.919188 0.546014
0.908385 0.917205 0.575555
0.982757 0.913115 0.606989
0.104433 0.059297 0.496010
0.136660 0.049836 0.494209
0.261112 0.094484 0.471962
0.368414 0.145327 0.435615
0.532189 0.185122 0.436103
0.811704 0.016144 0.462440
0.969665 0.107881 0.417884
1.000000 0.276127 0.411810
0.000000 0.117830 0.506493
0.145022 0.138552 0.501854
0.268772 0.157107 0.480476
0.377020 0.187503 0.442969
0.542138 0.215763 0.442145
0.822171 0.130922 0.461280
0.969543 0.191867 0.421454
1.000000 0.296910 0.412146
0.000000 0.229099 0.529076
0.000000 0.238590 0.527672
0.279484 0.289036 0.503746
0.401343 0.295323 0.461799
0.601587 0.305699 0.467750
0.859251 0.286015 0.456428
0.969940 0.350256 0.443366
1.000000 0.373297 0.418860
0.000000 0.456306 0.532921
0.000000 0.457191 0.530877
0.240482 0.462135 0.521996
0.456672 0.472084 0.500237
0.708370 0.474342 0.480507
0.867521 0.475349 0.459785
0.965026 0.472999 0.438849
1.000000 0.468208 0.415564
0.000000 0.694881 0.579370
0.000000 0.693874 0.574182
0.283787 0.691188 0.552514
0.513268 0.683864 0.499184
0.731350 0.687861 0.508782
0.860716 0.644770 0.479683
0.953948 0.607538 0.452735
1.000000 0.585687 0.435126
0.406439 0.795163 0.592248
0.419989 0.796139 0.589410
0.465919 0.793423 0.568261
0.567529 0.787320 0.525994
0.710872 0.785183 0.526696
0.841733 0.784695 0.550683
0.933227 0.747829 0.519738
1.000000 0.710353 0.489296
0.552667 0.859464 0.626764
0.557702 0.859342 0.623621
0.578973 0.858335 0.608240
0.626703 0.855802 0.573419
0.717067 0.853330 0.564355
0.818387 0.852598 0.585840
0.910948 0.851469 0.611963
0.985809 0.825772 0.582788
0.659693 0.919554 0.679225
0.662409 0.919524 0.676936
0.674922 0.919402 0.666987
0.702419 0.919341 0.644862
0.757595 0.918303 0.632074
0.829862 0.917571 0.645228
0.904234 0.916930 0.662837
0.972686 0.914763 0.681727
0.186252 0.000000 0.730983
0.227115 0.000000 0.729519
0.337255 0.040681 0.717250
0.462501 0.125338 0.689479
0.573510 0.170596 0.640162
0.747189 0.188785 0.621241
0.899168 0.253178 0.604028
1.000000 0.369665 0.593988
0.172580 0.115328 0.735866
0.226047 0.141329 0.734127
0.340642 0.159945 0.722194
0.466590 0.181430 0.693660
0.579797 0.205509 0.645045
0.753201 0.222507 0.624231
0.901427 0.283055 0.605524
1.000000 0.395117 0.598413
0.000000 0.247532 0.748806
0.129915 0.259464 0.746212
0.334447 0.304692 0.732387
0.476143 0.308629 0.706294
0.598413 0.311406 0.657557
0.765621 0.331914 0.628870
0.905150 0.388495 0.612787
0.991363 0.482216 0.616999
0.000000 0.429908 0.752255
0.000000 0.430030 0.751461
0.206119 0.433570 0.748226
0.513725 0.506584 0.723049
0.636744 0.492927 0.679255
0.780240 0.516136 0.649653
0.899565 0.561639 0.649531
0.975555 0.601984 0.655543
0.034943 0.661707 0.736416
0.196048 0.663630 0.735561
0.381048 0.670405 0.730648
0.553887 0.680507 0.719448
0.680903 0.682246 0.696803
0.803708 0.677028 0.683040
0.899474 0.669520 0.667109
0.980987 0.658106 0.646815
0.528374 0.792050 0.740169
0.539574 0.791562 0.739315
0.576928 0.788571 0.734096
0.631983 0.783627 0.721859
0.698054 0.777035 0.689448
0.810636 0.783169 0.701137
0.896117 0.765225 0.683528
0.975097 0.743191 0.659754
0.641566 0.856657 0.751431
0.644495 0.856107 0.749905
0.658625 0.854490 0.744259
0.680507 0.852811 0.728634
0.726955 0.848722 0.700587
0.809781 0.849058 0.702052
0.891478 0.851316 0.715328
0.963378 0.835782 0.695888
0.696223 0.915099 0.763027
0.697932 0.915038 0.761563
0.705959 0.914855 0.755367
0.727443 0.915587 0.744686
0.763363 0.915221 0.722347
0.826169 0.914946 0.718166
0.895995 0.915312 0.729213
0.961334 0.914488 0.741024
0.264988 0.130312 0.837888
0.292485 0.146700 0.837003
0.371740 0.169284 0.831876
0.482338 0.199619 0.821622
0.600824 0.230228 0.804166
0.721950 0.251713 0.776852
0.878599 0.293858 0.752468
0.942779 0.448219 0.718654
0.263279 0.180423 0.836698
0.294347 0.198917 0.835325
0.374487 0.217136 0.830411
0.483314 0.236759 0.820279
0.600641 0.259281 0.802365
0.721218 0.276066 0.775174
0.875792 0.317937 0.750118
0.939117 0.462348 0.718196
0.243931 0.286259 0.841520
0.280491 0.298283 0.840116
0.395270 0.348333 0.833921
0.500633 0.361273 0.822751
0.613611 0.373388 0.804593
0.729335 0.380896 0.777310
0.870634 0.426337 0.749935
0.933410 0.533227 0.727871
0.209445 0.414588 0.848417
0.270268 0.426276 0.847013
0.418311 0.480110 0.839384
0.586084 0.567742 0.823758
0.665614 0.569360 0.806943
0.747890 0.557183 0.780270
0.853117 0.585992 0.754818
0.925566 0.637354 0.749569
0.381872 0.623957 0.833738
0.409979 0.628717 0.832883
0.504356 0.647974 0.829587
0.620508 0.678096 0.823728
0.722499 0.713619 0.806149
0.763912 0.693721 0.779049
0.836301 0.696437 0.761685
0.927337 0.715816 0.765927
0.578332 0.773892 0.818540
0.590173 0.775509 0.818601
0.625910 0.778714 0.816587
0.677699 0.783200 0.812650
0.734035 0.786313 0.805173
0.787778 0.783352 0.789883
0.866880 0.780636 0.781643
0.942962 0.776791 0.771664
0.701747 0.860594 0.832883
0.705470 0.860777 0.832761
0.717494 0.860258 0.830655
0.738552 0.859098 0.825742
0.765103 0.856229 0.814511
0.799863 0.848905 0.786374
0.876432 0.853666 0.792935
0.946929 0.845029 0.779568
0.738216 0.914488 0.837247
0.739681 0.914305 0.836423
0.746914 0.914183 0.833677
0.761410 0.914458 0.827787
0.778714 0.914427 0.812497
0.817899 0.913268 0.789334
0.885496 0.914458 0.790951
0.949737 0.915221 0.799802
0.335302 0.234104 0.898558
0.355352 0.247990 0.898344
0.409155 0.264317 0.895537
0.495094 0.293828 0.890196
0.595941 0.331914 0.880919
0.698573 0.372229 0.866453
0.802976 0.405829 0.847044
0.934600 0.458717 0.832547
0.334661 0.255711 0.896269
0.357702 0.272496 0.896025
0.414191 0.292790 0.893095
0.497200 0.316808 0.887388
0.596063 0.349645 0.877806
0.696315 0.383612 0.862791
0.798795 0.410193 0.842588
0.929442 0.457649 0.827146
0.346410 0.337896 0.898466
0.369787 0.351141 0.897459
0.455360 0.406043 0.892332
0.534386 0.431281 0.885954
0.622370 0.455207 0.875731
0.712337 0.479164 0.861021
0.805142 0.498024 0.842435
0.920958 0.544060 0.827298
0.389837 0.460151 0.900816
0.414466 0.472175 0.899260
0.505241 0.523552 0.893095
0.635309 0.611872 0.881346
0.692256 0.622187 0.871702
0.751003 0.625971 0.858549
0.816007 0.622919 0.841093
0.905913 0.644160 0.826108
0.473243 0.604669 0.894957
0.488777 0.609094 0.893889
0.564416 0.638911 0.890135
0.662745 0.685969 0.883116
0.745724 0.730983 0.869566
0.780758 0.723384 0.856382
0.822873 0.708370 0.837613
0.896452 0.718318 0.826017
0.617639 0.753902 0.882170
0.625574 0.755795 0.881987
0.653956 0.762264 0.881071
0.699458 0.772702 0.879606
0.753658 0.784878 0.877195
0.814481 0.804379 0.865995
0.839109 0.786130 0.843717
0.894469 0.784237 0.831601
0.699275 0.843229 0.877379
0.704067 0.844175 0.877531
0.719783 0.846098 0.876951
0.748013 0.849851 0.875914
0.783261 0.853880 0.873503
0.821622 0.856779 0.868559
0.857542 0.851469 0.853758
0.928313 0.848936 0.846067
0.762692 0.914641 0.892332
0.765530 0.914702 0.892302
0.777951 0.915221 0.892454
0.797696 0.915435 0.891508
0.816587 0.915953 0.887449
0.838651 0.916167 0.878111
0.868894 0.913878 0.851347
0.937377 0.916289 0.857115
0.411078 0.332280 0.944854
0.429694 0.348882 0.944274
0.466865 0.363653 0.942077
0.534417 0.397162 0.938659
0.619867 0.445502 0.932616
0.708858 0.500328 0.923552
0.791165 0.552056 0.911894
0.867765 0.587549 0.898131
0.411841 0.343969 0.943481
0.431128 0.360754 0.942901
0.476539 0.386999 0.940551
0.541863 0.417731 0.936950
0.624964 0.463020 0.930846
0.711482 0.513420 0.921782
0.790738 0.558556 0.909972
0.865843 0.589410 0.895933
0.425208 0.397345 0.942779
0.445014 0.412696 0.941894
0.522576 0.476173 0.937163
0.591485 0.516075 0.933410
0.660761 0.547753 0.927092
0.732448 0.580194 0.918151
0.800504 0.609247 0.907134
0.867491 0.626429 0.893919
0.445136 0.473915 0.942473
0.468544 0.489693 0.941466
0.550988 0.548669 0.936461
0.669001 0.641840 0.927123
0.718593 0.660639 0.921721
0.767330 0.672114 0.914580
0.817594 0.680415 0.905119
0.872618 0.682582 0.893126
0.481453 0.565911 0.941985
0.500816 0.576287 0.941192
0.563409 0.610864 0.937255
0.669276 0.679072 0.929259
0.758267 0.738949 0.919432
0.793515 0.741421 0.912932
0.832029 0.739895 0.904295
0.878416 0.735286 0.892973
0.591150 0.708980 0.932860
0.597620 0.710536 0.932433
0.625147 0.718166 0.930999
0.673426 0.732906 0.929229
0.747738 0.764767 0.925383
0.820859 0.806485 0.916777
0.853208 0.804257 0.909697
0.890745 0.795560 0.898466
0.685847 0.816861 0.926329
0.689540 0.817563 0.926146
0.705226 0.820554 0.925536
0.734829 0.826932 0.924865
0.774258 0.835599 0.924224
0.820157 0.846036 0.924041
0.876921 0.867094 0.918883
0.902708 0.851255 0.904021
0.753262 0.892180 0.924529
0.755459 0.892454 0.924407
0.765438 0.893919 0.924224
0.785336 0.897185 0.924193
0.813718 0.901854 0.923949
0.848539 0.907774 0.923400
0.886534 0.914183 0.922362
0.919005 0.913634 0.913603
