20 Preset/Human Style/【3】LUT video cho PR-AE-FCPX/Joe-Allam/JA – Static Pop 1.cube
# Created by Adobe Lightroom plugin Export LUT (1.24.0)
# www.johnrellis.com/lightroom/exportlut.htm
# Preset: JA – Static Pop 1
# Color profile: E:\lut插件\exportlut.1.24\exportlut.lrplugin\color profiles\Rec709gamma2.4.icc
LUT_3D_SIZE 32
DOMAIN_MIN 0.0 0.0 0.0
DOMAIN_MAX 1.0 1.0 1.0
0.100343 0.104952 0.108705
0.100343 0.104952 0.108705
0.100343 0.104952 0.108705
0.100343 0.104952 0.108705
0.111696 0.103670 0.108675
0.141909 0.099031 0.108492
0.172183 0.092134 0.108278
0.205692 0.077058 0.107973
0.244175 0.036927 0.107454
0.286625 0.012146 0.105501
0.333196 0.000000 0.102327
0.384863 0.000000 0.097658
0.440497 0.000000 0.090425
0.499763 0.000000 0.073457
0.561517 0.000000 0.038697
0.624537 0.000000 0.000000
0.688411 0.000000 0.000000
0.751949 0.000000 0.000000
0.814725 0.000000 0.000000
0.883635 0.000000 0.000000
0.942199 0.000000 0.000000
0.991852 0.000000 0.000000
1.000000 0.000000 0.000000
1.000000 0.036683 0.000000
1.000000 0.072938 0.000000
1.000000 0.093538 0.000000
1.000000 0.102937 0.000000
1.000000 0.109682 0.000000
1.000000 0.113649 0.000000
1.000000 0.115724 0.000000
1.000000 0.115846 0.000000
1.000000 0.115023 0.000000
0.100343 0.104952 0.108705
0.100343 0.104952 0.108705
0.100343 0.104952 0.108705
0.100343 0.104952 0.108705
0.112245 0.103609 0.108675
0.142306 0.098939 0.108492
0.172183 0.092134 0.108278
0.205234 0.077516 0.107973
0.242924 0.044038 0.107271
0.284550 0.020813 0.105318
0.331243 0.000000 0.102235
0.382208 0.000000 0.097475
0.437537 0.000000 0.090364
0.496529 0.000000 0.073396
0.558038 0.000000 0.039033
0.621088 0.000000 0.000000
0.685054 0.000000 0.000000
0.748379 0.000000 0.000000
0.811429 0.000000 0.000000
0.879362 0.000000 0.000000
0.937377 0.000000 0.000000
0.986816 0.000000 0.000000
1.000000 0.007965 0.000000
1.000000 0.050050 0.000000
1.000000 0.080934 0.000000
1.000000 0.096864 0.000000
1.000000 0.105653 0.000000
1.000000 0.112337 0.000000
1.000000 0.115938 0.000000
1.000000 0.118349 0.000000
1.000000 0.117922 0.000000
1.000000 0.116121 0.000000
0.100343 0.104952 0.108705
0.100343 0.104952 0.108705
0.100343 0.104952 0.108705
0.100343 0.104952 0.108705
0.116030 0.103090 0.108644
0.145022 0.098421 0.108492
0.174014 0.091646 0.108278
0.206210 0.080659 0.107729
0.242710 0.066773 0.106355
0.284031 0.048585 0.104219
0.330419 0.027832 0.100893
0.381018 0.006806 0.095888
0.436011 0.000000 0.088411
0.494575 0.000000 0.067842
0.555840 0.000000 0.032776
0.618830 0.000000 0.000000
0.682612 0.000000 0.000000
0.746273 0.000000 0.000000
0.809964 0.000000 0.000000
0.877043 0.000000 0.000000
0.934630 0.011383 0.000000
0.983948 0.049775 0.000000
1.000000 0.080079 0.000000
1.000000 0.097322 0.000000
1.000000 0.109041 0.000000
1.000000 0.116457 0.000000
1.000000 0.122164 0.000000
1.000000 0.127108 0.000000
1.000000 0.129122 0.000000
1.000000 0.130465 0.000000
1.000000 0.129671 0.000000
1.000000 0.127352 0.000000
0.100343 0.104952 0.108705
0.100343 0.104952 0.108705
0.100343 0.104952 0.108705
0.100526 0.105623 0.108614
0.122499 0.105318 0.108217
0.148287 0.104280 0.107637
0.175174 0.102083 0.106996
0.206607 0.099611 0.105898
0.242863 0.096345 0.104280
0.284123 0.092317 0.101747
0.330205 0.087617 0.097993
0.380743 0.080232 0.092317
0.435218 0.072969 0.081514
0.493294 0.064332 0.055024
0.554192 0.059144 0.018830
0.616358 0.060212 0.000000
0.679774 0.069306 0.000000
0.742672 0.081514 0.000000
0.807797 0.090852 0.000000
0.872618 0.101778 0.000000
0.929168 0.111543 0.000000
0.978302 0.120363 0.000000
1.000000 0.129091 0.000000
1.000000 0.136294 0.000000
1.000000 0.141421 0.000000
1.000000 0.146670 0.000000
1.000000 0.150576 0.000000
1.000000 0.152132 0.000000
1.000000 0.153201 0.000000
1.000000 0.152529 0.000000
1.000000 0.150820 0.000000
1.000000 0.148348 0.000000
0.087282 0.121767 0.106447
0.086824 0.122042 0.106386
0.085939 0.122621 0.106294
0.100282 0.122957 0.106020
0.121920 0.122469 0.105989
0.147860 0.122469 0.104952
0.175143 0.121523 0.104158
0.206149 0.121096 0.102785
0.242588 0.120638 0.100710
0.283665 0.120668 0.097566
0.329259 0.120638 0.093019
0.379492 0.121065 0.085359
0.433539 0.122957 0.065705
0.491554 0.125490 0.034760
0.551812 0.128725 0.000000
0.614466 0.133333 0.000000
0.677760 0.138735 0.000000
0.741146 0.143801 0.000000
0.807736 0.149966 0.000000
0.871275 0.156710 0.000000
0.926940 0.163210 0.000000
0.975616 0.168429 0.000000
1.000000 0.173129 0.000000
1.000000 0.177249 0.000000
1.000000 0.180331 0.000000
1.000000 0.182040 0.000000
1.000000 0.183352 0.000000
1.000000 0.183719 0.000000
1.000000 0.182589 0.000000
1.000000 0.180941 0.000000
1.000000 0.178073 0.000000
1.000000 0.174411 0.000000
0.045197 0.142947 0.102724
0.051148 0.142824 0.102693
0.073579 0.142763 0.102571
0.097932 0.142824 0.102266
0.120638 0.142397 0.102235
0.144259 0.141085 0.102205
0.174289 0.143618 0.099825
0.207156 0.145388 0.097810
0.243778 0.147311 0.095003
0.284764 0.150240 0.090761
0.330510 0.153567 0.082918
0.380591 0.157778 0.064912
0.434638 0.162783 0.037812
0.492378 0.168124 0.003845
0.552728 0.174624 0.000000
0.615198 0.180484 0.000000
0.678614 0.186679 0.000000
0.743343 0.193301 0.000000
0.810697 0.200931 0.000000
0.872892 0.206638 0.000000
0.927703 0.211612 0.000000
0.975921 0.215030 0.000000
1.000000 0.225406 0.000000
1.000000 0.226535 0.000000
1.000000 0.227085 0.000000
1.000000 0.226688 0.000000
1.000000 0.225254 0.000000
1.000000 0.223087 0.000000
1.000000 0.220401 0.000000
1.000000 0.217044 0.000000
1.000000 0.212619 0.000000
1.000000 0.207553 0.000000
0.037812 0.167819 0.096437
0.043763 0.167697 0.096437
0.068757 0.167971 0.096193
0.098299 0.167910 0.095857
0.121920 0.167483 0.095796
0.147036 0.166445 0.095705
0.171725 0.165072 0.095918
0.208011 0.171572 0.091188
0.247532 0.177066 0.084260
0.291844 0.183566 0.071168
0.338750 0.190158 0.050599
0.390173 0.197086 0.024567
0.444862 0.204685 0.000000
0.503014 0.212222 0.000000
0.563287 0.220035 0.000000
0.625391 0.227543 0.000000
0.688655 0.234775 0.000000
0.758053 0.243900 0.000000
0.824887 0.251072 0.000000
0.886381 0.257420 0.000000
0.941131 0.261448 0.000000
0.989715 0.264317 0.000000
1.000000 0.266117 0.000000
1.000000 0.266819 0.000000
1.000000 0.265904 0.000000
1.000000 0.264591 0.000000
1.000000 0.261509 0.000000
1.000000 0.258030 0.000000
1.000000 0.254337 0.000000
1.000000 0.249485 0.000000
1.000000 0.244236 0.000000
1.000000 0.238621 0.000000
0.039033 0.196292 0.085481
0.045014 0.196201 0.085451
0.071962 0.196384 0.084993
0.099977 0.196750 0.084108
0.125368 0.196414 0.083894
0.151064 0.195193 0.083894
0.177096 0.193912 0.083528
0.202609 0.191958 0.083864
0.242924 0.201755 0.068269
0.288029 0.211551 0.041901
0.337011 0.221378 0.015442
0.390936 0.232120 0.000000
0.446296 0.241855 0.000000
0.503777 0.251591 0.000000
0.563897 0.260685 0.000000
0.625360 0.269749 0.000000
0.692927 0.279545 0.000000
0.760128 0.289006 0.000000
0.824552 0.296544 0.000000
0.884062 0.302068 0.000000
0.937377 0.305394 0.000000
0.985321 0.307347 0.000000
1.000000 0.308171 0.000000
1.000000 0.307469 0.000000
1.000000 0.305882 0.000000
1.000000 0.302739 0.000000
1.000000 0.299168 0.000000
1.000000 0.294224 0.000000
1.000000 0.289342 0.000000
1.000000 0.283757 0.000000
1.000000 0.277470 0.000000
1.000000 0.271183 0.000000
0.053651 0.230716 0.048157
0.061616 0.230625 0.048127
0.085878 0.230747 0.047395
0.107576 0.230930 0.045930
0.132784 0.230594 0.045563
0.159396 0.229343 0.045655
0.186038 0.227787 0.045441
0.212741 0.226078 0.045747
0.238376 0.224247 0.045594
0.282414 0.236149 0.019623
0.332799 0.249973 0.000000
0.386389 0.263249 0.000000
0.444709 0.276738 0.000000
0.506615 0.290410 0.000000
0.566888 0.301152 0.000000
0.632929 0.313695 0.000000
0.699245 0.324376 0.000000
0.763699 0.333410 0.000000
0.826078 0.340368 0.000000
0.883879 0.344823 0.000000
0.935912 0.347662 0.000000
0.982849 0.348333 0.000000
1.000000 0.347753 0.000000
1.000000 0.346227 0.000000
1.000000 0.343694 0.000000
1.000000 0.339910 0.000000
1.000000 0.335912 0.000000
1.000000 0.331182 0.000000
1.000000 0.325078 0.000000
1.000000 0.318456 0.000000
1.000000 0.311437 0.000000
1.000000 0.304387 0.000000
0.054871 0.271183 0.001678
0.064118 0.271183 0.001495
0.089479 0.271153 0.000000
0.112917 0.271305 0.000000
0.139803 0.271092 0.000000
0.168124 0.269627 0.000000
0.196597 0.267765 0.000000
0.225010 0.265843 0.000000
0.252476 0.263523 0.000000
0.279393 0.261112 0.000000
0.326177 0.274418 0.000000
0.380591 0.290654 0.000000
0.439155 0.306645 0.000000
0.503105 0.323247 0.000000
0.571618 0.340002 0.000000
0.640955 0.354833 0.000000
0.705440 0.365576 0.000000
0.768826 0.374121 0.000000
0.829801 0.380957 0.000000
0.885740 0.385260 0.000000
0.936278 0.386999 0.000000
0.981445 0.387152 0.000000
1.000000 0.385626 0.000000
1.000000 0.382849 0.000000
1.000000 0.379553 0.000000
1.000000 0.375280 0.000000
1.000000 0.370428 0.000000
1.000000 0.365087 0.000000
1.000000 0.359838 0.000000
1.000000 0.353429 0.000000
1.000000 0.345647 0.000000
1.000000 0.337652 0.000000
0.042603 0.315892 0.000000
0.051667 0.316106 0.000000
0.088014 0.316167 0.000000
0.113527 0.316381 0.000000
0.144503 0.316777 0.000000
0.175540 0.315496 0.000000
0.206973 0.313664 0.000000
0.237949 0.311437 0.000000
0.268070 0.309178 0.000000
0.297765 0.306126 0.000000
0.326116 0.302831 0.000000
0.376928 0.318395 0.000000
0.438239 0.338231 0.000000
0.503349 0.357427 0.000000
0.570031 0.374731 0.000000
0.638636 0.390997 0.000000
0.708370 0.405097 0.000000
0.773648 0.415747 0.000000
0.832578 0.421973 0.000000
0.886778 0.425849 0.000000
0.935790 0.426612 0.000000
0.979980 0.426062 0.000000
1.000000 0.424109 0.000000
1.000000 0.420966 0.000000
1.000000 0.416571 0.000000
1.000000 0.411597 0.000000
1.000000 0.405829 0.000000
1.000000 0.399847 0.000000
1.000000 0.393530 0.000000
1.000000 0.387091 0.000000
1.000000 0.380011 0.000000
1.000000 0.371221 0.000000
0.019226 0.367224 0.000000
0.028870 0.367163 0.000000
0.078218 0.367224 0.000000
0.113283 0.367620 0.000000
0.148043 0.368170 0.000000
0.182956 0.367376 0.000000
0.217746 0.365667 0.000000
0.251682 0.363439 0.000000
0.285710 0.361334 0.000000
0.319402 0.359594 0.000000
0.352026 0.357397 0.000000
0.383490 0.354376 0.000000
0.451820 0.381811 0.000000
0.519860 0.404242 0.000000
0.590448 0.424689 0.000000
0.660243 0.441871 0.000000
0.729580 0.456458 0.000000
0.797147 0.468299 0.000000
0.859739 0.476387 0.000000
0.911284 0.478370 0.000000
0.956878 0.477119 0.000000
0.997589 0.474220 0.000000
1.000000 0.469978 0.000000
1.000000 0.464759 0.000000
1.000000 0.458747 0.000000
1.000000 0.451820 0.000000
1.000000 0.444770 0.000000
1.000000 0.436896 0.000000
1.000000 0.429389 0.000000
1.000000 0.421668 0.000000
1.000000 0.414099 0.000000
1.000000 0.406043 0.000000
0.000000 0.431067 0.000000
0.000000 0.431128 0.000000
0.044251 0.431281 0.000000
0.112276 0.431556 0.000000
0.153170 0.432288 0.000000
0.193759 0.432654 0.000000
0.233066 0.430945 0.000000
0.271794 0.429084 0.000000
0.309300 0.426947 0.000000
0.346593 0.424537 0.000000
0.383032 0.422217 0.000000
0.418677 0.419593 0.000000
0.452979 0.416144 0.000000
0.506584 0.429084 0.000000
0.577752 0.452674 0.000000
0.649226 0.472908 0.000000
0.718624 0.489204 0.000000
0.784848 0.501762 0.000000
0.846769 0.510399 0.000000
0.902922 0.514977 0.000000
0.952361 0.516045 0.000000
0.992554 0.512657 0.000000
1.000000 0.507744 0.000000
1.000000 0.502007 0.000000
1.000000 0.495369 0.000000
1.000000 0.487800 0.000000
1.000000 0.479866 0.000000
1.000000 0.471595 0.000000
1.000000 0.463172 0.000000
1.000000 0.454932 0.000000
1.000000 0.446571 0.000000
1.000000 0.438392 0.000000
0.000000 0.495796 0.000000
0.000000 0.495674 0.000000
0.021729 0.495186 0.000000
0.108156 0.495003 0.000000
0.155642 0.495033 0.000000
0.200961 0.495094 0.000000
0.243351 0.492988 0.000000
0.284794 0.490272 0.000000
0.325444 0.487160 0.000000
0.364935 0.484199 0.000000
0.403571 0.481025 0.000000
0.441474 0.477668 0.000000
0.478248 0.473884 0.000000
0.512902 0.469032 0.000000
0.564202 0.478309 0.000000
0.635828 0.501244 0.000000
0.705898 0.519799 0.000000
0.773281 0.534325 0.000000
0.834684 0.543755 0.000000
0.890532 0.549035 0.000000
0.941070 0.550958 0.000000
0.986755 0.550256 0.000000
1.000000 0.546258 0.000000
1.000000 0.539788 0.000000
1.000000 0.532311 0.000000
1.000000 0.524102 0.000000
1.000000 0.515496 0.000000
1.000000 0.506249 0.000000
1.000000 0.497200 0.000000
1.000000 0.488106 0.000000
1.000000 0.479194 0.000000
1.000000 0.470314 0.000000
0.000000 0.558587 0.000000
0.000000 0.558526 0.000000
0.000000 0.558129 0.000000
0.099702 0.557580 0.000000
0.155489 0.556909 0.000000
0.205417 0.556481 0.000000
0.252506 0.554894 0.000000
0.296757 0.551751 0.000000
0.339788 0.548333 0.000000
0.381567 0.544884 0.000000
0.422553 0.541283 0.000000
0.462867 0.537682 0.000000
0.501640 0.533135 0.000000
0.538445 0.527947 0.000000
0.573083 0.521508 0.000000
0.621149 0.526696 0.000000
0.692256 0.548363 0.000000
0.759762 0.564782 0.000000
0.823209 0.576501 0.000000
0.878813 0.582361 0.000000
0.929656 0.584833 0.000000
0.975830 0.584710 0.000000
1.000000 0.582025 0.000000
1.000000 0.577203 0.000000
1.000000 0.569207 0.000000
1.000000 0.560357 0.000000
1.000000 0.551019 0.000000
1.000000 0.541161 0.000000
1.000000 0.531334 0.000000
1.000000 0.521538 0.000000
1.000000 0.511864 0.000000
1.000000 0.502342 0.000000
0.000000 0.618524 0.000000
0.000000 0.618616 0.000000
0.000000 0.618433 0.000000
0.094514 0.618250 0.000000
0.156405 0.618006 0.000000
0.209873 0.617914 0.000000
0.259983 0.618067 0.000000
0.307561 0.615167 0.000000
0.353429 0.611963 0.000000
0.397864 0.608240 0.000000
0.440650 0.604089 0.000000
0.482643 0.599207 0.000000
0.522728 0.593744 0.000000
0.560815 0.587335 0.000000
0.597040 0.579828 0.000000
0.630823 0.571405 0.000000
0.676051 0.573388 0.000000
0.744167 0.592340 0.000000
0.807797 0.605463 0.000000
0.865843 0.613886 0.000000
0.917967 0.617731 0.000000
0.964965 0.618280 0.000000
1.000000 0.616175 0.000000
1.000000 0.611444 0.000000
1.000000 0.604974 0.000000
1.000000 0.596704 0.000000
1.000000 0.586603 0.000000
1.000000 0.576135 0.000000
1.000000 0.565484 0.000000
1.000000 0.554986 0.000000
1.000000 0.544427 0.000000
1.000000 0.534234 0.000000
0.000000 0.675227 0.000000
0.000000 0.675257 0.000000
0.000000 0.675227 0.000000
0.087556 0.674983 0.000000
0.156863 0.674800 0.000000
0.213260 0.674800 0.000000
0.265415 0.674983 0.000000
0.315068 0.673121 0.000000
0.362493 0.669856 0.000000
0.408453 0.666011 0.000000
0.453468 0.661738 0.000000
0.496773 0.656825 0.000000
0.538811 0.651209 0.000000
0.579156 0.644678 0.000000
0.617182 0.637293 0.000000
0.653437 0.629084 0.000000
0.687129 0.619837 0.000000
0.730282 0.619409 0.000000
0.793515 0.633936 0.000000
0.851804 0.643519 0.000000
0.905943 0.649409 0.000000
0.954406 0.651331 0.000000
0.996979 0.649592 0.000000
1.000000 0.645289 0.000000
1.000000 0.638819 0.000000
1.000000 0.630701 0.000000
1.000000 0.621393 0.000000
1.000000 0.610742 0.000000
1.000000 0.599390 0.000000
1.000000 0.588190 0.000000
1.000000 0.576989 0.000000
1.000000 0.566094 0.000000
0.000000 0.728939 0.000000
0.000000 0.729122 0.000000
0.000000 0.742519 0.000000
0.085389 0.742367 0.000000
0.162997 0.742031 0.000000
0.221164 0.741817 0.000000
0.275700 0.741512 0.000000
0.327581 0.740291 0.000000
0.376928 0.737026 0.000000
0.424933 0.733120 0.000000
0.471534 0.728664 0.000000
0.517082 0.723598 0.000000
0.560876 0.717647 0.000000
0.602930 0.710719 0.000000
0.643030 0.702876 0.000000
0.681209 0.694209 0.000000
0.716976 0.684565 0.000000
0.750729 0.674220 0.000000
0.789517 0.669429 0.000000
0.845212 0.677882 0.000000
0.898863 0.683925 0.000000
0.947753 0.686397 0.000000
0.991058 0.685206 0.000000
1.000000 0.680476 0.000000
1.000000 0.673487 0.000000
1.000000 0.664851 0.000000
1.000000 0.654902 0.000000
1.000000 0.644190 0.000000
1.000000 0.633143 0.000000
1.000000 0.621241 0.000000
1.000000 0.609339 0.000000
1.000000 0.597772 0.000000
0.000000 0.779934 0.000000
0.000000 0.780941 0.000000
0.000000 0.782071 0.000000
0.085756 0.783078 0.000000
0.163455 0.783597 0.000000
0.221225 0.783536 0.000000
0.275731 0.783261 0.000000
0.327489 0.782803 0.000000
0.376898 0.779934 0.000000
0.425452 0.776303 0.000000
0.472877 0.772183 0.000000
0.518791 0.767605 0.000000
0.563531 0.762112 0.000000
0.606806 0.755947 0.000000
0.648432 0.748959 0.000000
0.688533 0.741329 0.000000
0.726497 0.732845 0.000000
0.762905 0.723812 0.000000
0.797604 0.714412 0.000000
0.834043 0.707637 0.000000
0.884520 0.712276 0.000000
0.934356 0.716030 0.000000
0.978912 0.715908 0.000000
1.000000 0.712428 0.000000
1.000000 0.705776 0.000000
1.000000 0.697078 0.000000
1.000000 0.687129 0.000000
1.000000 0.676112 0.000000
1.000000 0.664729 0.000000
1.000000 0.653040 0.000000
1.000000 0.641138 0.000000
1.000000 0.628931 0.000000
0.000000 0.819883 0.000000
0.000000 0.820890 0.000000
0.000000 0.821836 0.000000
0.093721 0.822690 0.000000
0.165438 0.823178 0.000000
0.221683 0.823178 0.000000
0.276860 0.822812 0.000000
0.327642 0.822354 0.000000
0.377020 0.820584 0.000000
0.425574 0.817227 0.000000
0.473060 0.813535 0.000000
0.519371 0.809232 0.000000
0.564630 0.804410 0.000000
0.608728 0.798947 0.000000
0.651514 0.792844 0.000000
0.692683 0.786069 0.000000
0.732631 0.778531 0.000000
0.770779 0.770504 0.000000
0.807523 0.762051 0.000000
0.842679 0.753262 0.000000
0.876555 0.744503 0.000000
0.921172 0.744747 0.000000
0.966369 0.745785 0.000000
1.000000 0.742977 0.000000
1.000000 0.737179 0.000000
1.000000 0.728756 0.000000
1.000000 0.718746 0.000000
1.000000 0.707607 0.000000
1.000000 0.695979 0.000000
1.000000 0.683955 0.000000
1.000000 0.671809 0.000000
1.000000 0.659602 0.000000
0.000000 0.856138 0.000000
0.000000 0.856931 0.000000
0.000000 0.857633 0.000000
0.105196 0.858274 0.000000
0.167697 0.858640 0.000000
0.224216 0.858457 0.000000
0.276249 0.858152 0.000000
0.326452 0.857603 0.000000
0.376287 0.856718 0.000000
0.423957 0.853758 0.000000
0.471107 0.850492 0.000000
0.517418 0.846738 0.000000
0.563012 0.842435 0.000000
0.607538 0.837552 0.000000
0.650782 0.832273 0.000000
0.693019 0.826474 0.000000
0.734340 0.820188 0.000000
0.774380 0.813565 0.000000
0.813107 0.806668 0.000000
0.850858 0.799466 0.000000
0.887297 0.792050 0.000000
0.919097 0.781552 0.000000
0.957824 0.777615 0.000000
0.998413 0.775631 0.000000
1.000000 0.770230 0.000000
1.000000 0.762142 0.000000
1.000000 0.752041 0.000000
1.000000 0.740597 0.000000
1.000000 0.728573 0.000000
1.000000 0.716152 0.000000
1.000000 0.703517 0.000000
1.000000 0.690822 0.000000
0.000000 0.892454 0.000000
0.000000 0.892729 0.000000
0.009491 0.892821 0.000000
0.118990 0.892790 0.000000
0.176730 0.892576 0.000000
0.227634 0.892058 0.000000
0.277379 0.891478 0.000000
0.326268 0.890837 0.000000
0.374792 0.890135 0.000000
0.422461 0.888029 0.000000
0.469093 0.885161 0.000000
0.515099 0.881926 0.000000
0.560235 0.878172 0.000000
0.604852 0.873960 0.000000
0.648463 0.869291 0.000000
0.691341 0.864073 0.000000
0.732906 0.858579 0.000000
0.773739 0.852628 0.000000
0.813352 0.846311 0.000000
0.851926 0.839719 0.000000
0.889220 0.832853 0.000000
0.925597 0.825681 0.000000
0.954101 0.812863 0.000000
0.986877 0.804746 0.000000
1.000000 0.799741 0.000000
1.000000 0.792081 0.000000
1.000000 0.782345 0.000000
1.000000 0.771115 0.000000
1.000000 0.758907 0.000000
1.000000 0.746304 0.000000
1.000000 0.733394 0.000000
1.000000 0.720394 0.000000
0.000000 0.919249 0.000000
0.000000 0.919432 0.000000
0.070130 0.919524 0.000000
0.133761 0.919463 0.000000
0.182956 0.919249 0.000000
0.230350 0.918822 0.000000
0.278599 0.918242 0.000000
0.325200 0.917601 0.000000
0.371771 0.916869 0.000000
0.418647 0.915557 0.000000
0.464088 0.913054 0.000000
0.509453 0.910216 0.000000
0.553979 0.906981 0.000000
0.598138 0.903380 0.000000
0.641688 0.899351 0.000000
0.684260 0.895018 0.000000
0.726467 0.890227 0.000000
0.767330 0.885222 0.000000
0.807706 0.879759 0.000000
0.847044 0.874052 0.000000
0.885313 0.868162 0.000000
0.922667 0.861967 0.000000
0.958892 0.855497 0.000000
0.985046 0.841306 0.000000
1.000000 0.828214 0.000000
1.000000 0.820706 0.000000
1.000000 0.811368 0.000000
1.000000 0.800443 0.000000
1.000000 0.788449 0.000000
1.000000 0.775692 0.000000
1.000000 0.762631 0.000000
1.000000 0.749569 0.000000
0.068574 0.944152 0.000000
0.087343 0.944396 0.000000
0.113741 0.944457 0.000000
0.151858 0.944244 0.000000
0.193484 0.943786 0.000000
0.236179 0.943145 0.000000
0.279423 0.942351 0.000000
0.324346 0.941375 0.000000
0.369116 0.940337 0.000000
0.414069 0.939239 0.000000
0.458015 0.936828 0.000000
0.502525 0.934112 0.000000
0.545830 0.931151 0.000000
0.589044 0.927794 0.000000
0.631678 0.924041 0.000000
0.673762 0.919982 0.000000
0.715358 0.915618 0.000000
0.756283 0.911070 0.000000
0.796353 0.906401 0.000000
0.835935 0.901488 0.000000
0.874784 0.896422 0.000000
0.912596 0.891081 0.000000
0.949462 0.885405 0.000000
0.985138 0.879423 0.000000
1.000000 0.863859 0.000000
1.000000 0.849973 0.000000
1.000000 0.840146 0.000000
1.000000 0.829374 0.000000
1.000000 0.817350 0.000000
1.000000 0.804654 0.000000
1.000000 0.791470 0.000000
1.000000 0.778134 0.000000
0.108583 0.962646 0.000000
0.113161 0.962860 0.000000
0.133272 0.962921 0.000000
0.163546 0.962768 0.000000
0.199985 0.962493 0.000000
0.238956 0.962066 0.000000
0.280461 0.961486 0.000000
0.323430 0.960815 0.000000
0.366125 0.960021 0.000000
0.409186 0.959167 0.000000
0.452186 0.957580 0.000000
0.494942 0.955352 0.000000
0.537682 0.952758 0.000000
0.579919 0.949889 0.000000
0.621698 0.946685 0.000000
0.663172 0.943145 0.000000
0.704341 0.939330 0.000000
0.744656 0.935332 0.000000
0.784665 0.931182 0.000000
0.824125 0.926879 0.000000
0.862852 0.922423 0.000000
0.900999 0.917723 0.000000
0.938231 0.912840 0.000000
0.974578 0.907713 0.000000
1.000000 0.902342 0.000000
1.000000 0.886015 0.000000
1.000000 0.870451 0.000000
1.000000 0.858793 0.000000
1.000000 0.846891 0.000000
1.000000 0.834104 0.000000
1.000000 0.820829 0.000000
1.000000 0.807187 0.000000
0.132540 0.979950 0.000000
0.137453 0.980011 0.000000
0.150942 0.979980 0.000000
0.176120 0.979828 0.000000
0.208072 0.979492 0.000000
0.244022 0.979065 0.000000
0.282261 0.978515 0.000000
0.321935 0.977844 0.000000
0.362402 0.977081 0.000000
0.403662 0.976196 0.000000
0.445563 0.975006 0.000000
0.486946 0.973053 0.000000
0.528161 0.970855 0.000000
0.569329 0.968353 0.000000
0.610254 0.965545 0.000000
0.651057 0.962432 0.000000
0.691157 0.959136 0.000000
0.731197 0.955596 0.000000
0.770779 0.951934 0.000000
0.809812 0.948150 0.000000
0.848417 0.944213 0.000000
0.886229 0.940124 0.000000
0.923522 0.935760 0.000000
0.959960 0.931243 0.000000
0.995605 0.926513 0.000000
1.000000 0.921599 0.000000
1.000000 0.904814 0.000000
1.000000 0.888060 0.000000
1.000000 0.875059 0.000000
1.000000 0.862394 0.000000
1.000000 0.849119 0.000000
1.000000 0.835416 0.000000
0.148745 0.994568 0.000000
0.151461 0.994629 0.000000
0.163424 0.994629 0.000000
0.185794 0.994507 0.000000
0.213596 0.994293 0.000000
0.246311 0.994018 0.000000
0.282597 0.993713 0.000000
0.320684 0.993347 0.000000
0.359899 0.992920 0.000000
0.399725 0.992401 0.000000
0.440131 0.991760 0.000000
0.480354 0.990478 0.000000
0.520684 0.988830 0.000000
0.560784 0.986877 0.000000
0.600977 0.984619 0.000000
0.640772 0.982055 0.000000
0.680262 0.979217 0.000000
0.719661 0.976196 0.000000
0.758480 0.973053 0.000000
0.797086 0.969696 0.000000
0.835203 0.966278 0.000000
0.872923 0.962646 0.000000
0.910033 0.958831 0.000000
0.946471 0.954864 0.000000
0.982177 0.950713 0.000000
1.000000 0.946441 0.000000
1.000000 0.942077 0.000000
1.000000 0.924895 0.000000
1.000000 0.907195 0.000000
1.000000 0.892607 0.000000
1.000000 0.879149 0.000000
1.000000 0.865171 0.000000
0.167025 1.000000 0.000000
0.169955 1.000000 0.000000
0.179751 1.000000 0.000000
0.197208 1.000000 0.000000
0.222354 1.000000 0.000000
0.252079 1.000000 0.000000
0.284642 1.000000 0.000000
0.320012 1.000000 0.000000
0.356725 1.000000 0.000000
0.394446 1.000000 0.000000
0.432837 1.000000 0.000000
0.471504 1.000000 0.000000
0.510552 1.000000 0.000000
0.549371 1.000000 0.000000
