20 Preset/Human Style/【3】LUT video cho PR-AE-FCPX/Joe-Allam/JA – Controlled Contrast 3.cube
# Created by Adobe Lightroom plugin Export LUT (1.24.0)
# www.johnrellis.com/lightroom/exportlut.htm
# Preset: JA – Controlled Contrast 3
# Color profile: E:\lut插件\exportlut.1.24\exportlut.lrplugin\color profiles\Rec709gamma2.4.icc
LUT_3D_SIZE 8
DOMAIN_MIN 0.000000 0.000000 0.000000
DOMAIN_MAX 0.903226 0.903226 0.903226
0.079744 0.065095 0.057282
0.079744 0.065095 0.057282
0.101411 0.059266 0.057069
0.345495 0.000000 0.052796
0.531701 0.000000 0.043946
0.705959 0.000000 0.000000
0.930816 0.000000 0.000000
1.000000 0.000000 0.146304
0.079744 0.065095 0.057282
0.079744 0.065095 0.057282
0.100771 0.059510 0.057069
0.319402 0.000000 0.055726
0.514733 0.000000 0.013489
0.676783 0.000000 0.000000
0.897978 0.000000 0.000000
1.000000 0.000000 0.112764
0.029480 0.114900 0.046235
0.050904 0.115175 0.046815
0.140291 0.128847 0.031281
0.379583 0.190188 0.000000
0.523796 0.168887 0.000000
0.716732 0.111543 0.000000
0.937530 0.000000 0.000000
1.000000 0.000000 0.178592
0.114199 0.330724 0.000000
0.156222 0.327214 0.000000
0.254734 0.328923 0.000000
0.397925 0.360845 0.000000
0.574731 0.376287 0.000000
0.796078 0.393133 0.000000
0.941161 0.374273 0.000000
1.000000 0.358434 0.220890
0.251255 0.455024 0.120912
0.266819 0.453376 0.123110
0.325628 0.451087 0.142580
0.413153 0.473213 0.112367
0.543786 0.504173 0.000000
0.727382 0.536065 0.000000
0.904204 0.547204 0.094118
0.996002 0.521080 0.239567
0.366674 0.609369 0.252720
0.382269 0.619501 0.257694
0.421668 0.616449 0.261662
0.485939 0.621424 0.258701
0.579858 0.644831 0.229343
0.714687 0.676844 0.176242
0.859281 0.682338 0.159518
0.968872 0.658747 0.258732
0.443763 0.767819 0.314000
0.453956 0.768917 0.316838
0.486488 0.765377 0.317845
0.545464 0.760525 0.322881
0.614313 0.764492 0.304753
0.708186 0.774411 0.281407
0.822751 0.784360 0.249027
0.924010 0.762448 0.243107
0.592218 0.860746 0.526574
0.596429 0.860410 0.526940
0.616358 0.859953 0.532250
0.655634 0.860014 0.546441
0.675746 0.847257 0.501549
0.737148 0.857084 0.495644
0.817441 0.869596 0.481819
0.915221 0.878935 0.439887
0.079744 0.065095 0.057282
0.079744 0.065095 0.057282
0.096834 0.060853 0.057130
0.306126 0.000000 0.055421
0.512352 0.000000 0.033539
0.670069 0.000000 0.011017
0.881651 0.000000 0.024781
1.000000 0.000000 0.159182
0.079744 0.065095 0.057282
0.079744 0.065095 0.057282
0.103853 0.058381 0.058167
0.314031 0.000000 0.044831
0.509239 0.000000 0.012940
0.664851 0.000000 0.000000
0.865995 0.000000 0.000000
1.000000 0.000000 0.139956
0.049805 0.111513 0.047517
0.079103 0.112154 0.047761
0.143923 0.128908 0.032044
0.371069 0.186801 0.000000
0.514336 0.150973 0.000000
0.688258 0.010681 0.000000
0.885710 0.000000 0.000000
1.000000 0.000000 0.177218
0.089143 0.319036 0.000000
0.140017 0.317296 0.000000
0.245121 0.320867 0.000000
0.383459 0.346838 0.000000
0.530541 0.340642 0.000000
0.723110 0.346868 0.000000
0.892821 0.338445 0.000000
0.994415 0.328923 0.203769
0.254276 0.450111 0.162142
0.267582 0.447242 0.161532
0.320592 0.442145 0.170687
0.398444 0.454932 0.147799
0.516350 0.477638 0.000000
0.692653 0.507927 0.000000
0.883818 0.530480 0.120760
0.982238 0.507988 0.238560
0.357580 0.593042 0.260685
0.367590 0.592950 0.262150
0.405737 0.591302 0.266300
0.469703 0.597650 0.266392
0.562463 0.624750 0.241978
0.700587 0.663416 0.198917
0.849760 0.673823 0.180667
0.960662 0.650690 0.262547
0.429114 0.754269 0.308629
0.435676 0.751400 0.306798
0.468574 0.747158 0.307256
0.529137 0.744076 0.313634
0.603174 0.752865 0.302708
0.697902 0.764187 0.279759
0.811429 0.773251 0.244419
0.912566 0.751186 0.235386
0.570764 0.852201 0.503044
0.579278 0.853269 0.509026
0.599145 0.852415 0.512963
0.640101 0.852384 0.527276
0.688655 0.853483 0.533837
0.740719 0.859098 0.512688
0.815000 0.867460 0.486152
0.912261 0.876432 0.444038
0.027039 0.080232 0.125582
0.021118 0.081727 0.129458
0.145052 0.031647 0.139956
0.333257 0.000000 0.200229
0.526085 0.000000 0.228763
0.702052 0.000000 0.247440
0.904540 0.000000 0.298619
1.000000 0.000000 0.335180
0.025727 0.080995 0.126070
0.035370 0.064424 0.129244
0.151003 0.032685 0.139345
0.342870 0.000000 0.196750
0.524681 0.000000 0.214908
0.696590 0.000000 0.239048
0.890257 0.000000 0.284031
1.000000 0.000000 0.321508
0.000000 0.153811 0.139590
0.000000 0.158358 0.144350
0.185367 0.171054 0.163485
0.412177 0.140566 0.171847
0.538964 0.127504 0.194095
0.719478 0.122255 0.240543
0.899413 0.034333 0.282200
1.000000 0.093446 0.320073
0.000000 0.356542 0.183291
0.144472 0.357794 0.203403
0.278660 0.356359 0.222873
0.402106 0.370825 0.220493
0.561608 0.374060 0.231113
0.746761 0.381201 0.257877
0.906065 0.372442 0.289708
0.997986 0.354864 0.324407
0.301274 0.471595 0.290074
0.313054 0.470497 0.290623
0.356725 0.467781 0.294072
0.426520 0.477150 0.294377
0.539055 0.506126 0.272862
0.717861 0.535912 0.257359
0.893797 0.541009 0.282628
0.983642 0.513207 0.325139
0.353704 0.612238 0.313817
0.364813 0.612970 0.314702
0.405524 0.610040 0.316716
0.472908 0.605310 0.320989
0.563836 0.630488 0.303777
0.702907 0.668208 0.278233
0.852628 0.675868 0.276005
0.962005 0.655421 0.344091
0.430945 0.765896 0.368261
0.437873 0.763668 0.366003
0.469459 0.758175 0.363165
0.529351 0.752529 0.365637
0.604059 0.755642 0.359625
0.698970 0.767941 0.343572
0.815549 0.779690 0.321904
0.918456 0.759243 0.325750
0.580774 0.853696 0.542260
0.583032 0.852659 0.540124
0.601648 0.851560 0.542687
0.645869 0.853330 0.562036
0.694697 0.852598 0.571801
0.746700 0.860777 0.559747
0.818631 0.870848 0.539422
0.913176 0.880522 0.502342
0.000000 0.077577 0.354803
0.000000 0.028534 0.360082
0.215000 0.000000 0.367254
0.388312 0.000000 0.377539
0.511894 0.000000 0.370214
0.670283 0.089570 0.413703
0.877775 0.000000 0.458625
0.992523 0.000000 0.465522
0.000000 0.103151 0.363958
0.000000 0.074495 0.366339
0.209201 0.000000 0.372015
0.393744 0.000000 0.381415
0.513512 0.083711 0.374182
0.676814 0.158724 0.419409
0.879393 0.000000 0.456580
0.991516 0.000000 0.462074
0.000000 0.250523 0.362402
0.000000 0.247288 0.364141
0.210025 0.231113 0.369848
0.395026 0.251438 0.376501
0.513512 0.295781 0.392706
0.723293 0.264012 0.439124
0.910430 0.211429 0.462501
1.000000 0.213626 0.462989
0.193179 0.390387 0.369635
0.229465 0.389715 0.370306
0.319707 0.391028 0.376257
0.414801 0.397742 0.389929
0.571801 0.385168 0.392523
0.752377 0.367803 0.401740
0.906310 0.356390 0.419959
0.991272 0.372168 0.448646
0.277684 0.524071 0.395636
0.291569 0.523064 0.394659
0.344976 0.526482 0.395941
0.452613 0.527489 0.411200
0.576074 0.551263 0.403204
0.767178 0.566308 0.406317
0.899748 0.550713 0.433082
0.976593 0.537469 0.467597
0.341131 0.670161 0.425605
0.361151 0.677668 0.432929
0.411627 0.671046 0.431342
0.493812 0.664637 0.433997
0.590173 0.670558 0.428840
0.723507 0.695338 0.411383
0.860502 0.688930 0.429267
0.956237 0.678706 0.500755
0.447150 0.780270 0.478950
0.456764 0.780331 0.480323
0.490425 0.778439 0.481971
0.549310 0.774685 0.485359
0.622919 0.769589 0.485878
0.707393 0.778836 0.471778
0.816678 0.787533 0.453925
0.917449 0.770474 0.469886
0.618555 0.861631 0.628138
0.621759 0.861234 0.628016
0.636469 0.860075 0.628901
0.667384 0.858946 0.634333
0.710140 0.856657 0.640711
0.757229 0.862425 0.634730
0.823026 0.874449 0.621576
0.913756 0.887541 0.598352
0.000000 0.089387 0.512474
0.000000 0.086366 0.518090
0.166659 0.066072 0.526452
0.391150 0.108248 0.544121
0.567620 0.192325 0.570520
0.695888 0.228641 0.575067
0.838743 0.242679 0.597131
0.963348 0.231998 0.604517
0.000000 0.148165 0.520287
0.000000 0.151766 0.526360
0.187594 0.160586 0.533562
0.402045 0.191836 0.549981
0.570489 0.237278 0.572900
0.698848 0.253056 0.577295
0.839811 0.262333 0.596948
0.963836 0.251072 0.603601
0.109651 0.331273 0.525872
0.168978 0.332067 0.529473
0.260166 0.314031 0.538781
0.418738 0.320745 0.553094
0.566766 0.321691 0.566552
0.691188 0.317449 0.567132
0.838193 0.325078 0.590631
0.962005 0.306798 0.594476
0.178805 0.443885 0.530602
0.205997 0.443488 0.531579
0.284855 0.442054 0.540215
0.407568 0.424781 0.560204
0.579187 0.432502 0.577539
0.711147 0.438605 0.581231
0.866209 0.432502 0.600122
0.961608 0.433997 0.597833
0.224247 0.557977 0.537774
0.246220 0.559686 0.540093
0.322759 0.563531 0.546410
0.442115 0.570184 0.559319
0.581659 0.576959 0.576013
0.748104 0.564172 0.577661
0.867887 0.564324 0.590784
0.942504 0.577935 0.612268
0.299046 0.678645 0.541283
0.315801 0.679377 0.542535
0.373632 0.677119 0.542351
0.469123 0.679927 0.550439
0.584833 0.673976 0.562127
0.717128 0.703182 0.570703
0.847135 0.706477 0.607202
0.928038 0.707759 0.647791
0.461921 0.790311 0.592462
0.466346 0.788937 0.590661
0.510887 0.784756 0.599817
0.564843 0.781796 0.603571
0.632715 0.776455 0.605463
0.706844 0.777554 0.599329
0.805112 0.787228 0.587457
0.901549 0.777096 0.606958
0.620539 0.856565 0.679316
0.622919 0.856016 0.678676
0.634821 0.854520 0.677607
0.671412 0.857115 0.689326
0.710780 0.855619 0.693538
0.758267 0.855772 0.696223
0.816373 0.868406 0.686976
0.900511 0.881682 0.669825
0.000000 0.253544 0.735073
0.000000 0.260655 0.739528
0.214969 0.273930 0.744076
0.426978 0.291203 0.755367
0.596094 0.297917 0.765988
0.746059 0.298497 0.770108
0.871244 0.306828 0.762875
0.937499 0.402350 0.738705
0.000000 0.282963 0.721798
0.000000 0.284947 0.722805
0.218540 0.291966 0.727291
0.416846 0.301518 0.737667
0.585260 0.306096 0.752041
0.737026 0.306706 0.759762
0.862730 0.314885 0.754086
0.932525 0.404059 0.732876
0.000000 0.395270 0.736721
0.000000 0.387366 0.737148
0.225010 0.372625 0.741421
0.414160 0.367864 0.741482
0.584497 0.371557 0.753079
0.738857 0.382574 0.760494
0.859709 0.398596 0.753292
0.923369 0.473854 0.735073
0.000000 0.512474 0.735103
0.114046 0.509789 0.734463
0.288426 0.505974 0.738674
0.426123 0.491951 0.754177
0.604059 0.511925 0.764828
0.749630 0.530816 0.769314
0.849912 0.546075 0.757687
0.903777 0.595544 0.749264
0.122713 0.616815 0.717189
0.174777 0.616541 0.717556
0.297124 0.616602 0.720638
0.440742 0.619562 0.728328
0.593256 0.619318 0.741329
0.735195 0.638453 0.750607
0.818875 0.647578 0.742916
0.895872 0.659144 0.747738
0.315007 0.727291 0.710079
0.341741 0.730312 0.713893
0.407721 0.729976 0.715816
0.509026 0.730068 0.720485
0.623896 0.730098 0.727413
0.732052 0.738857 0.743893
0.822873 0.740841 0.752255
0.900267 0.742916 0.760555
0.549157 0.804318 0.722621
0.559869 0.804990 0.725185
0.585748 0.803891 0.727596
0.630213 0.802029 0.732479
0.684230 0.799924 0.739254
0.737850 0.793332 0.741390
0.802121 0.800778 0.736843
0.897887 0.811246 0.755856
0.644404 0.866453 0.751064
0.645441 0.865385 0.749813
0.655085 0.864103 0.749050
0.677790 0.864622 0.751156
0.716182 0.861967 0.755215
0.760006 0.859648 0.756161
0.814054 0.867399 0.754879
0.893370 0.882750 0.745632
0.000000 0.357000 0.832609
0.000000 0.358129 0.833219
0.248417 0.360967 0.834440
0.407874 0.367590 0.837491
0.555077 0.380774 0.840848
0.696284 0.410498 0.844877
0.816953 0.445563 0.844572
0.916350 0.472847 0.839628
0.000000 0.370184 0.830900
0.000000 0.371221 0.831601
0.249882 0.373510 0.832914
0.407233 0.379034 0.835386
0.554650 0.392920 0.838834
0.695277 0.422126 0.842741
0.815000 0.455299 0.842344
0.914000 0.479438 0.837369
0.000000 0.431434 0.829984
0.096742 0.426856 0.830625
0.267948 0.428290 0.831662
0.419623 0.437079 0.833738
0.563653 0.454475 0.836637
0.700374 0.486336 0.840391
0.814878 0.519829 0.840726
0.908568 0.541619 0.837461
0.303593 0.553277 0.824613
0.323735 0.552941 0.824186
0.373632 0.546044 0.825925
0.459022 0.538659 0.829618
0.589380 0.558312 0.832334
0.713710 0.590478 0.836149
0.814084 0.619562 0.837308
0.892088 0.633478 0.833677
0.323308 0.644068 0.816281
0.339117 0.644068 0.816098
0.412696 0.646845 0.816739
0.527459 0.657588 0.818814
0.624384 0.663630 0.823606
0.728359 0.687373 0.828580
0.812009 0.705684 0.832212
0.876738 0.712490 0.831052
0.451118 0.741085 0.810239
0.462470 0.741451 0.810452
0.505028 0.742947 0.811154
0.574670 0.746242 0.812589
0.655390 0.751522 0.815030
0.738399 0.758480 0.823514
0.814267 0.771420 0.832059
0.873014 0.771572 0.832975
0.578729 0.816831 0.807889
0.585534 0.816861 0.808286
0.609430 0.816373 0.809110
0.650111 0.815946 0.811032
0.699763 0.815824 0.814115
0.754055 0.817136 0.819120
0.812284 0.821653 0.827756
0.901518 0.820188 0.832578
0.671534 0.878813 0.822232
0.673823 0.878996 0.822446
0.683772 0.879973 0.823545
0.701534 0.881041 0.824491
0.727199 0.882292 0.824674
0.761166 0.883543 0.822751
0.816068 0.878874 0.821256
0.895354 0.892241 0.816556
0.330449 0.490120 0.910521
0.347356 0.492378 0.910735
0.405035 0.499123 0.910826
0.496193 0.514977 0.911742
0.601343 0.540002 0.912963
0.708766 0.575036 0.914427
0.810330 0.620203 0.916594
0.890440 0.651209 0.915648
0.343145 0.502373 0.908965
0.359106 0.504540 0.909239
0.414893 0.511467 0.909575
0.502220 0.526390 0.910430
0.604944 0.550500 0.911681
0.710567 0.584375 0.913207
0.810361 0.627405 0.915312
0.889403 0.656275 0.914458
0.397650 0.553796 0.906279
0.409827 0.555383 0.906401
0.455390 0.561303 0.906615
0.533593 0.576410 0.908049
0.625574 0.597375 0.909148
0.722286 0.626520 0.910643
0.814786 0.662104 0.913420
0.889403 0.683497 0.913451
0.507042 0.649439 0.899992
0.512169 0.648951 0.900450
0.531456 0.645686 0.901671
0.582788 0.651057 0.903502
0.659602 0.667872 0.905272
0.741604 0.688624 0.907897
0.822049 0.711025 0.912139
0.891325 0.722347 0.913787
0.543786 0.717098 0.895781
0.553002 0.718624 0.896025
0.585901 0.723323 0.896269
0.642267 0.733211 0.897551
0.683772 0.729641 0.901762
0.752865 0.740780 0.905882
0.826352 0.753902 0.911833
0.894682 0.760952 0.915465
0.580682 0.783627 0.893278
0.584985 0.783566 0.893217
0.603479 0.783719 0.893339
0.637537 0.784604 0.894469
0.696010 0.787778 0.898314
0.752834 0.786374 0.906401
0.828550 0.796567 0.915007
0.902129 0.802579 0.920867
0.634882 0.849424 0.895384
0.637812 0.849363 0.895506
0.649989 0.849119 0.896025
0.673335 0.848966 0.897612
0.706783 0.848264 0.900420
0.750210 0.846036 0.905333
0.818936 0.842130 0.915892
0.909056 0.854063 0.924865
0.670588 0.909636 0.899443
0.672602 0.909606 0.899504
0.681422 0.909789 0.900145
0.699062 0.910582 0.901823
0.726894 0.911681 0.904387
0.768856 0.913024 0.908141
0.830747 0.915068 0.914031
0.912871 0.920043 0.924468
