20 Preset/Human Style/【3】LUT video cho PR-AE-FCPX/Joe-Allam/JA – Controlled Contrast 4.cube
# Created by Adobe Lightroom plugin Export LUT (1.24.0)
# www.johnrellis.com/lightroom/exportlut.htm
# Preset: JA – Controlled Contrast 4
# Color profile: E:\lut插件\exportlut.1.24\exportlut.lrplugin\color profiles\Rec709gamma2.4.icc
LUT_3D_SIZE 32
DOMAIN_MIN 0.0 0.0 0.0
DOMAIN_MAX 1.0 1.0 1.0
0.000000 0.000000 0.000000
0.000000 0.000000 0.000000
0.000000 0.000000 0.000000
0.000000 0.000000 0.000000
0.000000 0.000000 0.000000
0.005921 0.001495 0.001923
0.104311 0.012451 0.021515
0.135958 0.024475 0.041108
0.163394 0.028504 0.057984
0.193271 0.019532 0.068727
0.232547 0.000000 0.073030
0.288182 0.000000 0.074525
0.361364 0.000000 0.070893
0.442267 0.000000 0.065187
0.523308 0.000000 0.060609
0.597314 0.000000 0.059419
0.660853 0.000000 0.066285
0.714565 0.000000 0.071199
0.760616 0.000000 0.077821
0.800259 0.000000 0.083070
0.835325 0.000000 0.088563
0.867033 0.000000 0.092226
0.897002 0.000000 0.072084
0.925261 0.000000 0.057710
0.952636 0.000000 0.058045
0.979675 0.000000 0.062654
1.000000 0.000000 0.071321
1.000000 0.000000 0.083223
1.000000 0.000000 0.094026
1.000000 0.000000 0.106905
1.000000 0.000000 0.124147
1.000000 0.000000 0.146792
0.000000 0.000000 0.000000
0.000000 0.000000 0.000000
0.000000 0.000000 0.000000
0.000000 0.000000 0.000000
0.000000 0.000000 0.000000
0.009888 0.001068 0.001923
0.104829 0.012207 0.022644
0.136324 0.024262 0.042237
0.163394 0.028504 0.057984
0.193271 0.019532 0.068727
0.232547 0.000000 0.073030
0.288487 0.000000 0.074495
0.361364 0.000000 0.070893
0.442267 0.000000 0.065187
0.523308 0.000000 0.060609
0.597192 0.000000 0.059449
0.660700 0.000000 0.065187
0.714412 0.000000 0.071229
0.760403 0.000000 0.077852
0.800229 0.000000 0.083070
0.835111 0.000000 0.088167
0.866941 0.000000 0.092226
0.896910 0.000000 0.064179
0.924956 0.000000 0.056428
0.952361 0.000000 0.056886
0.979400 0.000000 0.061524
1.000000 0.000000 0.069520
1.000000 0.000000 0.081605
1.000000 0.000000 0.093629
1.000000 0.000000 0.106722
1.000000 0.000000 0.123690
1.000000 0.000000 0.146456
0.000000 0.000000 0.000000
0.000000 0.000000 0.000000
0.000000 0.000000 0.000000
0.000000 0.000000 0.000000
0.000000 0.000000 0.000000
0.016846 0.001373 0.002869
0.107271 0.013489 0.023438
0.137362 0.024781 0.043183
0.164218 0.029053 0.058961
0.194278 0.018647 0.068696
0.233707 0.000000 0.074098
0.289952 0.000000 0.074403
0.362646 0.000000 0.070802
0.443641 0.000000 0.065064
0.524224 0.000000 0.060487
0.598169 0.000000 0.059297
0.661250 0.000000 0.065095
0.714839 0.000000 0.070008
0.760616 0.000000 0.077821
0.800259 0.000000 0.083070
0.835325 0.000000 0.088563
0.867369 0.000000 0.074739
0.896910 0.000000 0.051362
0.924834 0.000000 0.049592
0.952270 0.000000 0.051118
0.979217 0.000000 0.055940
1.000000 0.000000 0.063905
1.000000 0.000000 0.079103
1.000000 0.000000 0.091707
1.000000 0.000000 0.105135
1.000000 0.000000 0.122438
1.000000 0.000000 0.145724
0.000000 0.000000 0.000000
0.000000 0.000000 0.000000
0.000000 0.000000 0.000000
0.000000 0.000000 0.000000
0.000000 0.000000 0.000000
0.034943 0.003723 0.005585
0.111757 0.013886 0.026459
0.139895 0.025635 0.043977
0.166293 0.028687 0.059876
0.196201 0.018067 0.069612
0.236057 0.000000 0.074006
0.292851 0.000000 0.074250
0.365972 0.000000 0.070680
0.446204 0.000000 0.066072
0.526696 0.000000 0.060151
0.599786 0.000000 0.060151
0.662501 0.000000 0.064851
0.715358 0.000000 0.071046
0.761044 0.000000 0.077729
0.800656 0.000000 0.082216
0.836179 0.000000 0.044129
0.867674 0.000000 0.040284
0.896666 0.000000 0.037690
0.924620 0.000000 0.037446
0.951965 0.000000 0.038544
0.979034 0.000000 0.043793
1.000000 0.000000 0.052888
1.000000 0.000000 0.068421
1.000000 0.000000 0.087922
1.000000 0.000000 0.102113
1.000000 0.000000 0.120333
1.000000 0.000000 0.144137
0.000000 0.000000 0.000000
0.000000 0.000000 0.000000
0.000000 0.000000 0.000000
0.000000 0.000000 0.000000
0.000000 0.000000 0.000000
0.063661 0.005921 0.010376
0.117006 0.017212 0.029023
0.143648 0.026764 0.046845
0.169589 0.027436 0.060761
0.199557 0.016114 0.070497
0.240116 0.000000 0.073823
0.297551 0.000000 0.073976
0.370489 0.000000 0.070344
0.450843 0.000000 0.064454
0.529595 0.000000 0.060914
0.602136 0.000000 0.059632
0.663935 0.000000 0.065583
0.717281 0.000000 0.035523
0.762356 0.000000 0.030579
0.801633 0.000000 0.025452
0.836210 0.000000 0.021057
0.867521 0.000000 0.018036
0.896483 0.000000 0.016205
0.924437 0.000000 0.017700
0.951873 0.000000 0.019562
0.978973 0.000000 0.025391
1.000000 0.000000 0.035706
1.000000 0.000000 0.051270
1.000000 0.000000 0.077211
1.000000 0.000000 0.097200
1.000000 0.000000 0.116823
1.000000 0.000000 0.141695
0.006622 0.058106 0.012268
0.006622 0.058106 0.012268
0.006622 0.058106 0.012268
0.004883 0.060517 0.013123
0.005158 0.062684 0.013947
0.068635 0.056764 0.011261
0.117983 0.055940 0.028168
0.145510 0.053712 0.045258
0.171542 0.049561 0.058656
0.202426 0.033753 0.066529
0.244053 0.000000 0.069459
0.302922 0.000000 0.066438
0.376013 0.000000 0.057130
0.455695 0.000000 0.044587
0.534203 0.000000 0.029389
0.605371 0.000000 0.017884
0.666468 0.000000 0.008942
0.718654 0.000000 0.002655
0.763241 0.000000 0.000000
0.802060 0.000000 0.000000
0.836393 0.000000 0.000000
0.867460 0.000000 0.000000
0.897612 0.000000 0.000000
0.925689 0.000000 0.000000
0.953124 0.000000 0.000000
0.980316 0.000000 0.000000
1.000000 0.000000 0.009430
1.000000 0.000000 0.027985
1.000000 0.000000 0.056641
1.000000 0.000000 0.090059
1.000000 0.000000 0.112428
1.000000 0.000000 0.139376
0.015045 0.104646 0.032227
0.015045 0.104646 0.032227
0.015045 0.104646 0.032227
0.015045 0.104646 0.032227
0.017578 0.105226 0.031922
0.081483 0.104402 0.026490
0.112428 0.100282 0.025452
0.142153 0.097963 0.039704
0.171603 0.096254 0.051759
0.204257 0.092073 0.057649
0.247929 0.081483 0.056916
0.309209 0.036378 0.047974
0.383215 0.000000 0.033326
0.462623 0.000000 0.012482
0.540154 0.000000 0.000000
0.609796 0.000000 0.000000
0.669581 0.000000 0.000000
0.720546 0.000000 0.000000
0.764370 0.000000 0.000000
0.802762 0.000000 0.000000
0.836912 0.000000 0.000000
0.867918 0.000000 0.000000
0.897032 0.000000 0.000000
0.925139 0.000000 0.000000
0.952728 0.000000 0.000000
0.979950 0.000000 0.000000
1.000000 0.000000 0.000000
1.000000 0.000000 0.000000
1.000000 0.000000 0.025238
1.000000 0.000000 0.070893
1.000000 0.000000 0.104738
1.000000 0.000000 0.134340
0.018555 0.127993 0.047211
0.019257 0.127718 0.047333
0.018250 0.127993 0.048341
0.018250 0.127993 0.048341
0.035340 0.129152 0.041688
0.090028 0.129061 0.037079
0.117159 0.126284 0.034760
0.138735 0.121584 0.034455
0.166201 0.120302 0.043488
0.204105 0.122316 0.043763
0.252842 0.123201 0.038544
0.316197 0.122103 0.022797
0.391089 0.114961 0.000000
0.469978 0.092897 0.000000
0.546288 0.000000 0.000000
0.613703 0.000000 0.000000
0.672114 0.000000 0.000000
0.721920 0.000000 0.000000
0.765255 0.000000 0.000000
0.803128 0.000000 0.000000
0.836667 0.000000 0.000000
0.867582 0.000000 0.000000
0.896605 0.000000 0.000000
0.924712 0.000000 0.000000
0.952361 0.000000 0.000000
0.979767 0.000000 0.000000
1.000000 0.000000 0.000000
1.000000 0.000000 0.000000
1.000000 0.000000 0.000000
1.000000 0.000000 0.034730
1.000000 0.000000 0.093690
1.000000 0.000000 0.127810
0.000000 0.152499 0.050568
0.000000 0.152499 0.050568
0.000000 0.152651 0.050385
0.008850 0.153933 0.045716
0.044099 0.156039 0.037751
0.096529 0.155764 0.035401
0.125093 0.154574 0.032105
0.146273 0.149691 0.032685
0.164920 0.143801 0.032563
0.195529 0.144991 0.032074
0.248631 0.154971 0.018433
0.325444 0.169284 0.000000
0.400763 0.175845 0.000000
0.478706 0.176852 0.000000
0.553124 0.169558 0.000000
0.618585 0.152712 0.000000
0.675074 0.123476 0.000000
0.723720 0.039979 0.000000
0.766110 0.000000 0.000000
0.803220 0.000000 0.000000
0.836423 0.000000 0.000000
0.867063 0.000000 0.000000
0.896178 0.000000 0.000000
0.924407 0.000000 0.000000
0.952087 0.000000 0.000000
0.979553 0.000000 0.000000
1.000000 0.000000 0.000000
1.000000 0.000000 0.000000
1.000000 0.000000 0.000000
1.000000 0.000000 0.000000
1.000000 0.000000 0.069215
1.000000 0.000000 0.119814
0.000000 0.188754 0.027375
0.000000 0.189029 0.027070
0.000000 0.189578 0.025116
0.000000 0.191867 0.018860
0.044862 0.193240 0.012940
0.103395 0.193912 0.009247
0.138094 0.194491 0.003662
0.162905 0.189273 0.006470
0.183017 0.181827 0.008972
0.200137 0.173129 0.012268
0.237247 0.177646 0.001526
0.309148 0.199741 0.000000
0.398932 0.222934 0.000000
0.488563 0.237827 0.000000
0.560693 0.239963 0.000000
0.623468 0.234257 0.000000
0.678279 0.221805 0.000000
0.725429 0.202457 0.000000
0.766751 0.177188 0.000000
0.803159 0.143313 0.000000
0.836149 0.088685 0.000000
0.866697 0.000000 0.000000
0.895689 0.000000 0.000000
0.924010 0.000000 0.000000
0.951659 0.000000 0.000000
0.979309 0.000000 0.000000
1.000000 0.000000 0.000000
1.000000 0.000000 0.000000
1.000000 0.000000 0.000000
1.000000 0.000000 0.000000
1.000000 0.000000 0.022339
1.000000 0.000000 0.109346
0.000000 0.247654 0.000000
0.000000 0.247990 0.000000
0.000000 0.249332 0.000000
0.000000 0.250614 0.000000
0.034089 0.252079 0.000000
0.114504 0.253758 0.000000
0.158083 0.255955 0.000000
0.192172 0.252781 0.000000
0.216251 0.242161 0.000000
0.235660 0.229526 0.000000
0.250919 0.216129 0.000000
0.292973 0.222446 0.000000
0.378332 0.252903 0.000000
0.471687 0.279789 0.000000
0.562066 0.297398 0.000000
0.628595 0.298436 0.000000
0.680995 0.290227 0.000000
0.726864 0.277348 0.000000
0.767025 0.260685 0.000000
0.803006 0.240238 0.000000
0.835721 0.216007 0.000000
0.866087 0.187808 0.000000
0.895201 0.152285 0.000000
0.923552 0.098482 0.000000
0.951385 0.000000 0.000000
0.979156 0.000000 0.000000
1.000000 0.000000 0.000000
1.000000 0.000000 0.000000
1.000000 0.000000 0.000000
1.000000 0.000000 0.000000
1.000000 0.000000 0.000000
1.000000 0.000000 0.094667
0.000000 0.324865 0.000000
0.000000 0.325109 0.000000
0.000000 0.325414 0.000000
0.000000 0.326665 0.000000
0.026459 0.328374 0.000000
0.129488 0.330694 0.000000
0.182315 0.333837 0.000000
0.229313 0.335668 0.000000
0.258640 0.323003 0.000000
0.283421 0.308415 0.000000
0.303197 0.291966 0.000000
0.317540 0.273686 0.000000
0.357183 0.275608 0.000000
0.448615 0.309972 0.000000
0.537713 0.335302 0.000000
0.616968 0.348425 0.000000
0.684749 0.350500 0.000000
0.729213 0.339483 0.000000
0.768460 0.325505 0.000000
0.803769 0.309087 0.000000
0.836210 0.290623 0.000000
0.866453 0.270268 0.000000
0.895659 0.247440 0.000000
0.924071 0.222110 0.000000
0.951904 0.192660 0.000000
0.979889 0.155428 0.000000
1.000000 0.100160 0.000000
1.000000 0.000000 0.000000
1.000000 0.000000 0.000000
1.000000 0.000000 0.000000
1.000000 0.000000 0.000000
1.000000 0.000000 0.065156
0.000000 0.407019 0.000000
0.000000 0.407080 0.000000
0.000000 0.407752 0.000000
0.000000 0.408698 0.000000
0.035523 0.410346 0.000000
0.148379 0.412696 0.000000
0.206760 0.415961 0.000000
0.260624 0.419562 0.000000
0.298985 0.410742 0.000000
0.329351 0.396033 0.000000
0.354986 0.378912 0.000000
0.375189 0.359380 0.000000
0.389593 0.337285 0.000000
0.420600 0.329656 0.000000
0.510002 0.362951 0.000000
0.590631 0.383154 0.000000
0.660761 0.391852 0.000000
0.721309 0.391363 0.000000
0.768063 0.382208 0.000000
0.802945 0.367224 0.000000
0.835111 0.351019 0.000000
0.865415 0.333349 0.000000
0.894774 0.314733 0.000000
0.923308 0.294957 0.000000
0.951354 0.273838 0.000000
0.979614 0.250370 0.000000
1.000000 0.224613 0.000000
1.000000 0.194736 0.000000
1.000000 0.158083 0.000000
1.000000 0.108309 0.000000
1.000000 0.000000 0.000000
1.000000 0.000000 0.007904
0.000000 0.482277 0.000000
0.000000 0.482216 0.000000
0.000000 0.482399 0.000000
0.000000 0.483436 0.000000
0.070069 0.484718 0.000000
0.164523 0.486427 0.000000
0.224643 0.488716 0.000000
0.280278 0.491493 0.000000
0.327733 0.488991 0.000000
0.362799 0.476204 0.000000
0.394018 0.461250 0.000000
0.421027 0.443641 0.000000
0.442847 0.422950 0.000000
0.458442 0.399847 0.000000
0.480293 0.382300 0.000000
0.562402 0.410040 0.000000
0.634302 0.424811 0.000000
0.696742 0.429541 0.000000
0.751339 0.427222 0.000000
0.799741 0.419715 0.000000
0.833951 0.405097 0.000000
0.864286 0.388952 0.000000
0.893828 0.372107 0.000000
0.922515 0.354711 0.000000
0.950927 0.336614 0.000000
0.979370 0.317632 0.000000
1.000000 0.297826 0.000000
1.000000 0.276463 0.000000
1.000000 0.254246 0.000000
1.000000 0.231113 0.000000
1.000000 0.208652 0.000000
1.000000 0.191196 0.000000
0.000000 0.543908 0.000000
0.000000 0.543969 0.000000
0.000000 0.544305 0.000000
0.000000 0.544671 0.000000
0.101900 0.545647 0.000000
0.177707 0.546929 0.000000
0.237278 0.548669 0.000000
0.292149 0.550622 0.000000
0.345953 0.553033 0.000000
0.383337 0.542626 0.000000
0.418250 0.530022 0.000000
0.450050 0.515496 0.000000
0.478035 0.498054 0.000000
0.501122 0.478462 0.000000
0.518914 0.455695 0.000000
0.535851 0.432410 0.000000
0.606012 0.450782 0.000000
0.670588 0.461128 0.000000
0.727016 0.463081 0.000000
0.777340 0.459236 0.000000
0.823392 0.451637 0.000000
0.863035 0.440162 0.000000
0.892760 0.424353 0.000000
0.921721 0.407996 0.000000
0.950439 0.391424 0.000000
0.979126 0.374670 0.000000
1.000000 0.357549 0.000000
1.000000 0.340002 0.000000
1.000000 0.322087 0.000000
1.000000 0.304692 0.000000
1.000000 0.288487 0.000000
1.000000 0.276677 0.000000
0.000000 0.594659 0.000000
0.000000 0.594720 0.000000
0.000000 0.594873 0.000000
0.000000 0.595331 0.000000
0.119295 0.595941 0.000000
0.187442 0.596887 0.000000
0.245335 0.598138 0.000000
0.298955 0.599786 0.000000
0.351537 0.601465 0.000000
0.395087 0.597192 0.000000
0.431647 0.586664 0.000000
0.466163 0.574273 0.000000
0.497719 0.560235 0.000000
0.526116 0.543572 0.000000
0.550225 0.524804 0.000000
0.569238 0.502800 0.000000
0.582910 0.475746 0.000000
0.642390 0.486152 0.000000
0.701137 0.492927 0.000000
0.753353 0.492866 0.000000
0.801297 0.488716 0.000000
0.846189 0.481453 0.000000
0.888579 0.471992 0.000000
0.920836 0.457862 0.000000
0.949889 0.442237 0.000000
0.978851 0.426612 0.000000
1.000000 0.411048 0.000000
1.000000 0.395270 0.000000
1.000000 0.379522 0.000000
1.000000 0.364416 0.000000
1.000000 0.350958 0.000000
1.000000 0.341161 0.000000
0.000000 0.636896 0.000000
0.000000 0.636896 0.000000
0.000000 0.637049 0.000000
0.000000 0.637446 0.000000
0.133700 0.637903 0.000000
0.195438 0.638544 0.000000
0.250065 0.639460 0.000000
0.301610 0.640650 0.000000
0.352361 0.642115 0.000000
0.401068 0.642267 0.000000
0.438270 0.633265 0.000000
0.473671 0.622980 0.000000
0.507378 0.610986 0.000000
0.538750 0.597253 0.000000
0.566979 0.581628 0.000000
0.591791 0.563592 0.000000
0.611780 0.542657 0.000000
0.622889 0.513451 0.000000
0.673701 0.517144 0.000000
0.727993 0.521386 0.000000
0.778012 0.520623 0.000000
0.824613 0.516625 0.000000
0.868711 0.509880 0.000000
0.910735 0.501152 0.000000
0.949310 0.490211 0.000000
0.978546 0.475288 0.000000
1.000000 0.460517 0.000000
1.000000 0.445869 0.000000
1.000000 0.431464 0.000000
1.000000 0.417792 0.000000
1.000000 0.405615 0.000000
1.000000 0.396674 0.000000
0.000000 0.672938 0.000000
0.000000 0.672999 0.000000
0.000000 0.673884 0.000000
0.065370 0.674098 0.000000
0.147616 0.674586 0.000000
0.202060 0.675135 0.000000
0.253849 0.675898 0.000000
0.303655 0.676722 0.000000
0.352026 0.677852 0.000000
0.401282 0.679103 0.000000
0.441474 0.673915 0.000000
0.477180 0.664942 0.000000
0.511406 0.654658 0.000000
0.544182 0.642969 0.000000
0.574945 0.629450 0.000000
0.602991 0.614496 0.000000
0.628107 0.597253 0.000000
0.648768 0.577478 0.000000
0.658198 0.546838 0.000000
0.701869 0.545312 0.000000
0.753658 0.548455 0.000000
0.802304 0.547631 0.000000
0.848020 0.543694 0.000000
0.891539 0.537469 0.000000
0.933898 0.529686 0.000000
0.975219 0.520684 0.000000
1.000000 0.507652 0.000000
1.000000 0.493629 0.000000
1.000000 0.480079 0.000000
1.000000 0.467109 0.000000
1.000000 0.455726 0.000000
1.000000 0.447211 0.000000
0.000000 0.705684 0.000000
0.000000 0.705837 0.000000
0.000000 0.705989 0.000000
0.096132 0.706233 0.000000
0.156313 0.706691 0.000000
0.206851 0.707149 0.000000
0.255375 0.707820 0.000000
0.303075 0.708553 0.000000
0.350042 0.709438 0.000000
0.397131 0.710597 0.000000
0.442084 0.709712 0.000000
0.477485 0.701961 0.000000
0.512230 0.692866 0.000000
0.545464 0.682734 0.000000
0.577417 0.671077 0.000000
0.607507 0.658015 0.000000
0.635218 0.643458 0.000000
0.660395 0.627222 0.000000
0.681666 0.608484 0.000000
0.689876 0.577173 0.000000
0.728023 0.571618 0.000000
0.778531 0.574365 0.000000
0.826047 0.573388 0.000000
0.871305 0.569726 0.000000
0.914855 0.564324 0.000000
0.957641 0.557488 0.000000
0.999237 0.549493 0.000000
1.000000 0.539361 0.000000
1.000000 0.526116 0.000000
1.000000 0.513634 0.000000
1.000000 0.502647 0.000000
1.000000 0.494209 0.000000
0.000000 0.736202 0.000000
0.000000 0.736263 0.000000
0.010651 0.736385 0.000000
0.109682 0.736690 0.000000
0.162448 0.737026 0.000000
0.209232 0.737514 0.000000
0.255711 0.738064 0.000000
0.301091 0.738796 0.000000
0.346960 0.739620 0.000000
0.392950 0.740566 0.000000
0.438972 0.741695 0.000000
0.476783 0.736690 0.000000
0.511345 0.728725 0.000000
0.545129 0.719661 0.000000
0.577752 0.709560 0.000000
0.608942 0.698177 0.000000
0.638636 0.685481 0.000000
0.666041 0.671443 0.000000
0.691096 0.655665 0.000000
0.712551 0.637690 0.000000
0.719844 0.605982 0.000000
0.753506 0.597162 0.000000
0.802914 0.599542 0.000000
0.849790 0.598779 0.000000
0.894926 0.595666 0.000000
0.939208 0.591028 0.000000
0.982300 0.585199 0.000000
1.000000 0.578058 0.000000
1.000000 0.569909 0.000000
1.000000 0.558312 0.000000
1.000000 0.547326 0.000000
1.000000 0.538811 0.000000
0.000000 0.765591 0.000000
0.000000 0.765652 0.000000
0.034821 0.765774 0.000000
0.115114 0.766018 0.000000
0.162112 0.766323 0.000000
0.208042 0.766751 0.000000
0.253208 0.767300 0.000000
0.297795 0.767941 0.000000
0.342504 0.768765 0.000000
0.387152 0.769619 0.000000
0.432441 0.770657 0.000000
0.475502 0.769924 0.000000
0.509911 0.762783 0.000000
0.543603 0.754788 0.000000
0.576623 0.745815 0.000000
0.608637 0.735775 0.000000
0.639368 0.724605 0.000000
0.668482 0.712215 0.000000
0.695796 0.698543 0.000000
0.720943 0.683375 0.000000
0.742763 0.666133 0.000000
0.749477 0.634119 0.000000
0.779110 0.622492 0.000000
0.827878 0.624781 0.000000
0.874510 0.624292 0.000000
0.920378 0.622095 0.000000
0.965118 0.618433 0.000000
1.000000 0.613428 0.000000
1.000000 0.607019 0.000000
1.000000 0.599512 0.000000
1.000000 0.590753 0.000000
1.000000 0.581994 0.000000
0.000000 0.794797 0.000000
0.000000 0.794858 0.000000
0.023713 0.794949 0.000000
0.111574 0.795132 0.000000
0.159609 0.795407 0.000000
0.204807 0.795773 0.000000
0.249271 0.796323 0.000000
0.293339 0.796963 0.000000
0.337133 0.797696 0.000000
0.381476 0.798611 0.000000
0.426093 0.799649 0.000000
0.471015 0.800778 0.000000
0.508049 0.796445 0.000000
0.541833 0.789181 0.000000
0.574823 0.780972 0.000000
0.607416 0.771847 0.000000
0.638727 0.761776 0.000000
0.669032 0.750668 0.000000
0.697841 0.738521 0.000000
0.725093 0.725154 0.000000
0.750149 0.710536 0.000000
0.772213 0.693843 0.000000
0.778470 0.661707 0.000000
0.804837 0.647639 0.000000
0.853178 0.649866 0.000000
0.900481 0.650263 0.000000
0.946868 0.648920 0.000000
0.992187 0.646143 0.000000
1.000000 0.641718 0.000000
1.000000 0.635767 0.000000
1.000000 0.629084 0.000000
1.000000 0.623133 0.000000
0.000000 0.823728 0.000000
0.000000 0.823728 0.000000
0.000000 0.823850 0.000000
0.102449 0.824033 0.000000
0.152377 0.824277 0.000000
0.198520 0.824643 0.000000
0.243595 0.825132 0.000000
0.287266 0.825711 0.000000
0.330663 0.826474 0.000000
0.374975 0.827298 0.000000
0.418891 0.828305 0.000000
0.462867 0.829374 0.000000
0.506096 0.829435 0.000000
0.539666 0.822873 0.000000
0.573022 0.815488 0.000000
0.605646 0.807279 0.000000
0.637720 0.798123 0.000000
0.668666 0.788144 0.000000
0.698634 0.777096 0.000000
0.727199 0.764981 0.000000
0.754177 0.751919 0.000000
0.779416 0.737667 0.000000
0.801877 0.721614 0.000000
0.807950 0.689662 0.000000
0.831388 0.673365 0.000000
0.879820 0.675990 0.000000
0.928099 0.677211 0.000000
0.975311 0.676753 0.000000
1.000000 0.674586 0.000000
1.000000 0.670314 0.000000
1.000000 0.664668 0.000000
1.000000 0.659052 0.000000
0.000000 0.852750 0.000000
0.000000 0.852781 0.000000
0.000000 0.852903 0.000000
0.081270 0.852995 0.000000
0.141451 0.853269 0.000000
0.190219 0.853574 0.000000
0.235264 0.854002 0.000000
0.279850 0.854520 0.000000
0.323735 0.855161 0.000000
0.367437 0.855924 0.000000
0.411231 0.856809 0.000000
0.455116 0.857816 0.000000
0.499306 0.858885 0.000000
0.537591 0.856016 0.000000
0.570703 0.849393 0.000000
0.603632 0.841947 0.000000
0.636042 0.833768 0.000000
0.667750 0.824735 0.000000
0.698573 0.814878 0.000000
0.728420 0.804013 0.000000
0.756893 0.792264 0.000000
0.784024 0.779477 0.000000
0.809415 0.765621 0.000000
0.832273 0.749935 0.000000
0.838254 0.717952 0.000000
0.860014 0.700526 0.000000
0.908934 0.703548 0.000000
0.958099 0.705715 0.000000
1.000000 0.705867 0.000000
1.000000 0.703578 0.000000
1.000000 0.699245 0.000000
1.000000 0.693996 0.000000
0.000000 0.881376 0.000000
0.000000 0.881437 0.000000
0.000000 0.881498 0.000000
0.028016 0.881651 0.000000
0.130068 0.881865 0.000000
0.181003 0.882139 0.000000
0.227909 0.882536 0.000000
0.273167 0.883024 0.000000
0.316930 0.883635 0.000000
0.360601 0.884306 0.000000
0.404211 0.885100 0.000000
0.447700 0.885954 0.000000
0.491341 0.886870 0.000000
0.535332 0.887846 0.000000
0.569085 0.882475 0.000000
0.601892 0.876005 0.000000
0.634638 0.868833 0.000000
0.666835 0.860838 0.000000
0.698451 0.852140 0.000000
0.729244 0.842588 0.000000
0.759121 0.832120 0.000000
0.787900 0.820798 0.000000
0.815366 0.808530 0.000000
0.841367 0.795224 0.000000
0.864988 0.780179 0.000000
0.871214 0.748501 0.000000
0.891844 0.730129 0.000000
0.941070 0.733425 0.000000
0.990967 0.736263 0.000000
1.000000 0.736110 0.000000
1.000000 0.733181 0.000000
1.000000 0.728481 0.000000
0.000000 0.909392 0.000000
0.000000 0.909422 0.000000
0.000000 0.909453 0.000000
0.023957 0.909575 0.000000
0.127901 0.909728 0.000000
0.179019 0.909941 0.000000
0.225559 0.910246 0.000000
0.269841 0.910613 0.000000
0.313512 0.911040 0.000000
0.356390 0.911528 0.000000
0.399207 0.912108 0.000000
0.442023 0.912688 0.000000
0.484535 0.913359 0.000000
0.527764 0.914061 0.000000
0.567864 0.913085 0.000000
0.600427 0.907713 0.000000
0.632990 0.901732 0.000000
0.665431 0.895109 0.000000
0.697627 0.887755 0.000000
0.729335 0.879698 0.000000
0.760433 0.870878 0.000000
0.790768 0.861204 0.000000
0.820157 0.850614 0.000000
0.848478 0.839109 0.000000
0.875425 0.826719 0.000000
0.900328 0.812680 0.000000
0.907256 0.781674 0.000000
0.927733 0.762936 0.000000
0.976532 0.765713 0.000000
1.000000 0.768093 0.000000
1.000000 0.766751 0.000000
1.000000 0.761715 0.000000
0.000000 0.935454 0.000000
0.000000 0.935454 0.000000
0.015808 0.935515 0.000000
0.103822 0.935576 0.000000
0.149813 0.935698 0.000000
0.192386 0.935851 0.000000
0.234562 0.936034 0.000000
0.275975 0.936309 0.000000
0.317052 0.936584 0.000000
0.358160 0.936919 0.000000
0.399298 0.937285 0.000000
0.440467 0.937652 0.000000
0.481758 0.938018 0.000000
0.523552 0.938323 0.000000
0.565179 0.938628 0.000000
0.600855 0.936065 0.000000
0.632563 0.931395 0.000000
0.664607 0.926116 0.000000
0.696620 0.920348 0.000000
0.728725 0.913939 0.000000
0.760525 0.906981 0.000000
0.792111 0.899290 0.000000
0.823270 0.890867 0.000000
0.853788 0.881682 0.000000
0.883543 0.871702 0.000000
0.912383 0.860838 0.000000
0.939666 0.848600 0.000000
0.948119 0.818662 0.000000
0.970581 0.801266 0.000000
1.000000 0.800229 0.000000
1.000000 0.799527 0.000000
1.000000 0.794797 0.000000
0.137331 0.959014 0.000000
0.140719 0.959014 0.000000
0.152193 0.959045 0.000000
0.171145 0.959045 0.000000
0.197818 0.959045 0.000000
0.228000 0.959106 0.000000
0.261448 0.959136 0.000000
0.296391 0.959197 0.000000
0.332769 0.959258 0.000000
0.369970 0.959289 0.000000
0.407813 0.959319 0.000000
0.446082 0.959350 0.000000
0.485084 0.959319 0.000000
0.524041 0.959258 0.000000
