20 Preset/Human Style/【3】LUT video cho PR-AE-FCPX/Joe-Allam/JA – Cine Night 3.cube
# Created by Adobe Lightroom plugin Export LUT (1.24.0)
# www.johnrellis.com/lightroom/exportlut.htm
# Preset: JA – Cine Night 3
# Color profile: E:\lut插件\exportlut.1.24\exportlut.lrplugin\color profiles\Rec709gamma2.4.icc
LUT_3D_SIZE 32
DOMAIN_MIN 0.0 0.0 0.0
DOMAIN_MAX 1.0 1.0 1.0
0.002106 0.025910 0.056245
0.002106 0.025910 0.056245
0.010071 0.024994 0.056214
0.036866 0.023072 0.057069
0.075013 0.026581 0.058106
0.096590 0.032776 0.063203
0.114504 0.040345 0.072297
0.137667 0.046815 0.081209
0.168521 0.048402 0.087434
0.209384 0.035981 0.091890
0.260136 0.005676 0.096223
0.319524 0.000000 0.098543
0.385138 0.000000 0.101045
0.454841 0.000000 0.102815
0.524987 0.000000 0.104707
0.592859 0.000000 0.106935
0.656641 0.000000 0.109773
0.714687 0.000000 0.113558
0.767636 0.000000 0.118135
0.818570 0.000000 0.123354
0.870970 0.000000 0.131380
0.912963 0.000000 0.140597
0.947387 0.000000 0.150729
0.978759 0.000000 0.161044
1.000000 0.000000 0.171817
1.000000 0.000000 0.183047
1.000000 0.000000 0.194827
1.000000 0.000000 0.207370
1.000000 0.000000 0.220859
1.000000 0.000000 0.236240
1.000000 0.000000 0.253239
1.000000 0.114321 0.272862
0.002106 0.025910 0.056245
0.002106 0.025910 0.056245
0.011353 0.025971 0.056062
0.036713 0.026459 0.056611
0.073579 0.028992 0.057801
0.095979 0.035187 0.064057
0.113527 0.042969 0.073152
0.136080 0.049897 0.081727
0.166506 0.050935 0.087343
0.206455 0.039887 0.092317
0.256168 0.010803 0.096284
0.314885 0.000000 0.098634
0.379706 0.000000 0.100862
0.448737 0.000000 0.103090
0.518669 0.000000 0.105043
0.586725 0.000000 0.107301
0.650935 0.000000 0.109895
0.709346 0.000000 0.113741
0.762844 0.000000 0.117769
0.813962 0.000000 0.123354
0.865232 0.000000 0.130556
0.906737 0.000000 0.139498
0.940917 0.000000 0.149203
0.971954 0.000000 0.158968
1.000000 0.000000 0.169223
1.000000 0.000000 0.179934
1.000000 0.000000 0.191592
1.000000 0.000000 0.203830
1.000000 0.000000 0.217288
1.000000 0.000000 0.232151
1.000000 0.000000 0.249058
1.000000 0.085847 0.268223
0.000000 0.035309 0.056184
0.000000 0.036286 0.056001
0.012177 0.037110 0.054505
0.038422 0.039796 0.053651
0.071809 0.042512 0.060517
0.094575 0.048920 0.067903
0.112612 0.055512 0.077150
0.135927 0.061006 0.084321
0.166751 0.060639 0.089998
0.206638 0.050782 0.093843
0.256291 0.022919 0.096864
0.314305 0.000000 0.099245
0.378424 0.000000 0.101411
0.446967 0.000000 0.103334
0.516381 0.000000 0.105562
0.584283 0.000000 0.107790
0.648280 0.000000 0.110689
0.706966 0.000000 0.114443
0.760464 0.000000 0.118349
0.812406 0.000000 0.123476
0.862852 0.000000 0.130983
0.903960 0.000000 0.139498
0.937987 0.000000 0.148714
0.968780 0.000000 0.158846
0.997833 0.000000 0.168795
1.000000 0.000000 0.178897
1.000000 0.000000 0.190402
1.000000 0.000000 0.202457
1.000000 0.000000 0.215732
1.000000 0.000000 0.230686
1.000000 0.000000 0.247257
1.000000 0.088197 0.266270
0.000000 0.064515 0.066957
0.000000 0.064302 0.068086
0.006897 0.065126 0.071138
0.031159 0.068025 0.070253
0.064179 0.069764 0.073884
0.093324 0.073579 0.078859
0.112764 0.079103 0.083894
0.137514 0.081361 0.089174
0.169192 0.080568 0.093446
0.209873 0.070863 0.096590
0.259709 0.042878 0.098787
0.317479 0.000000 0.100954
0.381109 0.000000 0.102602
0.448585 0.000000 0.104707
0.517021 0.000000 0.106508
0.583673 0.000000 0.108980
0.646784 0.000000 0.111727
0.704402 0.000000 0.115389
0.757382 0.000000 0.119509
0.809689 0.000000 0.124666
0.857939 0.000000 0.131136
0.898070 0.000000 0.139223
0.932128 0.000000 0.148287
0.963226 0.000000 0.157870
0.993042 0.000000 0.167819
1.000000 0.000000 0.178592
1.000000 0.000000 0.190311
1.000000 0.000000 0.202701
1.000000 0.000000 0.215946
1.000000 0.000000 0.230900
1.000000 0.000000 0.247257
1.000000 0.115053 0.265660
0.000000 0.088869 0.088472
0.000000 0.089143 0.089265
0.001465 0.089174 0.090059
0.019562 0.090059 0.091066
0.051057 0.091249 0.090669
0.089082 0.093477 0.090883
0.112795 0.095216 0.091768
0.139162 0.096559 0.094484
0.172305 0.096101 0.097139
0.213809 0.092805 0.099306
0.263584 0.078584 0.101289
0.321141 0.028626 0.103212
0.384070 0.000000 0.104982
0.451179 0.000000 0.106844
0.518944 0.000000 0.109010
0.585534 0.000000 0.111421
0.648341 0.000000 0.114351
0.706050 0.000000 0.117586
0.758480 0.000000 0.121309
0.811551 0.000000 0.126589
0.857908 0.000000 0.133364
0.897032 0.000000 0.141238
0.930632 0.000000 0.149630
0.961700 0.000000 0.159274
0.991608 0.000000 0.169284
1.000000 0.000000 0.179904
1.000000 0.000000 0.191348
1.000000 0.000000 0.203494
1.000000 0.000000 0.216770
1.000000 0.000000 0.231479
1.000000 0.000000 0.247715
1.000000 0.149508 0.265873
0.000000 0.102602 0.099794
0.000000 0.102907 0.100465
0.000000 0.102541 0.100832
0.011353 0.103059 0.102113
0.038422 0.105226 0.101991
0.079011 0.107851 0.101350
0.110170 0.111940 0.100954
0.142092 0.113893 0.101228
0.179934 0.113924 0.101991
0.223392 0.111147 0.103456
0.274693 0.102876 0.105043
0.332555 0.083619 0.106905
0.395605 0.008820 0.108614
0.461952 0.000000 0.110262
0.529076 0.000000 0.112459
0.594507 0.000000 0.114321
0.656214 0.000000 0.117586
0.712795 0.000000 0.120485
0.765774 0.000000 0.124666
0.818173 0.000000 0.129763
0.862547 0.000000 0.136538
0.900420 0.000000 0.144411
0.967742 0.000000 0.164553
0.997833 0.000000 0.175784
1.000000 0.000000 0.187076
1.000000 0.000000 0.198703
1.000000 0.000000 0.211093
1.000000 0.000000 0.223972
1.000000 0.011200 0.238193
1.000000 0.145357 0.253574
1.000000 0.199893 0.270573
1.000000 0.243717 0.289220
0.000000 0.122652 0.109651
0.000000 0.122591 0.109651
0.000000 0.122835 0.110506
0.000000 0.123171 0.111635
0.019989 0.124941 0.112520
0.066499 0.128450 0.112001
0.107759 0.132815 0.111086
0.149081 0.138521 0.109712
0.194736 0.139620 0.109773
0.249027 0.137484 0.109926
0.305028 0.130709 0.110689
0.365942 0.117678 0.112276
0.430274 0.092348 0.113680
0.496010 0.000000 0.115053
0.560937 0.000000 0.116915
0.622827 0.000000 0.119081
0.680598 0.000000 0.121736
0.733639 0.000000 0.125216
0.789761 0.000000 0.129885
0.840452 0.000000 0.136019
0.883940 0.000000 0.143801
0.921752 0.000000 0.153170
0.955901 0.000000 0.163973
0.988373 0.000000 0.175540
1.000000 0.000000 0.187472
1.000000 0.000000 0.199619
1.000000 0.000000 0.211704
1.000000 0.068971 0.224460
1.000000 0.146609 0.238193
1.000000 0.191592 0.253056
1.000000 0.230686 0.269718
1.000000 0.267002 0.288029
0.000000 0.144656 0.118349
0.000000 0.144564 0.118654
0.000000 0.144808 0.119142
0.000000 0.145083 0.120455
0.000000 0.145876 0.122408
0.038025 0.149752 0.121767
0.100404 0.154604 0.121004
0.141604 0.159731 0.119997
0.196994 0.166781 0.117891
0.252842 0.167391 0.117708
0.315984 0.164462 0.117647
0.382147 0.156466 0.117800
0.445472 0.142824 0.118776
0.509728 0.121614 0.119997
0.572534 0.085145 0.121614
0.632105 0.000000 0.123751
0.687617 0.000000 0.126070
0.743496 0.000000 0.129458
0.796658 0.000000 0.134096
0.843198 0.000000 0.140047
0.883909 0.000000 0.147555
0.920104 0.000000 0.156832
0.953246 0.000000 0.167056
0.984955 0.000000 0.178653
1.000000 0.000000 0.190433
1.000000 0.095125 0.202213
1.000000 0.141878 0.213931
1.000000 0.176974 0.226444
1.000000 0.209018 0.240208
1.000000 0.239170 0.255039
1.000000 0.268528 0.271458
1.000000 0.297887 0.289403
0.000000 0.171817 0.127962
0.000000 0.171786 0.128237
0.000000 0.171969 0.128420
0.000000 0.172427 0.129763
0.000000 0.173159 0.131502
0.000000 0.175357 0.132815
0.088289 0.180789 0.131777
0.136477 0.187411 0.130556
0.189792 0.193973 0.129152
0.258305 0.201968 0.125765
0.323217 0.202487 0.124178
0.391821 0.199863 0.125277
0.463661 0.193301 0.124483
0.528344 0.182162 0.124697
0.589044 0.167086 0.126680
0.645899 0.149813 0.128206
0.703059 0.133883 0.130983
0.756771 0.120058 0.134768
0.805417 0.110506 0.138949
0.848447 0.106355 0.145052
0.886625 0.110842 0.152346
0.920775 0.121309 0.161746
0.952850 0.137484 0.172091
0.983764 0.158022 0.183413
1.000000 0.180179 0.194858
1.000000 0.201053 0.206485
1.000000 0.222110 0.218173
1.000000 0.242924 0.230838
1.000000 0.264714 0.244327
1.000000 0.286809 0.259037
1.000000 0.309636 0.275364
1.000000 0.333410 0.293187
0.000000 0.205112 0.137575
0.000000 0.205051 0.137575
0.000000 0.205020 0.138003
0.000000 0.205570 0.139162
0.000000 0.205997 0.140719
0.000000 0.206760 0.142763
0.040162 0.211734 0.142336
0.127901 0.218845 0.141207
0.186557 0.226841 0.139162
0.249851 0.234531 0.136782
0.327214 0.243503 0.132082
0.397253 0.244388 0.129152
0.467994 0.242741 0.130159
0.538659 0.238651 0.130495
0.605341 0.232578 0.131228
0.665431 0.227268 0.132998
0.720424 0.223056 0.135958
0.770413 0.220066 0.139132
0.815518 0.219364 0.144228
0.855406 0.219883 0.150484
0.890654 0.222080 0.158663
0.922148 0.225650 0.167849
0.952117 0.232670 0.177523
0.981231 0.242161 0.188205
1.000000 0.253758 0.198856
1.000000 0.266331 0.209842
1.000000 0.280674 0.221683
1.000000 0.295995 0.233890
1.000000 0.312596 0.247807
1.000000 0.330541 0.262669
1.000000 0.349218 0.279179
1.000000 0.369238 0.297612
0.000000 0.242344 0.145907
0.000000 0.242435 0.146090
0.000000 0.242588 0.146426
0.000000 0.243046 0.147463
0.000000 0.243931 0.149142
0.000000 0.244999 0.151278
0.000000 0.247837 0.152712
0.114046 0.255253 0.151553
0.181704 0.264012 0.149386
0.249149 0.273808 0.146639
0.320500 0.282719 0.142641
0.403754 0.292943 0.136568
0.476692 0.294469 0.131136
0.549523 0.296696 0.134401
0.619257 0.298070 0.136599
0.683009 0.299687 0.137514
0.735714 0.298863 0.140108
0.782132 0.298253 0.143984
0.823239 0.297948 0.149660
0.860166 0.297856 0.156497
0.893065 0.298314 0.165011
0.923095 0.300237 0.174472
0.952300 0.304570 0.184237
0.980713 0.310704 0.194644
1.000000 0.318883 0.205661
1.000000 0.328069 0.216770
1.000000 0.338445 0.228305
1.000000 0.349950 0.240848
1.000000 0.362676 0.254612
1.000000 0.376745 0.269902
1.000000 0.392035 0.286412
1.000000 0.408392 0.304845
0.000000 0.286473 0.153628
0.000000 0.286534 0.153780
0.000000 0.286839 0.154208
0.000000 0.287327 0.155306
0.000000 0.288243 0.156771
0.000000 0.289555 0.158907
0.000000 0.291264 0.161837
0.089845 0.297398 0.161532
0.176150 0.306432 0.159548
0.248081 0.316747 0.156710
0.322881 0.328466 0.152407
0.403540 0.341527 0.146731
0.527306 0.381323 0.140719
0.601953 0.388190 0.134066
0.666560 0.393439 0.139895
0.725368 0.398413 0.146029
0.778439 0.402594 0.151339
0.823758 0.404028 0.157565
0.858885 0.401343 0.166262
0.890532 0.398688 0.175814
0.919768 0.396918 0.185916
0.947570 0.396490 0.196109
0.974578 0.397772 0.206607
1.000000 0.400702 0.217197
1.000000 0.404700 0.228275
1.000000 0.409369 0.239292
1.000000 0.415137 0.251011
1.000000 0.421637 0.263188
1.000000 0.429297 0.276371
1.000000 0.438300 0.290929
1.000000 0.448829 0.307134
1.000000 0.460975 0.325353
0.000000 0.344854 0.162478
0.000000 0.344793 0.162478
0.000000 0.344671 0.162783
0.000000 0.344640 0.163729
0.000000 0.344976 0.165133
0.000000 0.345434 0.167178
0.000000 0.346349 0.170077
0.019379 0.349981 0.172824
0.176669 0.361425 0.171054
0.259373 0.375036 0.168215
0.340368 0.390845 0.164401
0.425483 0.408484 0.158999
0.511162 0.425727 0.151980
0.596796 0.444190 0.145632
0.663752 0.452705 0.139315
0.721004 0.458106 0.145388
0.771542 0.461921 0.155276
0.815824 0.463294 0.164828
0.855253 0.463386 0.174350
0.887175 0.459693 0.184207
0.915435 0.455756 0.194278
0.942779 0.453529 0.204532
0.969482 0.452827 0.214847
0.995575 0.453864 0.225467
1.000000 0.455940 0.236271
1.000000 0.458869 0.247562
1.000000 0.462898 0.259251
1.000000 0.467689 0.271702
1.000000 0.473518 0.285222
1.000000 0.480751 0.300114
1.000000 0.489052 0.316503
1.000000 0.498695 0.334966
0.000000 0.399176 0.170291
0.000000 0.399084 0.170321
0.000000 0.398779 0.170504
0.000000 0.398993 0.171572
0.000000 0.399420 0.172915
0.000000 0.400153 0.174899
0.000000 0.401617 0.177798
0.000000 0.403845 0.181643
0.169558 0.411170 0.182193
0.258091 0.423590 0.179721
0.338933 0.438239 0.176364
0.420905 0.455116 0.171481
0.503929 0.473548 0.164767
0.581842 0.491188 0.158022
0.656580 0.508721 0.153414
0.715023 0.515648 0.147829
0.764157 0.518151 0.154665
0.806729 0.518578 0.169314
0.845029 0.517723 0.182559
0.879881 0.515984 0.194217
0.912200 0.514275 0.205600
0.939391 0.510491 0.215885
0.965850 0.508385 0.226047
0.991943 0.507774 0.236851
1.000000 0.508324 0.247623
1.000000 0.509606 0.259007
1.000000 0.511803 0.270909
1.000000 0.514702 0.283177
1.000000 0.518700 0.297032
1.000000 0.523888 0.312200
1.000000 0.530144 0.328801
1.000000 0.537682 0.347265
0.000000 0.456794 0.178286
0.000000 0.456733 0.178256
0.000000 0.456245 0.178531
0.000000 0.455818 0.179294
0.000000 0.455360 0.180850
0.000000 0.455268 0.182803
0.000000 0.455940 0.185519
0.000000 0.457343 0.188876
0.162661 0.459876 0.193454
0.256291 0.471321 0.191043
0.337926 0.484932 0.188235
0.417243 0.500694 0.184512
0.495613 0.517876 0.179812
0.570336 0.536370 0.173495
0.639490 0.553338 0.167300
0.705318 0.568963 0.165225
0.755673 0.572686 0.163241
0.798306 0.571771 0.169955
0.835355 0.569879 0.188785
0.869627 0.567407 0.204227
0.902403 0.565850 0.217319
0.934386 0.565393 0.229557
0.962646 0.563409 0.240421
0.988525 0.561059 0.251041
1.000000 0.559869 0.261723
1.000000 0.559655 0.273167
1.000000 0.560388 0.285069
1.000000 0.561944 0.298161
1.000000 0.564599 0.312444
1.000000 0.568505 0.328344
1.000000 0.573419 0.346075
1.000000 0.579614 0.365728
0.000000 0.509575 0.185794
0.000000 0.509697 0.186038
0.000000 0.509545 0.186404
0.000000 0.509575 0.187472
0.000000 0.509514 0.188815
0.000000 0.510002 0.190860
0.000000 0.511131 0.193729
0.000000 0.513054 0.197208
0.163058 0.515587 0.201999
0.261082 0.522148 0.204013
0.341405 0.534173 0.201785
0.417121 0.547539 0.198947
0.489509 0.562188 0.195071
0.558221 0.577752 0.190433
0.624109 0.594202 0.184634
0.684962 0.608698 0.179812
0.742367 0.620081 0.183047
0.786465 0.620844 0.184512
0.824674 0.617670 0.190555
0.858732 0.614984 0.211246
0.891722 0.613672 0.228000
0.924041 0.613123 0.242679
0.955383 0.613428 0.256168
0.985687 0.613916 0.268956
1.000000 0.611597 0.280095
1.000000 0.610132 0.291630
1.000000 0.609583 0.304021
1.000000 0.609674 0.317266
1.000000 0.610468 0.331731
1.000000 0.612299 0.347417
1.000000 0.614893 0.364813
1.000000 0.618647 0.384009
0.000000 0.558801 0.194125
0.000000 0.558740 0.194247
0.000000 0.558740 0.194644
0.000000 0.558923 0.195560
0.000000 0.559014 0.196963
0.000000 0.559472 0.199191
0.000000 0.560540 0.202029
0.000000 0.562097 0.205692
0.162417 0.564111 0.210361
0.262150 0.566674 0.215732
0.341161 0.576593 0.215152
0.413519 0.588739 0.213107
0.482094 0.602167 0.210544
0.547051 0.616388 0.207431
0.608637 0.631128 0.204166
0.667781 0.645930 0.200717
0.722469 0.658259 0.198886
0.773281 0.666316 0.207919
0.813077 0.665156 0.212467
0.848905 0.661494 0.218051
0.882109 0.659602 0.237339
0.914305 0.658930 0.255375
0.945739 0.658961 0.271244
0.976532 0.659388 0.285924
1.000000 0.659968 0.300237
1.000000 0.658839 0.313390
1.000000 0.656916 0.325963
1.000000 0.655634 0.339361
1.000000 0.655024 0.354162
1.000000 0.655177 0.370153
1.000000 0.656092 0.387457
1.000000 0.658045 0.406744
0.000000 0.608179 0.204654
0.000000 0.608606 0.204746
0.000000 0.631312 0.211795
0.000000 0.631373 0.212680
0.000000 0.631556 0.214267
0.000000 0.631708 0.216526
0.000000 0.632136 0.219486
0.000000 0.632959 0.223331
0.205020 0.634424 0.227909
0.294560 0.636378 0.233890
0.366369 0.640925 0.238224
0.432563 0.651331 0.237949
0.494392 0.662104 0.237156
0.553246 0.673274 0.236454
0.609339 0.684535 0.235966
0.663203 0.695857 0.235386
0.715206 0.707057 0.234928
0.763760 0.715877 0.236606
0.808042 0.719142 0.249271
0.845274 0.717098 0.254154
0.879271 0.713130 0.259495
0.911376 0.710780 0.275914
0.942168 0.709499 0.294102
0.972137 0.708522 0.310552
1.000000 0.707301 0.325719
1.000000 0.705989 0.340154
1.000000 0.704433 0.354376
1.000000 0.700679 0.366644
1.000000 0.698054 0.380468
1.000000 0.696284 0.395850
1.000000 0.695430 0.413031
1.000000 0.695613 0.431830
0.000000 0.661128 0.219547
0.000000 0.663142 0.220310
0.000000 0.665248 0.221561
0.000000 0.667170 0.223392
0.000000 0.668696 0.225437
0.000000 0.669368 0.227756
0.000000 0.669856 0.230930
0.000000 0.670253 0.234501
0.210056 0.671199 0.239139
0.295323 0.672480 0.244663
0.363867 0.674220 0.251438
0.425422 0.681331 0.253788
0.483925 0.690730 0.254185
0.539117 0.700465 0.254917
0.592523 0.710475 0.255924
0.643946 0.720699 0.257206
0.693507 0.730953 0.258793
0.742123 0.741512 0.260777
0.788296 0.750210 0.265324
0.830808 0.753841 0.279484
0.867430 0.753048 0.286473
0.901152 0.750362 0.293126
0.933043 0.748287 0.307378
0.962982 0.746944 0.326696
0.991394 0.745418 0.343847
1.000000 0.743557 0.359838
1.000000 0.741543 0.375463
1.000000 0.739376 0.391455
1.000000 0.736446 0.406470
1.000000 0.733333 0.421485
1.000000 0.731136 0.438453
1.000000 0.729915 0.456977
0.000000 0.699092 0.233646
0.000000 0.700984 0.234714
0.000000 0.702968 0.236179
0.000000 0.704860 0.238315
0.000000 0.706294 0.240574
0.000000 0.706996 0.242954
0.000000 0.707332 0.245823
0.096254 0.707668 0.249546
0.225681 0.708217 0.254124
0.303014 0.709071 0.259556
0.366796 0.710323 0.265995
0.423896 0.712825 0.272526
0.478370 0.720912 0.274083
0.530510 0.729397 0.276066
0.580865 0.738247 0.278325
0.629358 0.747280 0.281071
0.676905 0.756680 0.283879
0.723598 0.766445 0.287266
0.769863 0.776730 0.291356
0.814237 0.785000 0.297795
0.854704 0.788052 0.313542
0.890623 0.787594 0.322271
0.923674 0.785245 0.329839
0.954833 0.782803 0.342351
0.983062 0.780789 0.362249
1.000000 0.778470 0.380346
1.000000 0.775937 0.397253
1.000000 0.773220 0.414160
1.000000 0.770657 0.431800
1.000000 0.768124 0.450233
1.000000 0.764736 0.466773
1.000000 0.762295 0.484749
0.000000 0.735439 0.251286
0.000000 0.737026 0.252476
0.000000 0.738613 0.254154
0.000000 0.740139 0.256168
0.000000 0.741299 0.258366
0.000000 0.741817 0.260899
0.000000 0.742123 0.263798
0.151492 0.742306 0.267369
0.245945 0.742794 0.271946
0.314122 0.743343 0.277256
0.372808 0.744350 0.283665
0.425940 0.745510 0.291081
0.476234 0.750149 0.295781
0.525139 0.757565 0.298772
0.572503 0.765621 0.302159
0.618982 0.774136 0.305913
0.664698 0.783352 0.310460
0.709987 0.793088 0.315740
0.755062 0.803311 0.322087
0.800504 0.813962 0.329656
0.844541 0.822538 0.339818
0.884428 0.825589 0.358923
0.919646 0.825162 0.370336
0.951690 0.822904 0.380377
0.981384 0.819944 0.392279
1.000000 0.817258 0.414008
1.000000 0.814237 0.433906
1.000000 0.811002 0.453132
1.000000 0.807767 0.472541
1.000000 0.804562 0.492470
1.000000 0.801663 0.512749
1.000000 0.799039 0.532311
0.000000 0.778439 0.280552
0.000000 0.779080 0.281346
0.000000 0.779507 0.282200
0.000000 0.779782 0.283238
0.000000 0.779934 0.284886
0.000000 0.779812 0.286961
0.110994 0.779721 0.289525
0.210361 0.779751 0.292943
0.278172 0.780026 0.297124
0.336187 0.780636 0.302617
0.388312 0.781521 0.309026
0.437079 0.782589 0.316320
0.482460 0.783841 0.324285
0.527855 0.790646 0.328008
0.572351 0.797818 0.332128
0.616022 0.805417 0.336706
0.659113 0.813382 0.341955
0.702083 0.821805 0.348089
0.744839 0.830381 0.354864
0.788052 0.839200 0.362799
0.831662 0.847990 0.371771
0.874205 0.854582 0.383001
0.911254 0.855314 0.401953
0.943694 0.853147 0.413581
0.972869 0.849607 0.423560
0.999847 0.845548 0.434516
1.000000 0.842039 0.456031
1.000000 0.838468 0.477333
1.000000 0.834775 0.498177
1.000000 0.831113 0.518975
1.000000 0.827756 0.539818
1.000000 0.824918 0.560510
0.000000 0.810391 0.305119
0.000000 0.810880 0.305699
0.000000 0.811337 0.306401
0.000000 0.811612 0.307713
0.000000 0.811734 0.309300
0.104829 0.811734 0.311254
0.190860 0.811704 0.313817
0.252140 0.811795 0.317205
0.305364 0.812100 0.321477
0.355352 0.812650 0.326818
0.401923 0.813443 0.332952
0.446479 0.814450 0.340185
0.489052 0.815549 0.348150
0.530632 0.819059 0.354925
0.572442 0.825650 0.359930
0.613672 0.832578 0.365484
0.654902 0.839872 0.371801
0.695857 0.847379 0.378790
0.736965 0.855039 0.386694
0.778408 0.862791 0.395575
0.820432 0.870481 0.405676
0.863310 0.877928 0.416693
0.904417 0.883085 0.429633
0.938293 0.882078 0.449836
0.964385 0.875578 0.454780
0.990417 0.871092 0.465156
1.000000 0.866514 0.477241
1.000000 0.862242 0.497597
1.000000 0.858152 0.520073
1.000000 0.854063 0.541894
1.000000 0.850340 0.563348
1.000000 0.847135 0.584314
0.000000 0.846464 0.337957
0.023468 0.847227 0.339025
0.092226 0.847593 0.339940
0.132998 0.847501 0.340703
0.173648 0.847074 0.341436
0.214298 0.846433 0.342687
0.255070 0.845701 0.344213
0.296178 0.844999 0.346624
0.337621 0.844450 0.349889
0.378485 0.844236 0.354253
0.418616 0.844144 0.359228
0.458595 0.844419 0.365484
0.497292 0.844816 0.372656
0.535027 0.845335 0.380621
0.573083 0.849882 0.385565
0.611475 0.855314 0.390753
0.649989 0.861204 0.396674
0.688808 0.867460 0.403693
0.727962 0.874144 0.411994
0.767788 0.881041 0.421637
0.808133 0.887938 0.432380
0.848997 0.894469 0.444038
0.890196 0.900389 0.456153
0.928862 0.903868 0.469459
0.958434 0.900847 0.488930
0.983856 0.896086 0.501427
1.000000 0.890410 0.511376
1.000000 0.884886 0.523552
1.000000 0.879576 0.541650
1.000000 0.874907 0.563684
1.000000 0.870603 0.585138
1.000000 0.866880 0.606104
0.189334 0.873136 0.364324
0.194186 0.873808 0.365301
0.204746 0.874266 0.366430
0.221500 0.874357 0.367437
0.243992 0.874296 0.368719
0.270909 0.874174 0.370489
0.301488 0.874052 0.372808
0.335149 0.873991 0.375921
0.369879 0.874113 0.379889
0.405463 0.874357 0.384771
0.441444 0.874662 0.390387
0.477333 0.875090 0.396979
0.512840 0.875517 0.404211
0.547784 0.875914 0.412146
0.582483 0.877531 0.419562
0.618036 0.882078 0.425177
0.654108 0.886839 0.431525
0.690517 0.891936 0.438819
0.727565 0.897368 0.447425
0.765103 0.902983 0.457465
0.803311 0.908537 0.468574
0.841947 0.913817 0.480751
0.880705 0.918639 0.493599
0.919371 0.922911 0.506981
0.954894 0.924895 0.521172
0.979644 0.920226 0.540734
1.000000 0.914397 0.553735
1.000000 0.907805 0.563775
1.000000 0.901671 0.576654
1.000000 0.895750 0.593103
1.000000 0.890929 0.614405
1.000000 0.886656 0.634668
0.274998 0.902098 0.398962
0.277287 0.902373 0.399756
0.282841 0.902525 0.400366
0.292729 0.902556 0.401251
0.307439 0.902403 0.402380
0.326604 0.902159 0.403906
0.349371 0.901976 0.405982
0.375372 0.901793 0.408972
0.403815 0.901701 0.412726
0.433997 0.901762 0.417395
0.465400 0.901884 0.422827
0.497505 0.902129 0.429145
0.529625 0.902403 0.436378
0.561852 0.902678 0.444129
0.593652 0.902831 0.452491
0.626307 0.905608 0.459113
0.659846 0.909422 0.465827
0.693904 0.913481 0.473304
0.728695 0.917784 0.482246
0.764034 0.922240 0.492378
0.799863 0.926604 0.503746
0.836027 0.930663 0.515953
0.872190 0.934325 0.528405
0.908019 0.937499 0.541131
0.943175 0.940124 0.554040
0.974884 0.940642 0.567468
0.994537 0.934386 0.585595
1.000000 0.927428 0.598291
1.000000 0.920104 0.607599
1.000000 0.913725 0.620691
1.000000 0.907683 0.635401
1.000000 0.903044 0.656001
0.337621 0.927062 0.434333
0.339117 0.927276 0.434882
0.343236 0.927459 0.435645
0.351110 0.927520 0.436774
0.362524 0.927642 0.438300
0.377783 0.927855 0.440711
0.397742 0.928344 0.444404
0.421027 0.928985 0.449195
0.446693 0.929870 0.454994
0.474342 0.930846 0.461952
0.503349 0.931914 0.469917
0.533013 0.932952 0.478431
0.562921 0.933867 0.487617
0.592798 0.934539 0.497230
0.622278 0.934997 0.506889
0.651514 0.935607 0.516136
0.681819 0.938384 0.523522
0.712886 0.941192 0.531609
0.744533 0.944091 0.540673
0.776730 0.946929 0.550744
0.809232 0.949676 0.561639
0.841886 0.952087 0.573022
0.874205 0.954070 0.584588
0.905852 0.955657 0.596429
0.936767 0.956725 0.608240
0.966644 0.957366 0.620081
0.992859 0.956207 0.632624
1.000000 0.948272 0.648524
1.000000 0.940490 0.659998
1.000000 0.932921 0.667750
1.000000 0.926665 0.680476
1.000000 0.921111 0.694362
0.417487 0.956085 0.491127
0.418158 0.956115 0.491188
0.420600 0.956054 0.491524
0.425330 0.955901 0.492073
0.433173 0.955718 0.493080
0.443977 0.955535 0.494697
0.457740 0.955383 0.497108
0.474464 0.955291 0.500267
0.493904 0.955261 0.504479
0.515221 0.955261 0.509545
0.538445 0.955291 0.515557
0.562890 0.955383 0.522240
0.588342 0.955413 0.529686
0.614191 0.955383 0.537591
