20 Preset/Human Style/【3】LUT video cho PR-AE-FCPX/Joe-Allam/JA – Shaded Light 2.cube
# Created by Adobe Lightroom plugin Export LUT (1.24.0)
# www.johnrellis.com/lightroom/exportlut.htm
# Preset: JA – Shaded Light 2
# Color profile: E:\lut插件\exportlut.1.24\exportlut.lrplugin\color profiles\Rec709gamma2.4.icc
LUT_3D_SIZE 8
DOMAIN_MIN 0.000000 0.000000 0.000000
DOMAIN_MAX 0.903226 0.903226 0.903226
0.115572 0.110903 0.104555
0.123629 0.109895 0.104524
0.160525 0.108095 0.104036
0.226261 0.106386 0.102907
0.336889 0.097688 0.099428
0.477668 0.051820 0.087678
0.623194 0.000000 0.035645
0.762661 0.000000 0.000000
0.114076 0.119753 0.104250
0.125368 0.120790 0.103090
0.163699 0.119387 0.103182
0.233616 0.119539 0.102174
0.346563 0.117006 0.097597
0.487343 0.103304 0.081300
0.629633 0.043061 0.022065
0.767422 0.000000 0.000000
0.117983 0.151003 0.109316
0.126802 0.151675 0.109926
0.165835 0.161196 0.105562
0.259312 0.176852 0.097139
0.391363 0.189853 0.077943
0.530816 0.193759 0.020020
0.661952 0.187411 0.000000
0.794003 0.173526 0.000000
0.103853 0.223331 0.108156
0.120150 0.224399 0.107729
0.171908 0.231876 0.105562
0.269139 0.264195 0.076661
0.424994 0.304631 0.000000
0.597864 0.327520 0.000000
0.714534 0.318059 0.000000
0.845914 0.313054 0.000000
0.000000 0.332921 0.083864
0.028962 0.334203 0.083772
0.166293 0.340276 0.081453
0.273014 0.365606 0.020691
0.421088 0.415717 0.000000
0.590814 0.453101 0.000000
0.746487 0.462501 0.000000
0.924346 0.477882 0.000000
0.000000 0.460517 0.000000
0.000000 0.462135 0.000000
0.121645 0.467506 0.000000
0.269596 0.477821 0.000000
0.404913 0.515007 0.000000
0.564996 0.560082 0.000000
0.740841 0.599573 0.000000
0.935393 0.633936 0.000000
0.000000 0.595544 0.000000
0.000000 0.596490 0.000000
0.000000 0.600244 0.000000
0.260319 0.607874 0.000000
0.401953 0.626795 0.000000
0.551690 0.670985 0.000000
0.732357 0.730098 0.000000
0.929961 0.784909 0.000000
0.000000 0.803647 0.071595
0.000000 0.804776 0.081514
0.000000 0.809476 0.104768
0.282383 0.818784 0.137819
0.452308 0.830808 0.177371
0.602258 0.859617 0.179660
0.754604 0.888487 0.162753
0.905089 0.906493 0.143465
0.113466 0.110872 0.113100
0.123812 0.111543 0.111849
0.156191 0.112703 0.114565
0.225345 0.106661 0.113802
0.335027 0.089693 0.110780
0.474434 0.004578 0.101320
0.618891 0.000000 0.074495
0.758755 0.000000 0.000000
0.114351 0.120851 0.114137
0.126436 0.121462 0.114412
0.162203 0.121035 0.114717
0.232578 0.118654 0.113954
0.344976 0.109224 0.109499
0.484565 0.081971 0.097841
0.626123 0.000000 0.061769
0.763973 0.000000 0.000000
0.118379 0.154025 0.117922
0.128145 0.154604 0.118166
0.167178 0.162356 0.115816
0.262058 0.174838 0.108522
0.388251 0.182681 0.097414
0.526879 0.183719 0.064179
0.657679 0.174411 0.000244
0.789975 0.157687 0.000000
0.096345 0.226780 0.116426
0.114870 0.227909 0.116609
0.171420 0.233463 0.116121
0.269932 0.264652 0.096498
0.425849 0.301915 0.006348
0.597009 0.321386 0.000000
0.710262 0.310552 0.000000
0.841367 0.305028 0.000000
0.000000 0.335698 0.099702
0.000000 0.337102 0.099580
0.161501 0.342901 0.098817
0.271794 0.366155 0.074891
0.421515 0.415747 0.000000
0.591516 0.451453 0.000000
0.747097 0.460029 0.000000
0.921294 0.473335 0.000000
0.000000 0.461952 0.015656
0.000000 0.463233 0.015534
0.110384 0.468513 0.018799
0.267094 0.478859 0.026459
0.404089 0.514916 0.000000
0.565118 0.560113 0.000000
0.741451 0.599023 0.000000
0.935973 0.632837 0.000000
0.000000 0.595575 0.000000
0.000000 0.596368 0.000000
0.000000 0.600092 0.000000
0.256870 0.607813 0.032502
0.400793 0.626032 0.066041
0.550896 0.670344 0.000000
0.731960 0.729580 0.000000
0.929808 0.784237 0.000000
0.000000 0.802884 0.110750
0.000000 0.804166 0.114961
0.000000 0.808896 0.129854
0.276860 0.818296 0.157229
0.451057 0.831815 0.194430
0.601831 0.859648 0.200076
0.754391 0.888365 0.187778
0.905180 0.906432 0.175326
0.119173 0.111269 0.141756
0.129732 0.112764 0.140993
0.155489 0.119905 0.138827
0.205478 0.124575 0.150393
0.320134 0.091127 0.160525
0.456245 0.000000 0.146731
0.606287 0.000000 0.131930
0.749569 0.000000 0.115908
0.118349 0.121279 0.145876
0.130190 0.122377 0.145571
0.159487 0.128817 0.142947
0.215702 0.130159 0.153780
0.330510 0.096254 0.157534
0.468971 0.000000 0.141726
0.614069 0.000000 0.130648
0.755123 0.000000 0.113558
0.114412 0.158938 0.150301
0.124483 0.160220 0.151644
0.171603 0.165042 0.155703
0.257908 0.160708 0.152834
0.376043 0.151919 0.147982
0.512810 0.134859 0.138643
0.646784 0.106172 0.124819
0.780880 0.003143 0.104250
0.064698 0.233951 0.158999
0.095430 0.237278 0.158633
0.165927 0.245487 0.157870
0.276127 0.269566 0.152865
0.438361 0.294102 0.137148
0.585748 0.295537 0.124758
0.701625 0.284184 0.111482
0.832853 0.275853 0.080720
0.000000 0.348363 0.150759
0.000000 0.349645 0.151247
0.136355 0.355261 0.153201
0.269963 0.371069 0.154452
0.426795 0.420203 0.126833
0.599084 0.448646 0.091402
0.754391 0.453529 0.094942
0.914275 0.458167 0.026184
0.000000 0.470222 0.138155
0.000000 0.471443 0.139254
0.000000 0.476509 0.142306
0.258671 0.486305 0.149508
0.402655 0.516716 0.141909
0.567956 0.562127 0.107301
0.746548 0.599481 0.087678
0.941772 0.631586 0.058289
0.000000 0.598901 0.139590
0.000000 0.599695 0.141329
0.000000 0.603357 0.148043
0.245060 0.610956 0.162203
0.398932 0.625360 0.181857
0.551019 0.670924 0.169253
0.734768 0.731838 0.127718
0.933379 0.785672 0.148959
0.000000 0.804105 0.188998
0.000000 0.805142 0.191257
0.000000 0.809903 0.200748
0.254032 0.819577 0.219791
0.442878 0.833249 0.248386
0.599298 0.859037 0.263951
0.753964 0.888548 0.262852
0.905943 0.906828 0.264103
0.128817 0.112337 0.203067
0.141787 0.112886 0.203433
0.182376 0.117403 0.204746
0.231724 0.127474 0.204715
0.301671 0.135164 0.220035
0.429633 0.086915 0.244907
0.577874 0.000000 0.249180
0.721218 0.000000 0.227543
0.124636 0.120882 0.210178
0.138491 0.121645 0.210391
0.184237 0.125765 0.210819
0.237461 0.136599 0.210056
0.307225 0.145754 0.224033
0.438453 0.097536 0.246372
0.584283 0.000000 0.246098
0.725551 0.000000 0.219852
0.079774 0.160739 0.217990
0.100038 0.159457 0.221683
0.175143 0.159854 0.230320
0.256046 0.179232 0.228183
0.334844 0.186526 0.240452
0.474586 0.137514 0.246189
0.611597 0.000000 0.226810
0.754482 0.000000 0.199344
0.000000 0.243320 0.231571
0.000000 0.245609 0.233738
0.147921 0.254948 0.242344
0.284489 0.274083 0.259525
0.417426 0.262669 0.250370
0.549218 0.248814 0.240269
0.673701 0.232059 0.228763
0.807309 0.210727 0.215824
0.000000 0.347967 0.243442
0.000000 0.351415 0.244541
0.099153 0.366522 0.248814
0.269017 0.387915 0.256931
0.435645 0.426642 0.262791
0.608087 0.441962 0.266239
0.747951 0.436744 0.270542
0.892943 0.429053 0.253727
0.000000 0.477119 0.247074
0.000000 0.480140 0.247013
0.000000 0.491096 0.244816
0.245853 0.500008 0.254887
0.404974 0.519402 0.269230
0.573632 0.566003 0.276555
0.755428 0.601404 0.287663
0.950896 0.631006 0.302495
0.000000 0.603998 0.243137
0.000000 0.604974 0.244480
0.000000 0.608820 0.250828
0.222934 0.616663 0.263340
0.397009 0.629328 0.283726
0.552026 0.671138 0.296727
0.739651 0.735622 0.299596
0.939361 0.787350 0.323949
0.000000 0.806455 0.275334
0.000000 0.807614 0.277195
0.000000 0.812497 0.284428
0.177523 0.822110 0.299382
0.419654 0.836057 0.322637
0.590906 0.857053 0.346471
0.751339 0.888609 0.353735
0.907347 0.907530 0.364324
0.145937 0.107973 0.297948
0.160372 0.107759 0.299290
0.210025 0.106966 0.304234
0.285130 0.115755 0.312230
0.354833 0.134157 0.313207
0.433356 0.147066 0.323766
0.545586 0.143069 0.349798
0.700099 0.000000 0.367407
0.137179 0.116579 0.304326
0.153475 0.116274 0.305608
0.208225 0.116060 0.310094
0.287572 0.126741 0.317418
0.359655 0.147280 0.317967
0.437964 0.160494 0.327428
0.551934 0.152865 0.352300
0.704189 0.000000 0.366766
0.000000 0.148928 0.320531
0.062409 0.148928 0.323217
0.184878 0.152163 0.328099
0.291966 0.170413 0.335088
0.377996 0.198337 0.336034
0.455146 0.212192 0.341436
0.576654 0.191073 0.360327
0.720638 0.036988 0.362036
0.000000 0.240238 0.322148
0.000000 0.239780 0.324681
0.000488 0.237461 0.336828
0.275151 0.252659 0.364233
0.408331 0.295689 0.368139
0.484199 0.304967 0.368994
0.619776 0.260136 0.366155
0.754391 0.178653 0.341924
0.000000 0.357946 0.342718
0.000000 0.360357 0.345068
0.000000 0.371374 0.355535
0.248356 0.393805 0.376837
0.444221 0.430579 0.411200
0.570275 0.413001 0.395636
0.691310 0.393072 0.378485
0.839872 0.370611 0.360327
0.000000 0.466499 0.347539
0.000000 0.469368 0.349096
0.000000 0.480781 0.355413
0.235080 0.502342 0.370123
0.417090 0.528344 0.396948
0.579889 0.569421 0.421271
0.765805 0.602502 0.437415
0.954376 0.617731 0.443366
0.000000 0.595239 0.351202
0.000000 0.596887 0.351537
0.000000 0.604120 0.353979
0.179355 0.620142 0.368872
0.389197 0.635859 0.388251
0.550042 0.666957 0.412543
0.745632 0.739956 0.429969
0.949279 0.785794 0.452552
0.000000 0.802457 0.368963
0.000000 0.804105 0.369604
0.000000 0.811490 0.372808
0.000000 0.823514 0.379278
0.348974 0.838682 0.399268
0.564385 0.855772 0.426307
0.742275 0.887602 0.445136
0.908843 0.908110 0.465583
0.167941 0.092164 0.415412
0.183627 0.090639 0.416968
0.238041 0.082246 0.422889
0.321508 0.078523 0.433906
0.423133 0.126711 0.448066
0.500908 0.158053 0.446113
0.577539 0.183383 0.447700
0.672541 0.242954 0.472328
0.156344 0.102602 0.419226
0.174136 0.101534 0.420600
0.232914 0.097108 0.426368
0.319860 0.099123 0.436866
0.424292 0.142428 0.450782
0.503563 0.173526 0.448951
0.579706 0.197848 0.449744
0.673548 0.254337 0.473762
0.000000 0.138949 0.432044
0.095430 0.138857 0.433387
0.200107 0.140139 0.438880
0.310948 0.151583 0.448951
0.428931 0.196689 0.462745
0.515404 0.232029 0.461769
0.589349 0.253025 0.459815
0.679652 0.297826 0.481270
0.000000 0.226169 0.433478
0.000000 0.224125 0.437446
0.000000 0.213687 0.453895
0.272526 0.232029 0.468208
0.432044 0.283391 0.482246
0.534325 0.330449 0.483894
0.603693 0.343786 0.478645
0.710048 0.346288 0.494850
0.000000 0.341772 0.438117
0.000000 0.342077 0.440131
0.000000 0.342840 0.448890
0.116579 0.344030 0.466529
0.412238 0.388251 0.503136
0.555413 0.449500 0.512016
0.618158 0.448493 0.503960
0.763302 0.400214 0.500694
0.000000 0.473884 0.457404
0.000000 0.475837 0.459266
0.000000 0.483558 0.466682
0.141451 0.499306 0.481910
0.392920 0.526696 0.508110
0.587304 0.573907 0.553918
0.717372 0.551598 0.533074
0.891112 0.527428 0.511742
0.000000 0.579614 0.452186
0.000000 0.581415 0.453193
0.000000 0.588434 0.457404
0.000000 0.603235 0.467964
0.356939 0.630213 0.491005
0.542657 0.673182 0.524620
0.754421 0.747250 0.558923
0.961730 0.780331 0.594659
0.000000 0.791165 0.497017
0.000000 0.792721 0.496681
0.000000 0.799680 0.495827
0.000000 0.814389 0.493172
0.000000 0.838224 0.490578
0.492561 0.860410 0.512444
0.723293 0.884428 0.550500
0.910704 0.908843 0.595026
0.193851 0.016999 0.550866
0.209873 0.010468 0.552544
0.266484 0.000000 0.556603
0.352544 0.000000 0.564904
0.456825 0.096284 0.576379
0.570031 0.214115 0.589258
0.643336 0.245396 0.582116
0.712673 0.277440 0.576776
0.180087 0.051850 0.549828
0.198154 0.047059 0.551598
0.258122 0.030426 0.555779
0.347143 0.031220 0.563622
0.453376 0.115938 0.574701
0.567193 0.223545 0.587121
0.640467 0.254063 0.579644
0.708980 0.283543 0.573785
0.059724 0.121096 0.557244
0.120790 0.120760 0.558251
0.219059 0.121096 0.561944
0.329534 0.132052 0.569665
0.448157 0.175784 0.580499
0.569940 0.271672 0.593591
0.647364 0.305730 0.588281
0.718105 0.330938 0.584680
0.000000 0.191104 0.563897
0.000000 0.191196 0.565545
0.000000 0.193820 0.571374
0.275181 0.211185 0.580102
0.433631 0.256779 0.592096
0.575555 0.348455 0.607355
0.659510 0.388525 0.604334
0.732204 0.402502 0.602045
0.000000 0.317296 0.544732
0.000000 0.315587 0.546715
0.000000 0.309514 0.557092
0.000000 0.303319 0.580041
0.381140 0.342077 0.600916
0.570550 0.428321 0.619959
0.673060 0.476295 0.623468
0.755581 0.480201 0.625818
0.000000 0.446571 0.555657
0.000000 0.446540 0.556695
0.000000 0.445838 0.561151
0.000000 0.444648 0.570581
0.204196 0.446204 0.587671
0.536645 0.513359 0.640833
0.707973 0.583062 0.666316
0.797604 0.571466 0.659846
0.000000 0.587732 0.572595
0.000000 0.589014 0.573938
0.000000 0.593225 0.577996
0.000000 0.603021 0.587488
0.237430 0.621759 0.605859
0.486213 0.661219 0.645075
0.761929 0.752926 0.737850
0.930724 0.714717 0.700343
0.000000 0.770871 0.621973
0.000000 0.772457 0.622675
0.000000 0.781003 0.626978
0.000000 0.795499 0.632654
0.000000 0.818235 0.638819
0.325139 0.851316 0.643702
0.696742 0.881590 0.693935
0.911711 0.908751 0.770260
0.226871 0.000000 0.745815
0.245090 0.000000 0.747189
0.308202 0.000000 0.749233
0.403876 0.000000 0.755978
0.517998 0.059297 0.765072
0.642451 0.221439 0.775051
0.763699 0.366552 0.785092
0.835843 0.374701 0.775051
0.210575 0.000000 0.743923
0.230625 0.000000 0.745388
0.298772 0.000000 0.748287
0.397436 0.000000 0.754665
0.513939 0.099580 0.763851
0.640101 0.230808 0.773953
0.761654 0.371557 0.783597
0.833646 0.379644 0.773159
0.091951 0.063233 0.748013
0.142336 0.062348 0.748898
0.250095 0.069306 0.751431
0.372534 0.102785 0.760067
0.502312 0.166812 0.768490
0.636500 0.270603 0.777798
0.762783 0.398474 0.788266
0.837705 0.407660 0.778592
0.000000 0.166323 0.755856
0.000000 0.167269 0.757137
0.000000 0.172457 0.760281
0.296544 0.191714 0.767819
0.470985 0.241703 0.777615
0.628199 0.331884 0.788388
0.766293 0.443519 0.800229
0.848814 0.456855 0.792508
0.000000 0.299687 0.750423
0.000000 0.295079 0.752987
0.000000 0.273594 0.760861
0.000000 0.265171 0.776638
0.378485 0.311528 0.787503
0.597803 0.394690 0.799985
0.763851 0.494484 0.814786
0.863676 0.519249 0.811521
0.000000 0.456184 0.744656
0.000000 0.453468 0.744320
0.000000 0.441901 0.744808
0.000000 0.422400 0.756497
0.000000 0.404150 0.786709
0.502251 0.460273 0.817685
0.751369 0.560967 0.839261
0.885954 0.618463 0.841825
0.000000 0.631830 0.784085
0.000000 0.630945 0.784237
0.000000 0.627222 0.785367
0.000000 0.620630 0.789578
0.000000 0.609674 0.797299
0.000000 0.591485 0.811643
0.668971 0.645838 0.860868
0.895933 0.768795 0.867826
0.000000 0.828794 0.825071
0.000000 0.828855 0.825162
0.000000 0.830014 0.826230
0.000000 0.833433 0.829526
0.000000 0.838529 0.834470
0.000000 0.846921 0.842344
0.567803 0.864042 0.858213
0.911376 0.908202 0.901762
