20 Preset/Human Style/【3】LUT video cho PR-AE-FCPX/Joe-Allam/JA – Night Pop 3.cube
# Created by Adobe Lightroom plugin Export LUT (1.24.0)
# www.johnrellis.com/lightroom/exportlut.htm
# Preset: JA – Night Pop 3
# Color profile: E:\lut插件\exportlut.1.24\exportlut.lrplugin\color profiles\Rec709gamma2.4.icc
LUT_3D_SIZE 5
DOMAIN_MIN 0.000000 0.000000 0.000000
DOMAIN_MAX 0.903226 0.903226 0.903226
0.065034 0.100282 0.115846
0.290227 0.000000 0.127413
0.881498 0.000000 0.000000
1.000000 0.000000 0.000000
1.000000 0.000000 0.000000
0.000000 0.242344 0.079042
0.181857 0.195926 0.138491
0.775601 0.318700 0.016083
1.000000 0.171145 0.000000
1.000000 0.000000 0.000000
0.000000 0.726192 0.000000
0.251926 0.703944 0.000000
0.640253 0.593133 0.241367
0.973907 0.715175 0.636103
1.000000 0.674372 0.618280
0.000000 0.968383 0.000000
0.000000 0.962799 0.000000
0.682155 0.922484 0.000000
0.933837 0.839048 0.582635
1.000000 0.895750 0.821775
0.000000 1.000000 0.000000
0.000000 1.000000 0.000000
0.481086 1.000000 0.000000
0.903441 1.000000 0.655329
1.000000 0.976349 0.845060
0.000000 0.121096 0.281010
0.201602 0.025177 0.256413
0.781094 0.000000 0.295567
1.000000 0.000000 0.000000
1.000000 0.000000 0.000000
0.000000 0.229740 0.268833
0.158480 0.206729 0.237980
0.770413 0.178958 0.162142
1.000000 0.000000 0.000000
1.000000 0.000000 0.000000
0.000000 0.696925 0.151980
0.000000 0.683131 0.131594
0.588617 0.563653 0.341344
0.945983 0.688075 0.619318
1.000000 0.648676 0.587762
0.000000 0.964935 0.236851
0.000000 0.959991 0.225956
0.663783 0.923278 0.345495
0.924712 0.834348 0.596124
1.000000 0.891142 0.817227
0.000000 1.000000 0.000000
0.000000 1.000000 0.000000
0.443214 1.000000 0.000000
0.900328 1.000000 0.657527
1.000000 0.976471 0.844877
0.000000 0.261936 0.763210
0.000000 0.198734 0.760220
0.675959 0.000000 0.705257
1.000000 0.000000 0.704067
1.000000 0.000000 0.520745
0.000000 0.454200 0.763424
0.000000 0.335454 0.753536
0.662745 0.000000 0.697017
1.000000 0.000000 0.672206
1.000000 0.000000 0.499947
0.000000 0.694667 0.739651
0.000000 0.681880 0.727810
0.556878 0.600275 0.650996
1.000000 0.590204 0.641657
1.000000 0.484871 0.534203
0.000000 0.956329 0.689906
0.000000 0.944915 0.690700
0.618006 0.920256 0.685298
0.898741 0.836179 0.720424
1.000000 0.894011 0.844480
0.000000 1.000000 0.664118
0.222324 1.000000 0.660060
0.548913 1.000000 0.639185
0.875029 1.000000 0.697292
1.000000 0.976898 0.844358
0.000000 0.342229 0.960845
0.000000 0.342229 0.960845
0.331518 0.000000 0.952270
1.000000 0.000000 0.926970
1.000000 0.000000 0.877989
0.000000 0.397681 0.959106
0.000000 0.413519 0.957855
0.214359 0.000000 0.950439
0.995331 0.000000 0.920317
1.000000 0.000000 0.874907
0.000000 0.683070 0.946960
0.000000 0.667872 0.946075
0.000000 0.620569 0.934783
0.949279 0.507042 0.896727
1.000000 0.571588 0.853452
0.000000 0.921080 0.929259
0.000000 0.918517 0.925841
0.269810 0.908690 0.913970
0.870085 0.846464 0.857206
1.000000 0.844602 0.851926
0.000000 1.000000 0.775937
0.000000 1.000000 0.784176
0.490181 1.000000 0.833127
0.890013 1.000000 0.874998
1.000000 0.980072 0.904112
0.000000 0.370489 1.000000
0.000000 0.370428 1.000000
0.000000 0.294224 1.000000
0.622797 0.000000 1.000000
1.000000 0.000000 1.000000
0.000000 0.370367 1.000000
0.000000 0.370306 1.000000
0.000000 0.248417 1.000000
0.630701 0.000000 1.000000
1.000000 0.000000 1.000000
0.000000 0.516411 1.000000
0.000000 0.522484 1.000000
0.000000 0.483253 1.000000
0.538628 0.325078 1.000000
1.000000 0.219944 1.000000
0.000000 0.761685 1.000000
0.000000 0.760891 1.000000
0.000000 0.743709 1.000000
0.697627 0.820829 1.000000
1.000000 0.791318 1.000000
0.000000 0.991363 1.000000
0.000000 0.992798 1.000000
0.000000 0.996887 1.000000
0.722377 0.994232 1.000000
0.993957 0.988098 0.987335
