20 Preset/Human Style/【3】LUT video cho PR-AE-FCPX/Joe-Allam/JA – Night Pop 2.cube
# Created by Adobe Lightroom plugin Export LUT (1.24.0)
# www.johnrellis.com/lightroom/exportlut.htm
# Preset: JA – Night Pop 2
# Color profile: E:\lut插件\exportlut.1.24\exportlut.lrplugin\color profiles\Rec709gamma2.4.icc
LUT_3D_SIZE 32
DOMAIN_MIN 0.0 0.0 0.0
DOMAIN_MAX 1.0 1.0 1.0
0.046357 0.060670 0.072084
0.046357 0.060670 0.072084
0.046357 0.060670 0.072084
0.056275 0.059541 0.072053
0.097078 0.052369 0.074067
0.118563 0.044099 0.074891
0.139498 0.033845 0.073365
0.161501 0.027192 0.069673
0.186313 0.020996 0.067292
0.212833 0.013764 0.064118
0.239872 0.006989 0.059968
0.266636 0.000092 0.055055
0.292424 0.000000 0.049226
0.322179 0.000000 0.041718
0.363928 0.000000 0.029541
0.423407 0.000000 0.008637
0.495369 0.000000 0.000000
0.570275 0.000000 0.000000
0.640192 0.000000 0.000000
0.702724 0.000000 0.000000
0.759121 0.000000 0.000000
0.807980 0.000000 0.000000
0.852018 0.000000 0.000000
0.893950 0.000000 0.000000
0.935607 0.000000 0.000000
0.977356 0.000000 0.000000
1.000000 0.000000 0.000000
1.000000 0.000000 0.000000
1.000000 0.000000 0.000000
1.000000 0.000000 0.000000
1.000000 0.000000 0.000000
1.000000 0.000000 0.000000
0.046357 0.060670 0.072084
0.046357 0.060670 0.072084
0.046357 0.060670 0.072084
0.058259 0.059327 0.072053
0.098451 0.051942 0.074037
0.119600 0.043671 0.074861
0.140688 0.034363 0.070924
0.162478 0.029908 0.069184
0.187564 0.024445 0.066651
0.214084 0.017029 0.063447
0.241489 0.009583 0.059297
0.268284 0.003449 0.054200
0.294316 0.000000 0.048341
0.324743 0.000000 0.040497
0.367895 0.000000 0.027710
0.428595 0.000000 0.005829
0.500969 0.000000 0.000000
0.575616 0.000000 0.000000
0.645289 0.000000 0.000000
0.707790 0.000000 0.000000
0.763363 0.000000 0.000000
0.812100 0.000000 0.000000
0.855863 0.000000 0.000000
0.897734 0.000000 0.000000
0.939452 0.000000 0.000000
0.981109 0.000000 0.000000
1.000000 0.000000 0.000000
1.000000 0.000000 0.000000
1.000000 0.000000 0.000000
1.000000 0.000000 0.000000
1.000000 0.000000 0.000000
1.000000 0.000000 0.000000
0.046357 0.060670 0.072084
0.046357 0.060670 0.072084
0.046357 0.060670 0.072084
0.067903 0.058198 0.073121
0.101228 0.051057 0.071748
0.120424 0.049012 0.070680
0.140475 0.045716 0.069398
0.162814 0.042023 0.067506
0.187839 0.036561 0.064973
0.214908 0.029664 0.061585
0.242435 0.024170 0.057099
0.269261 0.017823 0.052003
0.295323 0.012024 0.046143
0.326360 0.006897 0.037781
0.370764 0.000000 0.024292
0.432685 0.000000 0.001007
0.505303 0.000000 0.000000
0.580133 0.000000 0.000000
0.649042 0.000000 0.000000
0.709621 0.000000 0.000000
0.764370 0.000000 0.000000
0.812711 0.000000 0.000000
0.856718 0.000000 0.000000
0.898680 0.000000 0.000000
0.940551 0.000000 0.000000
0.982269 0.000000 0.000000
1.000000 0.000000 0.000000
1.000000 0.000000 0.000000
1.000000 0.000000 0.000000
1.000000 0.000000 0.000000
1.000000 0.000000 0.000000
1.000000 0.000000 0.000000
0.040223 0.073671 0.071565
0.039490 0.074861 0.071412
0.038788 0.076081 0.071260
0.066560 0.075105 0.073121
0.090791 0.080537 0.082429
0.112154 0.080751 0.080903
0.134676 0.077638 0.078004
0.158358 0.072755 0.074006
0.184756 0.068055 0.069032
0.213046 0.061677 0.063203
0.241672 0.055299 0.056428
0.268803 0.050904 0.050996
0.295232 0.046845 0.044831
0.326757 0.044221 0.037110
0.372198 0.035920 0.023713
0.433814 0.029114 0.001038
0.506584 0.015686 0.000000
0.580438 0.000824 0.000000
0.649165 0.000000 0.000000
0.710780 0.000000 0.000000
0.765957 0.000000 0.000000
0.814542 0.000000 0.000000
0.858396 0.000000 0.000000
0.900023 0.000000 0.000000
0.941527 0.000000 0.000000
0.982788 0.000000 0.000000
1.000000 0.000000 0.000000
1.000000 0.000000 0.000000
1.000000 0.000000 0.000000
1.000000 0.000000 0.000000
1.000000 0.000000 0.000000
1.000000 0.000000 0.000000
0.012909 0.097139 0.067018
0.016876 0.096986 0.067018
0.034455 0.096284 0.068055
0.066224 0.095796 0.069886
0.093202 0.094514 0.074098
0.101747 0.094759 0.090852
0.116487 0.098421 0.095277
0.142245 0.099123 0.092805
0.171237 0.098909 0.089509
0.201328 0.098512 0.085908
0.231724 0.097993 0.080598
0.261082 0.096925 0.074067
0.288212 0.096437 0.067597
0.320134 0.096254 0.058625
0.364172 0.097566 0.044526
0.426184 0.099336 0.020722
0.498726 0.101564 0.000000
0.574121 0.101625 0.000000
0.643549 0.100221 0.000000
0.706020 0.097139 0.000000
0.762203 0.091768 0.000000
0.811368 0.083589 0.000000
0.855772 0.063508 0.000000
0.897826 0.034180 0.000000
0.939452 0.001221 0.000000
0.981048 0.000000 0.000000
1.000000 0.000000 0.000000
1.000000 0.000000 0.000000
1.000000 0.000000 0.000000
1.000000 0.000000 0.000000
1.000000 0.000000 0.000000
1.000000 0.000000 0.000000
0.011841 0.110048 0.063630
0.013825 0.109987 0.063630
0.029419 0.109468 0.064698
0.058228 0.108888 0.065553
0.090486 0.107424 0.069917
0.106813 0.106020 0.076356
0.116976 0.106477 0.093660
0.125978 0.109926 0.103761
0.151125 0.114199 0.103426
0.183413 0.116854 0.099916
0.215671 0.119448 0.096620
0.247410 0.120760 0.093050
0.276555 0.121492 0.089967
0.307958 0.122530 0.085084
0.350072 0.125917 0.075196
0.410376 0.131075 0.048798
0.483345 0.137636 0.010376
0.560052 0.143404 0.000000
0.631556 0.146975 0.000000
0.695766 0.147951 0.000000
0.753231 0.147372 0.000000
0.803799 0.144594 0.000000
0.827481 0.137118 0.000000
0.871977 0.131655 0.000000
0.915038 0.123873 0.000000
0.958282 0.112764 0.000000
1.000000 0.098482 0.000000
1.000000 0.065095 0.000000
1.000000 0.000305 0.000000
1.000000 0.000000 0.000000
1.000000 0.000000 0.000000
1.000000 0.000000 0.000000
0.009369 0.121736 0.059968
0.013336 0.121645 0.059937
0.026246 0.121553 0.060883
0.051759 0.120821 0.061891
0.085908 0.119661 0.065126
0.103548 0.118257 0.069459
0.119753 0.117067 0.076844
0.131807 0.118196 0.094392
0.142916 0.120974 0.104677
0.157565 0.126406 0.113466
0.190921 0.132021 0.109712
0.225040 0.136355 0.106233
0.256748 0.139559 0.102937
0.287358 0.141604 0.099397
0.325139 0.145480 0.094423
0.379828 0.152621 0.083803
0.451270 0.162692 0.049104
0.529473 0.172793 0.000000
0.604425 0.180758 0.000000
0.671260 0.185000 0.000000
0.730800 0.187045 0.000000
0.782528 0.186526 0.000000
0.828672 0.184176 0.000000
0.871946 0.180636 0.000000
0.914244 0.174960 0.000000
0.956847 0.169558 0.000000
0.999603 0.161074 0.000000
1.000000 0.151217 0.000000
1.000000 0.138643 0.000000
1.000000 0.121523 0.000000
1.000000 0.099092 0.000000
1.000000 0.045411 0.000000
0.008118 0.137545 0.053895
0.012787 0.137179 0.054047
0.025696 0.137118 0.054963
0.050507 0.136751 0.055848
0.085115 0.135805 0.059083
0.103487 0.134340 0.062440
0.120333 0.132570 0.069123
0.136202 0.131533 0.077455
0.151675 0.133761 0.094118
0.165438 0.136629 0.105196
0.180301 0.142123 0.116701
0.203555 0.149508 0.123323
0.238712 0.155856 0.119417
0.271305 0.160098 0.115785
0.307713 0.165225 0.111727
0.359869 0.173892 0.104280
0.430945 0.187289 0.090028
0.510979 0.201358 0.042908
0.589075 0.212924 0.000000
0.658839 0.220584 0.000000
0.720485 0.224399 0.000000
0.774075 0.225895 0.000000
0.821897 0.224949 0.000000
0.866331 0.222873 0.000000
0.909514 0.219455 0.000000
0.953094 0.215061 0.000000
0.996307 0.209751 0.000000
1.000000 0.202548 0.000000
1.000000 0.194614 0.000000
1.000000 0.184237 0.000000
1.000000 0.171847 0.000000
1.000000 0.157748 0.000000
0.005554 0.156313 0.054078
0.009125 0.156466 0.052796
0.022736 0.156161 0.053864
0.047852 0.155886 0.053590
0.084901 0.155032 0.055695
0.104585 0.153780 0.059022
0.122774 0.151766 0.062593
0.139162 0.149416 0.067445
0.155642 0.148806 0.074098
0.173648 0.151675 0.092409
0.189364 0.154635 0.104829
0.205814 0.159945 0.117830
0.222660 0.167453 0.133059
0.251041 0.175235 0.136690
0.286961 0.181735 0.132784
0.335149 0.191501 0.126894
0.404120 0.207156 0.115969
0.485267 0.224979 0.097505
0.566888 0.240726 0.048127
0.640345 0.251652 0.000000
0.704646 0.258488 0.000000
0.761044 0.261784 0.000000
0.811368 0.262303 0.000000
0.857542 0.261753 0.000000
0.901976 0.259586 0.000000
0.946654 0.256474 0.000000
0.990753 0.252689 0.000000
1.000000 0.247684 0.000000
1.000000 0.241611 0.000000
1.000000 0.234318 0.000000
1.000000 0.225193 0.000000
1.000000 0.214664 0.000000
0.000000 0.178683 0.054322
0.000000 0.178622 0.055451
0.012970 0.178347 0.054231
0.038758 0.178256 0.056092
0.082673 0.177646 0.056886
0.105409 0.176486 0.059052
0.125063 0.174594 0.062745
0.143618 0.172244 0.066560
0.160586 0.169741 0.072572
0.177951 0.168795 0.078004
0.198032 0.172122 0.092439
0.214939 0.175051 0.105928
0.231846 0.179690 0.120882
0.247929 0.186404 0.138125
0.264317 0.196017 0.157687
0.308080 0.206668 0.153841
0.372381 0.223209 0.145296
0.453529 0.244083 0.131380
0.537926 0.263920 0.111147
0.615778 0.278935 0.080690
0.684138 0.289006 0.005921
0.744472 0.294987 0.000000
0.798154 0.297948 0.000000
0.847440 0.298711 0.000000
0.893797 0.298100 0.000000
0.939971 0.296361 0.000000
0.985138 0.293858 0.000000
1.000000 0.290349 0.000000
1.000000 0.285649 0.000000
1.000000 0.279850 0.000000
1.000000 0.272343 0.000000
1.000000 0.263981 0.000000
0.000000 0.203433 0.051728
0.000000 0.203494 0.051545
0.000000 0.203311 0.051484
0.024689 0.203037 0.051209
0.076051 0.202335 0.052125
0.104036 0.201572 0.052827
0.126650 0.199557 0.056794
0.147585 0.197147 0.059724
0.166140 0.194308 0.064027
0.183627 0.191104 0.069612
0.201328 0.189822 0.075074
0.221744 0.192752 0.092775
0.238987 0.195010 0.108797
0.255589 0.199222 0.126619
0.273594 0.206760 0.146120
0.295964 0.218662 0.166445
0.338506 0.235569 0.176486
0.417029 0.258824 0.165316
0.504143 0.283024 0.149905
0.587457 0.302922 0.130312
0.660182 0.316564 0.107393
0.724636 0.325505 0.070527
0.781827 0.330877 0.000000
0.833616 0.333379 0.000000
0.881926 0.334142 0.000000
0.929290 0.333867 0.000000
0.975769 0.332708 0.000000
1.000000 0.330358 0.000000
1.000000 0.326757 0.000000
1.000000 0.322301 0.000000
1.000000 0.316258 0.000000
1.000000 0.309026 0.000000
0.000000 0.227787 0.041627
0.000000 0.227634 0.041779
0.000000 0.227420 0.041688
0.003784 0.227054 0.041566
0.056703 0.226566 0.041199
0.100008 0.225711 0.042023
0.125460 0.224033 0.044648
0.148684 0.221622 0.048981
0.169528 0.218784 0.052399
0.188754 0.215518 0.058350
0.206241 0.211826 0.063478
0.224216 0.210117 0.069123
0.238437 0.207492 0.092287
0.255772 0.209873 0.110109
0.274418 0.215244 0.129152
0.297398 0.225101 0.149447
0.327947 0.240085 0.169894
0.368475 0.260075 0.189670
0.446479 0.285863 0.183474
0.532799 0.311131 0.168215
0.612268 0.330724 0.150759
0.683009 0.344518 0.132174
0.746914 0.354131 0.111360
0.803769 0.359899 0.087953
0.855711 0.363073 0.031830
0.905608 0.364599 0.000000
0.954467 0.365576 0.000000
1.000000 0.365026 0.000000
1.000000 0.363378 0.000000
1.000000 0.360082 0.000000
1.000000 0.355688 0.000000
1.000000 0.349950 0.000000
0.000000 0.247532 0.031403
0.000000 0.247593 0.031250
0.000000 0.247532 0.031006
0.000000 0.247288 0.030732
0.032685 0.247166 0.032166
0.093202 0.246677 0.031373
0.121065 0.245487 0.033570
0.146456 0.243320 0.036713
0.169009 0.240635 0.041382
0.189731 0.237339 0.045502
0.208743 0.233646 0.050996
0.225559 0.229282 0.057282
0.242863 0.226902 0.066072
0.263401 0.229160 0.092012
0.285252 0.234165 0.112459
0.311864 0.244022 0.133181
0.347295 0.259831 0.153780
0.390814 0.280278 0.173770
0.440650 0.302678 0.192966
0.502434 0.326513 0.203220
0.585718 0.350561 0.188113
0.659449 0.368475 0.172457
0.727108 0.381598 0.156588
0.787320 0.390021 0.141482
0.841794 0.395117 0.126589
0.893309 0.398291 0.110658
0.943725 0.400366 0.091981
0.992218 0.401251 0.050904
1.000000 0.400580 0.003449
1.000000 0.398474 0.000000
1.000000 0.394842 0.000000
1.000000 0.389899 0.000000
0.000000 0.276555 0.008301
0.000000 0.276616 0.009277
0.000000 0.276524 0.007904
0.000000 0.276646 0.009247
0.000000 0.276585 0.008270
0.080262 0.276280 0.008270
0.117647 0.275486 0.009796
0.146273 0.272984 0.012665
0.171450 0.269749 0.017517
0.194400 0.265904 0.024048
0.214481 0.261479 0.031312
0.232914 0.256504 0.039185
0.249393 0.251286 0.047211
0.268193 0.249332 0.054902
0.294865 0.255924 0.087648
0.327153 0.267796 0.109041
0.366583 0.284459 0.130892
0.412604 0.304967 0.152224
0.463081 0.327001 0.172976
0.515129 0.348363 0.192355
0.565545 0.367529 0.210941
0.633448 0.387823 0.208164
0.704433 0.404730 0.194400
0.767056 0.416602 0.181338
0.824338 0.424231 0.170108
0.877897 0.429145 0.159396
0.929961 0.432868 0.148653
0.980133 0.435126 0.138216
1.000000 0.435889 0.128634
1.000000 0.435248 0.121553
1.000000 0.432898 0.117647
1.000000 0.429023 0.118563
0.000000 0.318914 0.000000
0.000000 0.318883 0.000000
0.000000 0.319219 0.000000
0.000000 0.319249 0.000000
0.000000 0.319402 0.000000
0.034791 0.319310 0.000000
0.111330 0.318578 0.000000
0.147890 0.316320 0.000000
0.177920 0.312230 0.000000
0.204135 0.307042 0.000000
0.226902 0.300877 0.000000
0.247166 0.294102 0.000000
0.264897 0.286992 0.009094
0.280674 0.279911 0.021302
0.303044 0.280186 0.026154
0.340826 0.294285 0.053132
0.385107 0.313207 0.094820
0.432990 0.333593 0.120089
0.483497 0.354528 0.144656
0.534112 0.374426 0.167910
0.582879 0.392065 0.189120
0.629999 0.408728 0.212070
0.677577 0.426246 0.238682
0.744381 0.441535 0.227787
0.803403 0.452308 0.218204
0.859159 0.459754 0.211215
0.913024 0.465614 0.205051
0.964752 0.469917 0.200046
1.000000 0.472511 0.196841
1.000000 0.473640 0.195956
1.000000 0.473030 0.198093
1.000000 0.471138 0.204166
0.000000 0.378607 0.000000
0.000000 0.378698 0.000000
0.000000 0.378515 0.000000
0.000000 0.378485 0.000000
0.000000 0.377996 0.000000
0.000000 0.377600 0.000000
0.096956 0.376471 0.000000
0.148562 0.374487 0.000000
0.186770 0.369177 0.000000
0.218570 0.362890 0.000000
0.246098 0.355810 0.000000
0.270329 0.347784 0.000000
0.291508 0.339391 0.000000
0.310033 0.330663 0.000000
0.326024 0.321599 0.000000
0.353735 0.324498 0.000000
0.401099 0.344244 0.000000
0.452949 0.366064 0.030640
0.503014 0.385657 0.098909
0.551843 0.403418 0.132418
0.599207 0.419440 0.159915
0.645411 0.434211 0.185916
0.689448 0.449012 0.217258
0.728756 0.465736 0.261601
0.777615 0.481971 0.284154
0.834531 0.492500 0.279210
0.890227 0.501091 0.276829
0.943877 0.508080 0.275944
0.994324 0.513268 0.276860
1.000000 0.517052 0.280339
1.000000 0.519402 0.286748
1.000000 0.520470 0.296300
0.000000 0.446540 0.000000
0.000000 0.446479 0.000000
0.000000 0.446296 0.000000
0.000000 0.446143 0.000000
0.000000 0.445563 0.000000
0.000000 0.444495 0.000000
0.035981 0.443183 0.000000
0.145418 0.441260 0.000000
0.195041 0.437079 0.000000
0.234379 0.430549 0.000000
0.268528 0.422766 0.000000
0.298039 0.414282 0.000000
0.324163 0.405035 0.000000
0.346746 0.395087 0.000000
0.366461 0.384466 0.000000
0.383337 0.373693 0.000000
0.415015 0.377478 0.000000
0.466285 0.397681 0.000000
0.519493 0.418280 0.000000
0.567193 0.434058 0.037598
0.613825 0.448493 0.115480
0.659419 0.461891 0.150454
0.702602 0.474464 0.184939
0.741939 0.487617 0.229679
0.776150 0.504570 0.288853
0.805112 0.527306 0.357122
0.861265 0.539361 0.358801
0.917174 0.549401 0.359930
0.969635 0.557702 0.362982
1.000000 0.564324 0.368261
1.000000 0.569390 0.376043
1.000000 0.573205 0.386542
0.000000 0.510460 0.000000
0.000000 0.510094 0.000000
0.000000 0.498299 0.000000
0.000000 0.497871 0.000000
0.000000 0.497292 0.000000
0.000000 0.496559 0.000000
0.000000 0.495308 0.000000
0.128756 0.493660 0.000000
0.192477 0.490852 0.000000
0.239139 0.485054 0.000000
0.278874 0.477913 0.000000
0.313451 0.470069 0.000000
0.344335 0.461799 0.000000
0.371954 0.452552 0.000000
0.396490 0.442542 0.000000
0.418341 0.432502 0.000000
0.437171 0.421424 0.000000
0.471656 0.425818 0.000000
0.522759 0.443854 0.000000
0.574365 0.461585 0.000000
0.621424 0.475441 0.000000
0.667079 0.488167 0.091341
0.710170 0.499153 0.141054
0.750240 0.510033 0.189456
0.786191 0.523217 0.249699
0.817258 0.541772 0.321569
0.844755 0.566583 0.395666
0.884550 0.589441 0.440345
0.939879 0.601190 0.444465
0.990387 0.610742 0.449928
1.000000 0.618433 0.457557
1.000000 0.624659 0.467567
0.000000 0.564630 0.000000
0.000000 0.563592 0.000000
0.000000 0.562310 0.000000
0.000000 0.561059 0.000000
0.000000 0.559777 0.000000
0.000000 0.558587 0.000000
0.000000 0.557366 0.000000
0.100954 0.555779 0.000000
0.187930 0.553674 0.000000
0.244785 0.549340 0.000000
0.291356 0.542992 0.000000
0.332006 0.536065 0.000000
0.368505 0.528374 0.000000
0.401434 0.519890 0.000000
0.431250 0.510979 0.000000
0.458442 0.501335 0.000000
0.482399 0.490944 0.000000
0.503624 0.479805 0.000000
0.538079 0.481636 0.000000
0.585321 0.494423 0.000000
0.634180 0.508446 0.000000
0.679072 0.519432 0.000000
0.721523 0.528740 0.028412
0.761410 0.537469 0.138125
0.798184 0.547448 0.206241
0.830930 0.561975 0.283360
0.860166 0.582605 0.363012
0.885771 0.609552 0.442695
0.908659 0.640375 0.515190
0.961822 0.652918 0.520745
1.000000 0.662989 0.527398
1.000000 0.671046 0.536248
0.000000 0.620691 0.000000
0.000000 0.619654 0.000000
0.000000 0.618433 0.000000
0.000000 0.617273 0.000000
0.000000 0.615991 0.000000
0.000000 0.614832 0.000000
0.000000 0.613642 0.000000
0.000000 0.612177 0.000000
0.176791 0.610224 0.000000
0.244114 0.607416 0.000000
0.297612 0.601892 0.000000
0.343450 0.595697 0.000000
0.384649 0.588830 0.000000
0.422004 0.581140 0.000000
0.456397 0.572992 0.000000
0.487984 0.564019 0.000000
0.516960 0.554589 0.000000
0.543114 0.544579 0.000000
0.566583 0.533715 0.000000
0.600458 0.533257 0.000000
0.644465 0.541863 0.000000
0.689601 0.551751 0.000000
0.731411 0.559686 0.000000
0.771267 0.566613 0.000000
0.808774 0.574243 0.146792
0.843626 0.585260 0.235691
0.874784 0.601892 0.323491
0.902037 0.624201 0.407141
0.925139 0.652155 0.489387
0.945983 0.681636 0.557366
0.981811 0.701381 0.587030
1.000000 0.711513 0.594659
0.000000 0.670558 0.000000
0.000000 0.669856 0.000000
0.000000 0.668788 0.000000
0.000000 0.667842 0.000000
0.000000 0.666743 0.000000
0.000000 0.665644 0.000000
0.000000 0.664515 0.000000
0.000000 0.663142 0.000000
0.156954 0.661372 0.000000
0.238010 0.659205 0.000000
0.297551 0.654994 0.000000
0.348699 0.649592 0.000000
0.394263 0.643580 0.000000
0.435676 0.636805 0.000000
0.473884 0.629603 0.000000
0.509483 0.621576 0.000000
0.542290 0.612940 0.000000
0.572381 0.603479 0.000000
0.599817 0.593286 0.000000
0.624475 0.582391 0.000000
0.656672 0.579187 0.000000
0.696101 0.583062 0.000000
0.736660 0.588891 0.000000
0.776089 0.594507 0.000000
0.814206 0.600244 0.000000
0.850828 0.608301 0.165011
0.884031 0.620661 0.267643
0.913024 0.638422 0.361242
0.937102 0.662226 0.451728
0.958038 0.689143 0.528832
0.976379 0.716945 0.592828
0.996796 0.741512 0.638941
0.000000 0.711574 0.000000
0.000000 0.711330 0.000000
0.000000 0.710842 0.000000
0.000000 0.710445 0.000000
0.000000 0.709865 0.000000
0.000000 0.709163 0.000000
0.000000 0.708278 0.000000
0.000000 0.707027 0.000000
0.124910 0.705470 0.000000
0.225834 0.703395 0.000000
0.292454 0.700435 0.000000
0.347723 0.695583 0.000000
0.396368 0.690333 0.000000
0.441108 0.684382 0.000000
0.482673 0.677882 0.000000
0.521477 0.670832 0.000000
0.557519 0.663264 0.000000
0.591363 0.655146 0.000000
0.622827 0.646326 0.000000
0.651911 0.637018 0.000000
0.678645 0.627131 0.000000
0.709987 0.622309 0.000000
0.746487 0.623163 0.000000
0.784482 0.626459 0.000000
0.823453 0.631312 0.000000
0.861601 0.637537 0.000000
0.896818 0.646632 0.201785
0.927428 0.660334 0.312840
0.952605 0.679744 0.413794
0.973297 0.703670 0.502220
0.990723 0.729122 0.573968
1.000000 0.754330 0.632380
0.000000 0.754849 0.000000
0.000000 0.754665 0.000000
0.000000 0.754269 0.000000
0.000000 0.753841 0.000000
0.000000 0.753262 0.000000
0.000000 0.752621 0.000000
0.000000 0.751705 0.000000
0.000000 0.750546 0.000000
0.047211 0.749050 0.000000
0.210300 0.747127 0.000000
0.284764 0.744930 0.000000
0.344518 0.740749 0.000000
0.396857 0.735775 0.000000
0.444465 0.730373 0.000000
0.488533 0.724361 0.000000
0.529747 0.717952 0.000000
0.568505 0.710964 0.000000
0.605005 0.703517 0.000000
0.639307 0.695552 0.000000
0.671504 0.687098 0.000000
0.701717 0.678187 0.000000
0.729824 0.668757 0.000000
0.760006 0.662562 0.000000
0.794522 0.661280 0.000000
0.834073 0.665278 0.000000
0.872648 0.669764 0.000000
0.909575 0.676326 0.063905
0.941802 0.686275 0.251347
0.968170 0.701228 0.368292
0.988556 0.721492 0.472114
1.000000 0.743984 0.553216
1.000000 0.766873 0.618067
0.000000 0.795529 0.000000
0.000000 0.795102 0.000000
0.000000 0.794827 0.000000
0.000000 0.794553 0.000000
0.000000 0.794308 0.000000
0.000000 0.794003 0.000000
0.000000 0.793545 0.000000
0.000000 0.792782 0.000000
0.000000 0.791745 0.000000
0.188724 0.790433 0.000000
0.274052 0.788724 0.000000
0.339696 0.785916 0.000000
0.395727 0.781613 0.000000
0.446571 0.776883 0.000000
0.493355 0.771664 0.000000
0.537316 0.765957 0.000000
0.578759 0.759701 0.000000
0.617792 0.752987 0.000000
0.654658 0.745602 0.000000
0.689448 0.737575 0.000000
0.722286 0.729183 0.000000
0.753170 0.720455 0.000000
0.782467 0.711543 0.000000
0.813016 0.705013 0.000000
0.847471 0.703090 0.000000
0.883513 0.704128 0.000000
0.920348 0.707790 0.000000
0.954559 0.714687 0.153353
0.982513 0.725399 0.310155
1.000000 0.741817 0.435615
1.000000 0.760952 0.528954
1.000000 0.781155 0.602289
0.000000 0.839139 0.000000
0.000000 0.838743 0.000000
0.000000 0.838499 0.000000
0.000000 0.838102 0.000000
0.000000 0.837644 0.000000
0.000000 0.837217 0.000000
0.000000 0.836423 0.000000
0.000000 0.835416 0.000000
0.000000 0.834134 0.000000
0.159823 0.832609 0.000000
0.260746 0.830838 0.000000
0.332219 0.828763 0.000000
0.391760 0.824857 0.000000
0.445380 0.820554 0.000000
0.494697 0.815824 0.000000
0.540978 0.810727 0.000000
0.584741 0.805142 0.000000
0.626062 0.799100 0.000000
0.665370 0.792447 0.000000
0.702663 0.785275 0.000000
0.737972 0.777584 0.000000
0.771481 0.769680 0.000000
0.803433 0.761471 0.000000
0.833829 0.753079 0.000000
0.864378 0.746090 0.000000
0.897398 0.742794 0.000000
0.930816 0.741817 0.000000
0.963806 0.743893 0.000000
0.993469 0.750546 0.221683
1.000000 0.762417 0.384985
1.000000 0.777890 0.496376
1.000000 0.795071 0.580987
0.000000 0.878508 0.000000
0.000000 0.878325 0.000000
0.000000 0.878080 0.000000
0.000000 0.877867 0.000000
0.000000 0.877501 0.000000
0.000000 0.877043 0.000000
0.000000 0.876371 0.000000
0.000000 0.875547 0.000000
0.000000 0.874449 0.000000
0.112551 0.873075 0.000000
0.242710 0.871458 0.000000
0.321386 0.869566 0.000000
0.385229 0.866758 0.000000
0.441962 0.862943 0.000000
0.493812 0.858824 0.000000
0.542412 0.854337 0.000000
0.588312 0.849485 0.000000
0.631891 0.844144 0.000000
0.673487 0.838285 0.000000
0.713130 0.831998 0.000000
0.750851 0.825315 0.000000
0.787015 0.818326 0.000000
0.821683 0.811124 0.000000
0.855100 0.803738 0.000000
0.887053 0.796414 0.000000
0.917021 0.788663 0.000000
0.947906 0.783474 0.000000
0.977386 0.779995 0.000000
1.000000 0.779995 0.000000
1.000000 0.787045 0.322698
1.000000 0.798215 0.460487
1.000000 0.811643 0.558892
0.000000 0.915312 0.000000
0.000000 0.915160 0.000000
0.000000 0.914977 0.000000
0.000000 0.914672 0.000000
0.000000 0.914244 0.000000
0.000000 0.913634 0.000000
0.000000 0.912657 0.000000
0.000000 0.911376 0.000000
0.000000 0.909850 0.000000
0.000000 0.908049 0.000000
0.217655 0.906004 0.000000
0.304753 0.903777 0.000000
0.373144 0.901366 0.000000
0.432349 0.897673 0.000000
0.486427 0.893706 0.000000
0.536706 0.889677 0.000000
0.584222 0.885405 0.000000
0.629664 0.880705 0.000000
0.672816 0.875669 0.000000
0.714168 0.870207 0.000000
0.753872 0.864469 0.000000
0.792111 0.858457 0.000000
0.828946 0.852293 0.000000
0.864561 0.846036 0.000000
0.898955 0.839689 0.000000
0.932158 0.833371 0.000000
0.960662 0.824491 0.000000
0.988708 0.817105 0.000000
1.000000 0.811307 0.000000
1.000000 0.809903 0.211826
1.000000 0.816495 0.404181
1.000000 0.826139 0.523857
0.000000 0.944091 0.000000
0.000000 0.944091 0.000000
0.000000 0.943999 0.000000
0.000000 0.943816 0.000000
0.000000 0.943542 0.000000
0.000000 0.943114 0.000000
0.000000 0.942535 0.000000
0.000000 0.941711 0.000000
0.000000 0.940703 0.000000
0.000000 0.939452 0.000000
0.182986 0.937987 0.000000
0.284642 0.936370 0.000000
0.359014 0.934478 0.000000
0.421698 0.931914 0.000000
