20 Preset/Human Style/【3】LUT video cho PR-AE-FCPX/Joe-Allam/JA – Night Pop 3.cube
# Created by Adobe Lightroom plugin Export LUT (1.24.0)
# www.johnrellis.com/lightroom/exportlut.htm
# Preset: JA – Night Pop 3
# Color profile: E:\lut插件\exportlut.1.24\exportlut.lrplugin\color profiles\Rec709gamma2.4.icc
LUT_3D_SIZE 8
DOMAIN_MIN 0.000000 0.000000 0.000000
DOMAIN_MAX 0.903226 0.903226 0.903226
0.065034 0.100282 0.115846
0.118471 0.095369 0.117800
0.373144 0.000000 0.117678
0.734463 0.000000 0.049409
0.995911 0.000000 0.000000
1.000000 0.000000 0.000000
1.000000 0.000000 0.000000
1.000000 0.000000 0.000000
0.006256 0.127352 0.114351
0.099275 0.120302 0.123445
0.324010 0.136751 0.110262
0.691035 0.000000 0.000000
0.962737 0.000000 0.000000
1.000000 0.000000 0.000000
1.000000 0.000000 0.000000
1.000000 0.000000 0.000000
0.000000 0.298131 0.000000
0.021668 0.294133 0.003143
0.222141 0.233402 0.141024
0.508659 0.345983 0.226291
0.906920 0.376898 0.118532
1.000000 0.312627 0.000000
1.000000 0.200717 0.000000
1.000000 0.000000 0.000000
0.000000 0.593439 0.000000
0.000000 0.591180 0.000000
0.351141 0.558923 0.000000
0.512932 0.490730 0.173434
0.803616 0.592706 0.430396
1.000000 0.638880 0.538079
1.000000 0.592920 0.498085
1.000000 0.513359 0.435462
0.000000 0.812802 0.000000
0.000000 0.809171 0.000000
0.314611 0.796323 0.000000
0.604364 0.745235 0.000000
0.736019 0.668818 0.325200
0.919097 0.721950 0.572320
1.000000 0.785824 0.718044
1.000000 0.784237 0.727718
0.000000 0.940429 0.000000
0.000000 0.943694 0.000000
0.136141 0.936461 0.000000
0.571649 0.911223 0.000000
0.791135 0.863859 0.277012
0.902647 0.809110 0.535485
1.000000 0.842863 0.714717
1.000000 0.887480 0.822049
0.000000 1.000000 0.000000
0.000000 1.000000 0.000000
0.000000 1.000000 0.000000
0.463844 0.997436 0.000000
0.733364 0.970855 0.285863
0.909911 0.939849 0.550652
0.994537 0.909575 0.703731
1.000000 0.923796 0.823850
0.000000 1.000000 0.000000
0.000000 1.000000 0.000000
0.000000 1.000000 0.000000
0.317113 1.000000 0.000000
0.642725 1.000000 0.334844
0.865293 1.000000 0.612451
0.984009 0.992370 0.754147
1.000000 0.976349 0.845060
0.024811 0.102480 0.146090
0.097017 0.096956 0.142855
0.305211 0.000000 0.152316
0.644617 0.000000 0.056428
0.940642 0.000000 0.000000
1.000000 0.000000 0.000000
1.000000 0.000000 0.000000
1.000000 0.000000 0.000000
0.000000 0.122164 0.144594
0.091493 0.121187 0.140169
0.292943 0.118868 0.124208
0.633692 0.110048 0.000000
0.930541 0.000000 0.000000
1.000000 0.000000 0.000000
1.000000 0.000000 0.000000
1.000000 0.000000 0.000000
0.000000 0.279179 0.118837
0.000000 0.276188 0.117525
0.211765 0.228031 0.160128
0.474403 0.327367 0.223972
0.859556 0.366491 0.110597
1.000000 0.308995 0.000000
1.000000 0.208621 0.000000
1.000000 0.000000 0.000000
0.000000 0.563439 0.000000
0.000000 0.560784 0.000000
0.305821 0.534478 0.000000
0.459998 0.449348 0.196139
0.739254 0.543481 0.368383
0.971740 0.593164 0.473823
1.000000 0.551507 0.430365
1.000000 0.487343 0.388342
0.000000 0.800900 0.000000
0.000000 0.795895 0.000000
0.250156 0.782925 0.000000
0.574792 0.726436 0.000000
0.701534 0.643305 0.314824
0.893309 0.697383 0.539727
1.000000 0.767422 0.697658
1.000000 0.765896 0.706874
0.000000 0.930602 0.000000
0.000000 0.929198 0.000000
0.000000 0.922637 0.000000
0.548089 0.899840 0.000000
0.774472 0.852506 0.295567
0.890105 0.797940 0.517235
1.000000 0.833738 0.702571
1.000000 0.878935 0.812009
0.000000 1.000000 0.000000
0.000000 1.000000 0.000000
0.000000 1.000000 0.000000
0.443488 0.991547 0.000000
0.722621 0.965881 0.260533
0.901915 0.933776 0.529900
0.987671 0.900084 0.686122
1.000000 0.914336 0.809445
0.000000 1.000000 0.000000
0.000000 1.000000 0.000000
0.000000 1.000000 0.000000
0.286473 1.000000 0.000000
0.640772 1.000000 0.342321
0.863951 1.000000 0.612634
0.982727 0.991760 0.750546
1.000000 0.976379 0.845029
0.000000 0.137118 0.360876
0.000000 0.136385 0.358038
0.257511 0.000000 0.318273
0.593103 0.000000 0.424140
0.920745 0.000000 0.340429
1.000000 0.000000 0.128756
1.000000 0.000000 0.000000
1.000000 0.000000 0.000000
0.000000 0.177493 0.353674
0.000000 0.157931 0.346654
0.247715 0.057252 0.309453
0.581262 0.000000 0.386755
0.915496 0.000000 0.268925
1.000000 0.000000 0.116274
1.000000 0.000000 0.000000
1.000000 0.000000 0.000000
0.000000 0.289647 0.337560
0.000000 0.282414 0.328801
0.196353 0.252903 0.290410
0.587427 0.244511 0.263767
0.917723 0.208316 0.208835
1.000000 0.134829 0.062684
1.000000 0.000000 0.000000
1.000000 0.000000 0.000000
0.000000 0.567071 0.376959
0.000000 0.566400 0.352422
0.000000 0.556329 0.273106
0.467720 0.474464 0.351415
0.743313 0.569482 0.504814
0.999359 0.582666 0.497108
1.000000 0.536706 0.437263
1.000000 0.459541 0.353368
0.000000 0.797848 0.276371
0.000000 0.794797 0.272343
0.000000 0.784054 0.260533
0.546349 0.742855 0.320592
0.704921 0.659022 0.446571
0.892241 0.711238 0.603052
1.000000 0.770382 0.709285
1.000000 0.756100 0.697414
0.000000 0.928710 0.298100
0.000000 0.927733 0.297673
0.000000 0.920745 0.285130
0.503929 0.903105 0.295201
0.760159 0.853239 0.437781
0.878630 0.796475 0.570428
0.996887 0.831540 0.708003
1.000000 0.877623 0.812131
0.000000 1.000000 0.331212
0.000000 1.000000 0.324712
0.000000 1.000000 0.303441
0.419928 0.991943 0.273625
0.714534 0.967102 0.423133
0.897459 0.935119 0.566888
0.988800 0.902037 0.688136
1.000000 0.917876 0.816037
0.000000 1.000000 0.000000
0.000000 1.000000 0.000000
0.000000 1.000000 0.000000
0.201022 1.000000 0.000000
0.604730 1.000000 0.281529
0.853574 1.000000 0.602533
0.980896 0.992920 0.749691
1.000000 0.976501 0.844816
0.000000 0.223392 0.661006
0.000000 0.224369 0.663508
0.000000 0.000000 0.643946
0.538109 0.000000 0.596796
0.840421 0.000000 0.659388
1.000000 0.000000 0.596582
1.000000 0.000000 0.469245
1.000000 0.000000 0.265934
0.000000 0.238895 0.666377
0.000000 0.251225 0.665126
0.000000 0.000000 0.643427
0.539727 0.000000 0.598505
0.846586 0.000000 0.657679
1.000000 0.000000 0.581384
1.000000 0.000000 0.452735
1.000000 0.000000 0.267216
0.000000 0.435279 0.653956
0.000000 0.421454 0.649989
0.000000 0.304265 0.628412
0.510338 0.136416 0.579126
0.856168 0.000000 0.614191
1.000000 0.000000 0.520012
1.000000 0.000000 0.403937
1.000000 0.000000 0.289158
0.000000 0.580926 0.640162
0.000000 0.576684 0.636011
0.000000 0.557519 0.616327
0.437232 0.500084 0.555138
0.820981 0.497444 0.550744
1.000000 0.471778 0.525048
1.000000 0.416510 0.464393
1.000000 0.299626 0.320775
0.000000 0.806729 0.637079
0.000000 0.802426 0.629908
0.000000 0.785336 0.608820
0.462074 0.759274 0.584558
0.698512 0.680476 0.611139
0.891417 0.742763 0.707759
1.000000 0.760189 0.720638
1.000000 0.727871 0.691585
0.000000 0.931731 0.614710
0.000000 0.932921 0.622614
0.000000 0.922362 0.620172
0.492744 0.910124 0.604486
0.758083 0.871672 0.619471
0.873503 0.808072 0.668116
0.990509 0.845426 0.762997
1.000000 0.885557 0.834012
0.000000 1.000000 0.620294
0.000000 1.000000 0.619959
0.194766 0.997833 0.614710
0.492958 0.990326 0.604028
0.717556 0.973999 0.606500
0.894499 0.941833 0.668208
0.983276 0.907164 0.737575
1.000000 0.921019 0.828397
0.000000 1.000000 0.571344
0.000000 1.000000 0.569116
0.000000 1.000000 0.559655
0.388617 1.000000 0.543359
0.605859 1.000000 0.513451
0.840604 1.000000 0.636927
0.975525 0.994537 0.744686
1.000000 0.976745 0.844419
0.000000 0.292760 0.838010
0.000000 0.293523 0.839384
0.000000 0.180484 0.836179
0.463355 0.000000 0.814389
0.791562 0.000000 0.785061
1.000000 0.000000 0.799924
1.000000 0.000000 0.745663
1.000000 0.000000 0.650233
0.000000 0.293858 0.840543
0.000000 0.294621 0.842161
0.000000 0.057496 0.838590
0.443824 0.000000 0.814450
0.790890 0.000000 0.784695
1.000000 0.000000 0.798306
1.000000 0.000000 0.741024
1.000000 0.000000 0.647761
0.000000 0.511040 0.837400
0.000000 0.493294 0.836545
0.000000 0.380621 0.829801
0.314885 0.101411 0.809537
0.781003 0.000000 0.779690
1.000000 0.000000 0.784329
1.000000 0.000000 0.721462
1.000000 0.000000 0.637659
0.000000 0.626123 0.825193
0.000000 0.620233 0.824430
0.000000 0.596246 0.820523
0.000000 0.524804 0.802060
0.745205 0.439734 0.763699
0.982605 0.467353 0.763943
1.000000 0.414588 0.698726
1.000000 0.371679 0.627619
0.000000 0.782101 0.810727
0.000000 0.780667 0.809262
0.000000 0.771359 0.800595
0.000000 0.746395 0.778073
0.663233 0.682948 0.723781
0.939635 0.686366 0.726436
1.000000 0.671260 0.712215
1.000000 0.615839 0.661585
0.000000 0.923552 0.771786
0.000000 0.921660 0.770260
0.000000 0.910338 0.762448
0.311345 0.890135 0.750484
0.685206 0.863584 0.731258
0.846983 0.804532 0.745174
0.977111 0.858549 0.821256
1.000000 0.873838 0.837278
0.000000 1.000000 0.726833
0.000000 1.000000 0.727993
0.000000 0.994903 0.735866
0.547234 0.980926 0.760037
0.716854 0.970764 0.747951
0.879301 0.944549 0.753323
0.968780 0.905211 0.785702
1.000000 0.923033 0.855711
0.000000 1.000000 0.695705
0.000000 1.000000 0.704677
0.423438 1.000000 0.738705
0.549737 1.000000 0.734859
0.676295 1.000000 0.720485
0.830564 1.000000 0.725490
0.965515 0.993896 0.789761
1.000000 0.978271 0.859861
0.000000 0.337560 0.947997
0.000000 0.337682 0.948455
0.000000 0.336767 0.946136
0.000000 0.000000 0.940917
0.680537 0.000000 0.922728
0.981170 0.000000 0.909575
1.000000 0.000000 0.893278
1.000000 0.000000 0.843351
0.000000 0.335576 0.942931
0.000000 0.335454 0.942535
0.000000 0.334874 0.941009
0.000000 0.000000 0.935485
0.667384 0.000000 0.918486
0.972107 0.000000 0.903441
1.000000 0.000000 0.888212
1.000000 0.000000 0.839353
0.000000 0.476020 0.942779
0.000000 0.480446 0.942138
0.000000 0.427375 0.941314
0.000000 0.142580 0.936309
0.629267 0.000000 0.921111
0.967285 0.000000 0.901305
1.000000 0.000000 0.884123
1.000000 0.000000 0.833646
0.000000 0.640253 0.938354
0.000000 0.634730 0.938293
0.000000 0.613245 0.938903
0.000000 0.546746 0.936614
0.589807 0.455573 0.922759
0.953399 0.406012 0.897154
1.000000 0.493324 0.882902
1.000000 0.492683 0.830167
0.000000 0.754635 0.927062
0.000000 0.752438 0.926543
0.000000 0.745937 0.924254
0.000000 0.745724 0.917571
0.572381 0.719203 0.899535
0.900114 0.651087 0.867765
1.000000 0.681636 0.863523
1.000000 0.648402 0.811124
0.000000 0.898619 0.908232
0.000000 0.899626 0.908904
0.000000 0.896880 0.905180
0.000000 0.889433 0.897002
0.576165 0.871122 0.879728
0.837186 0.818418 0.834318
1.000000 0.834440 0.845548
1.000000 0.814176 0.826932
0.000000 1.000000 0.862516
0.000000 1.000000 0.863371
0.000000 1.000000 0.864469
0.204318 0.993103 0.862486
0.695155 0.973846 0.864317
0.875273 0.954681 0.860685
0.958709 0.914183 0.856474
1.000000 0.939818 0.906310
0.000000 1.000000 0.744625
0.000000 1.000000 0.747677
0.000000 1.000000 0.763272
0.251987 1.000000 0.795712
0.746029 1.000000 0.848386
0.855894 1.000000 0.846616
0.956481 0.995514 0.855436
1.000000 0.979614 0.894255
0.000000 0.357733 1.000000
0.000000 0.357855 1.000000
0.000000 0.357671 1.000000
0.000000 0.209537 1.000000
0.333349 0.000000 1.000000
0.820432 0.000000 0.992309
1.000000 0.000000 0.982666
1.000000 0.000000 0.953246
0.000000 0.357153 1.000000
0.000000 0.357305 1.000000
0.000000 0.357153 1.000000
0.000000 0.155398 1.000000
0.346777 0.000000 0.999664
0.812985 0.000000 0.989624
1.000000 0.000000 0.979065
1.000000 0.000000 0.949554
0.000000 0.385809 1.000000
0.000000 0.389929 1.000000
0.000000 0.408026 1.000000
0.000000 0.224430 1.000000
0.236912 0.000000 1.000000
0.792020 0.000000 0.989776
1.000000 0.000000 0.978973
1.000000 0.000000 0.947448
0.000000 0.582513 1.000000
0.000000 0.584588 1.000000
0.000000 0.575250 0.999725
0.000000 0.493965 1.000000
0.000000 0.376226 0.998108
0.763851 0.315373 0.986481
1.000000 0.269017 0.973327
1.000000 0.400977 0.941741
0.000000 0.710658 0.992889
0.000000 0.709773 0.992493
0.000000 0.696071 0.992676
0.000000 0.683833 0.991974
0.314763 0.686976 0.983246
0.750912 0.631037 0.973358
1.000000 0.596826 0.958434
1.000000 0.658564 0.936400
0.000000 0.823209 0.984131
0.000000 0.821866 0.984192
0.000000 0.817441 0.984070
0.000000 0.819760 0.981659
0.304906 0.836454 0.974701
0.793179 0.845060 0.962921
0.989380 0.799802 0.944579
1.000000 0.829648 0.934417
0.000000 0.962463 0.972290
0.000000 0.962646 0.972320
0.000000 0.962615 0.971069
0.000000 0.961639 0.967834
0.438331 0.957855 0.962158
0.812589 0.951080 0.953094
0.944305 0.919219 0.919951
1.000000 0.926482 0.924041
0.000000 1.000000 0.899107
0.000000 1.000000 0.897948
0.000000 1.000000 0.894987
0.000000 1.000000 0.899535
0.448554 1.000000 0.911009
0.835355 1.000000 0.928527
0.951415 0.998749 0.934874
1.000000 0.983032 0.938476
0.000000 0.370489 1.000000
0.000000 0.370489 1.000000
0.000000 0.370367 1.000000
0.000000 0.370367 1.000000
0.000000 0.000000 1.000000
0.497810 0.000000 1.000000
0.907500 0.000000 1.000000
1.000000 0.000000 1.000000
0.000000 0.370306 1.000000
0.000000 0.370306 1.000000
0.000000 0.370245 1.000000
0.000000 0.370184 1.000000
0.000000 0.000000 1.000000
0.504723 0.000000 1.000000
0.907073 0.000000 1.000000
1.000000 0.000000 1.000000
0.000000 0.370306 1.000000
0.000000 0.370306 1.000000
0.000000 0.370245 1.000000
0.000000 0.370306 1.000000
0.000000 0.000000 1.000000
0.510399 0.000000 1.000000
0.898161 0.000000 1.000000
1.000000 0.000000 1.000000
0.000000 0.437018 1.000000
0.000000 0.439155 1.000000
0.000000 0.448157 1.000000
0.000000 0.459968 1.000000
0.000000 0.204074 1.000000
0.411505 0.000000 1.000000
0.872068 0.000000 1.000000
1.000000 0.000000 1.000000
0.000000 0.602472 1.000000
0.000000 0.602075 1.000000
0.000000 0.599237 1.000000
0.000000 0.603265 1.000000
0.000000 0.558129 1.000000
0.413245 0.523827 1.000000
0.851835 0.484260 1.000000
1.000000 0.467872 1.000000
0.000000 0.732845 1.000000
0.000000 0.732540 1.000000
0.000000 0.731319 1.000000
0.000000 0.725978 1.000000
0.000000 0.704097 1.000000
0.574609 0.775265 1.000000
0.862333 0.755032 1.000000
1.000000 0.741238 1.000000
0.000000 0.852171 1.000000
0.000000 0.852232 1.000000
0.000000 0.852415 1.000000
0.000000 0.848386 1.000000
0.000000 0.842771 1.000000
0.493111 0.883970 1.000000
0.906706 0.925872 1.000000
1.000000 0.905974 0.997803
0.000000 0.991363 1.000000
0.000000 0.991821 1.000000
0.000000 0.993256 1.000000
0.000000 0.996277 1.000000
0.000000 0.997406 1.000000
0.582849 0.994751 1.000000
0.912016 0.994110 0.997162
0.993957 0.988098 0.987335
