20 Preset/Human Style/【3】LUT video cho PR-AE-FCPX/Joe-Allam/JA – Shaded Light 1.cube
# Created by Adobe Lightroom plugin Export LUT (1.24.0)
# www.johnrellis.com/lightroom/exportlut.htm
# Preset: JA – Shaded Light 1
# Color profile: E:\lut插件\exportlut.1.24\exportlut.lrplugin\color profiles\Rec709gamma2.4.icc
LUT_3D_SIZE 5
DOMAIN_MIN 0.000000 0.000000 0.000000
DOMAIN_MAX 0.903226 0.903226 0.903226
0.047120 0.060426 0.076631
0.093446 0.055665 0.078248
0.182040 0.061830 0.083772
0.313878 0.098756 0.101930
0.668757 0.128389 0.098116
0.019104 0.108278 0.087129
0.093507 0.112703 0.087526
0.190158 0.126650 0.094697
0.324407 0.148440 0.107942
0.659968 0.210300 0.093874
0.000000 0.233219 0.120424
0.051575 0.239017 0.125277
0.198184 0.241093 0.120577
0.332616 0.256962 0.114961
0.667140 0.387854 0.058625
0.000000 0.544671 0.111147
0.000000 0.546746 0.113252
0.178958 0.555230 0.120394
0.456641 0.572442 0.000000
0.689143 0.578973 0.000000
0.000000 0.893675 0.430915
0.000000 0.894316 0.437232
0.320226 0.911070 0.496101
0.561120 0.910521 0.522484
0.781582 0.921141 0.473610
0.025879 0.082490 0.115846
0.101717 0.061463 0.119081
0.211490 0.069062 0.142367
0.388312 0.022889 0.152346
0.754940 0.000000 0.170657
0.057740 0.116396 0.126680
0.106996 0.119326 0.131319
0.220859 0.129702 0.140810
0.389776 0.149630 0.157107
0.748989 0.182437 0.167514
0.000000 0.249393 0.164675
0.069520 0.252262 0.168856
0.216556 0.260288 0.167269
0.386542 0.291630 0.160952
0.710079 0.392859 0.148348
0.000000 0.562646 0.155062
0.000000 0.562646 0.156344
0.153964 0.569085 0.162539
0.467445 0.584527 0.110567
0.709133 0.588067 0.000000
0.000000 0.897551 0.474891
0.000000 0.898741 0.481605
0.296880 0.900175 0.500908
0.556756 0.903899 0.537316
0.775937 0.914275 0.484627
0.054749 0.089509 0.235203
0.125277 0.078309 0.231998
0.211368 0.080720 0.239200
0.332677 0.111177 0.279362
0.776516 0.000000 0.418708
0.048920 0.125551 0.248173
0.122408 0.124422 0.249210
0.221439 0.126253 0.253330
0.376165 0.140932 0.305180
0.800504 0.000000 0.398993
0.003326 0.268559 0.289250
0.114107 0.270787 0.292515
0.239994 0.270176 0.295537
0.524376 0.291661 0.312169
0.821530 0.341375 0.356359
0.000000 0.610407 0.376837
0.000000 0.618799 0.377874
0.000000 0.616815 0.375891
0.500389 0.612573 0.338781
0.774533 0.609827 0.304204
0.000000 0.916930 0.615961
0.000000 0.916228 0.616876
0.374182 0.915740 0.624689
0.595666 0.917662 0.644709
0.803525 0.925383 0.609827
0.144533 0.022858 0.503990
0.195193 0.007019 0.494789
0.305791 0.000000 0.473426
0.444800 0.000000 0.493263
0.711849 0.000000 0.607416
0.097688 0.127718 0.543786
0.182406 0.120760 0.540276
0.323583 0.082399 0.517052
0.475593 0.000000 0.527092
0.734768 0.000000 0.620508
0.000000 0.377661 0.655940
0.000000 0.348150 0.652155
0.297673 0.286381 0.626307
0.538079 0.240574 0.598993
0.768917 0.300114 0.642023
0.000000 0.678676 0.702693
0.000000 0.681147 0.706020
0.372747 0.677516 0.705928
0.583093 0.651270 0.687739
0.862943 0.682246 0.715236
0.270298 0.934020 0.781674
0.317449 0.934386 0.781643
0.447730 0.933501 0.777981
0.646754 0.929992 0.784787
0.839994 0.930755 0.760281
0.307378 0.000000 0.874907
0.350835 0.000000 0.873320
0.480842 0.000000 0.865751
0.642603 0.000000 0.845884
0.829343 0.000000 0.861875
0.276219 0.128664 0.884428
0.326909 0.111971 0.882811
0.470741 0.000000 0.874815
0.642969 0.000000 0.854276
0.834897 0.000000 0.867063
0.179080 0.416815 0.914153
0.261234 0.410437 0.912444
0.441901 0.378882 0.904540
0.639399 0.278782 0.884215
0.850340 0.286046 0.884031
0.594629 0.826322 0.943694
0.603723 0.821164 0.942962
0.620996 0.786130 0.939239
0.664912 0.684810 0.926299
0.868650 0.621363 0.909117
0.651911 0.948699 0.947845
0.668147 0.948455 0.948089
0.730465 0.947417 0.949035
0.826780 0.945312 0.950591
0.906889 0.934264 0.945068
