20 Preset/Human Style/【3】LUT video cho PR-AE-FCPX/Joe-Allam/JA – Shaded Light 2.cube
# Created by Adobe Lightroom plugin Export LUT (1.24.0)
# www.johnrellis.com/lightroom/exportlut.htm
# Preset: JA – Shaded Light 2
# Color profile: E:\lut插件\exportlut.1.24\exportlut.lrplugin\color profiles\Rec709gamma2.4.icc
LUT_3D_SIZE 32
DOMAIN_MIN 0.0 0.0 0.0
DOMAIN_MAX 1.0 1.0 1.0
0.115572 0.110903 0.104555
0.115572 0.110903 0.104555
0.115572 0.110903 0.104555
0.116609 0.110780 0.104555
0.123629 0.109895 0.104524
0.132296 0.108705 0.104799
0.141115 0.108309 0.104280
0.149996 0.108431 0.103975
0.160525 0.108095 0.104036
0.172946 0.108156 0.103517
0.187869 0.107668 0.103304
0.205509 0.107301 0.103212
0.226261 0.106386 0.102907
0.250340 0.105043 0.102266
0.276921 0.103059 0.101686
0.305638 0.100740 0.100618
0.336889 0.097688 0.099428
0.370062 0.093141 0.097627
0.404791 0.086122 0.095216
0.440803 0.072755 0.091920
0.477668 0.051820 0.087678
0.514519 0.026581 0.080415
0.551232 0.000000 0.067231
0.587518 0.000000 0.052155
0.623194 0.000000 0.035645
0.657832 0.000000 0.018067
0.692409 0.000000 0.000000
0.727016 0.000000 0.000000
0.762661 0.000000 0.000000
0.801236 0.000000 0.000000
0.844816 0.000000 0.000000
0.894957 0.000000 0.000000
0.115572 0.110903 0.104555
0.115572 0.110903 0.104555
0.115572 0.110903 0.104555
0.117159 0.110719 0.104555
0.124117 0.109834 0.104524
0.132784 0.108614 0.104463
0.140963 0.108675 0.104219
0.150240 0.108736 0.103944
0.160616 0.108736 0.103914
0.173037 0.108797 0.103426
0.187686 0.108370 0.103212
0.205661 0.107607 0.103182
0.226596 0.106600 0.102846
0.250370 0.105715 0.102174
0.276982 0.103731 0.101564
0.305821 0.101350 0.100526
0.336919 0.098421 0.099306
0.370092 0.093935 0.097505
0.405066 0.087831 0.095064
0.441077 0.076448 0.091707
0.477638 0.054231 0.087465
0.514549 0.030945 0.080049
0.551110 0.003265 0.066804
0.587304 0.000000 0.051759
0.622797 0.000000 0.035554
0.657435 0.000000 0.018006
0.692042 0.000000 0.000000
0.726680 0.000000 0.000000
0.762234 0.000000 0.000000
0.800809 0.000000 0.000000
0.844297 0.000000 0.000000
0.894438 0.000000 0.000000
0.115572 0.110903 0.104555
0.115572 0.110903 0.104555
0.115572 0.110903 0.104555
0.117983 0.110933 0.104494
0.125063 0.110658 0.104372
0.132998 0.110811 0.104158
0.141299 0.110506 0.103944
0.150149 0.110628 0.104005
0.160922 0.110597 0.103639
0.173678 0.110262 0.103182
0.188693 0.110048 0.103273
0.206699 0.109590 0.102815
0.227695 0.108583 0.102876
0.251621 0.107912 0.102144
0.278325 0.106203 0.101472
0.307225 0.104189 0.100374
0.338445 0.101472 0.099123
0.371588 0.097414 0.097230
0.406409 0.092439 0.094667
0.442542 0.084382 0.091279
0.479133 0.067445 0.087251
0.515923 0.044160 0.079103
0.552117 0.017365 0.065339
0.588342 0.000000 0.050263
0.623865 0.000000 0.032471
0.658412 0.000000 0.015900
0.692836 0.000000 0.000000
0.727321 0.000000 0.000000
0.762905 0.000000 0.000000
0.801450 0.000000 0.000000
0.844877 0.000000 0.000000
0.895109 0.000000 0.000000
0.114290 0.113863 0.104494
0.114290 0.113863 0.104494
0.115175 0.114046 0.104433
0.118349 0.114595 0.103944
0.125521 0.114931 0.103700
0.133761 0.114443 0.103548
0.142000 0.114137 0.103365
0.151125 0.114199 0.103426
0.162112 0.114107 0.103395
0.174990 0.113710 0.103304
0.190158 0.113466 0.103029
0.208591 0.113191 0.102876
0.229740 0.113008 0.102785
0.254276 0.112062 0.102052
0.281071 0.111208 0.101228
0.310185 0.109682 0.100008
0.341436 0.107637 0.098604
0.374670 0.104982 0.096529
0.409644 0.100465 0.093874
0.445808 0.095216 0.090211
0.482277 0.087800 0.084688
0.518730 0.071565 0.075441
0.554772 0.047700 0.061738
0.590723 0.019745 0.045411
0.625849 0.000000 0.028779
0.660273 0.000000 0.010895
0.694636 0.000000 0.000000
0.728969 0.000000 0.000000
0.764584 0.000000 0.000000
0.803220 0.000000 0.000000
0.846616 0.000000 0.000000
0.896788 0.000000 0.000000
0.114076 0.119753 0.104250
0.114076 0.119753 0.104250
0.115999 0.119814 0.104189
0.119234 0.120027 0.104097
0.125368 0.120790 0.103090
0.133028 0.120668 0.102907
0.142214 0.119966 0.103120
0.152163 0.119600 0.103212
0.163699 0.119387 0.103182
0.177188 0.119173 0.103395
0.192935 0.119326 0.103029
0.211795 0.119448 0.102754
0.233616 0.119539 0.102174
0.258427 0.119570 0.101595
0.285283 0.119112 0.101045
0.314855 0.118441 0.099611
0.346563 0.117006 0.097597
0.380102 0.114992 0.095338
0.414832 0.112032 0.092378
0.450813 0.108248 0.088502
0.487343 0.103304 0.081300
0.523613 0.097230 0.069368
0.559228 0.088624 0.054536
0.594842 0.070985 0.038849
0.629633 0.043061 0.022065
0.663722 0.015351 0.003754
0.697841 0.000000 0.000000
0.731899 0.000000 0.000000
0.767422 0.000000 0.000000
0.806088 0.000000 0.000000
0.849638 0.000000 0.000000
0.899870 0.000000 0.000000
0.114778 0.125673 0.104952
0.115328 0.125643 0.104952
0.116732 0.125765 0.104891
0.120058 0.125673 0.105165
0.124636 0.126497 0.104585
0.132082 0.127749 0.103822
0.141512 0.127626 0.103548
0.152193 0.127474 0.103243
0.165164 0.127291 0.103517
0.179934 0.127626 0.103212
0.196780 0.127718 0.103151
0.216495 0.128298 0.102724
0.239109 0.129335 0.101869
0.264530 0.129702 0.101106
0.292119 0.130068 0.099916
0.321874 0.130312 0.098177
0.353887 0.129549 0.095888
0.387610 0.128817 0.093233
0.422644 0.126894 0.089784
0.458656 0.125307 0.083101
0.494850 0.122042 0.074342
0.530724 0.117617 0.060121
0.568505 0.112215 0.044038
0.603693 0.105928 0.026551
0.637720 0.098299 0.009339
0.671382 0.088106 0.000000
0.704891 0.064271 0.000000
0.738766 0.032380 0.000000
0.774197 0.000000 0.000000
0.813046 0.000000 0.000000
0.857053 0.000000 0.000000
0.907500 0.000000 0.000000
0.115938 0.132448 0.106416
0.116274 0.132662 0.106355
0.117586 0.132753 0.106661
0.120424 0.132723 0.106600
0.124727 0.133028 0.106783
0.131350 0.134310 0.105684
0.140749 0.135897 0.104463
0.151888 0.136873 0.104280
0.165560 0.137331 0.104067
0.181888 0.138308 0.103548
0.201999 0.139590 0.102663
0.223331 0.140963 0.102296
0.247044 0.142306 0.101228
0.273198 0.143465 0.099794
0.301366 0.144594 0.098207
0.331792 0.145480 0.096040
0.364294 0.146059 0.093172
0.398169 0.146334 0.089876
0.433387 0.145815 0.084657
0.469337 0.144717 0.075074
0.505425 0.143252 0.060853
0.540978 0.140627 0.045655
0.576013 0.137545 0.030121
0.610437 0.133272 0.013672
0.644099 0.128267 0.000000
0.677211 0.122438 0.000000
0.710262 0.115053 0.000000
0.743801 0.106386 0.000000
0.779171 0.096315 0.000000
0.818143 0.078462 0.000000
0.862394 0.037293 0.000000
0.912749 0.000000 0.000000
0.117311 0.140749 0.108156
0.117403 0.140749 0.107820
0.118654 0.140871 0.108095
0.121492 0.140841 0.108034
0.126131 0.141054 0.108553
0.131716 0.142336 0.107820
0.139528 0.144381 0.106844
0.151308 0.146975 0.105592
0.165255 0.148836 0.104738
0.182254 0.150668 0.103639
0.203403 0.153048 0.102785
0.228275 0.155947 0.101045
0.256535 0.158846 0.099184
0.283513 0.160891 0.097169
0.312413 0.162753 0.095094
0.343328 0.164401 0.092744
0.376287 0.165896 0.089143
0.410620 0.167361 0.082643
0.445838 0.167941 0.073304
0.481514 0.167819 0.058595
0.516960 0.167025 0.043671
0.551843 0.165805 0.028626
0.585962 0.163912 0.011536
0.619379 0.161013 0.000000
0.652186 0.157534 0.000000
0.684718 0.153475 0.000000
0.717250 0.149294 0.000000
0.750423 0.143801 0.000000
0.785763 0.137636 0.000000
0.824949 0.130617 0.000000
0.869444 0.121736 0.000000
0.919829 0.110750 0.000000
0.117983 0.151003 0.109316
0.117800 0.151217 0.109255
0.119081 0.151308 0.109529
0.122133 0.151461 0.109743
0.126802 0.151675 0.109926
0.132601 0.152377 0.109621
0.140414 0.154635 0.108949
0.151522 0.157443 0.107301
0.165835 0.161196 0.105562
0.182986 0.164462 0.104097
0.204776 0.168429 0.102358
0.230014 0.172427 0.100160
0.259312 0.176852 0.097139
0.292485 0.181369 0.093629
0.326024 0.185122 0.089906
0.357763 0.187503 0.085328
0.391363 0.189853 0.077943
0.425666 0.191684 0.064759
0.460914 0.193149 0.050843
0.496223 0.194034 0.035584
0.530816 0.193759 0.020020
0.564660 0.193271 0.003204
0.597650 0.191531 0.000000
0.629999 0.189914 0.000000
0.661952 0.187411 0.000000
0.693660 0.184054 0.000000
0.725612 0.181064 0.000000
0.758511 0.177157 0.000000
0.794003 0.173526 0.000000
0.833433 0.169314 0.000000
0.878416 0.164920 0.000000
0.928679 0.159976 0.000000
0.117220 0.164340 0.110170
0.117678 0.164309 0.110506
0.118990 0.164401 0.110445
0.121981 0.164736 0.110292
0.126925 0.165072 0.110414
0.133364 0.165805 0.110414
0.141756 0.167422 0.110109
0.152407 0.170840 0.108644
0.166354 0.175051 0.106722
0.184573 0.180087 0.104250
0.205447 0.184634 0.101869
0.231846 0.190829 0.098299
0.261448 0.196475 0.094514
0.294804 0.202335 0.089937
0.331884 0.208591 0.082155
0.372473 0.214420 0.065797
0.408850 0.218235 0.050996
0.443397 0.220218 0.036225
0.478340 0.222141 0.020600
0.512779 0.222934 0.004791
0.546624 0.223270 0.000000
0.579156 0.222782 0.000000
0.610864 0.221561 0.000000
0.641871 0.219638 0.000000
0.672786 0.217502 0.000000
0.703792 0.215061 0.000000
0.735073 0.212528 0.000000
0.767941 0.209995 0.000000
0.803738 0.207401 0.000000
0.843595 0.205417 0.000000
0.888945 0.203586 0.000000
0.938842 0.201328 0.000000
0.115206 0.180941 0.110475
0.115755 0.180911 0.110475
0.116945 0.181155 0.110384
0.120912 0.181399 0.110567
0.126223 0.181827 0.110658
0.133425 0.182589 0.110567
0.143160 0.183261 0.110445
0.154116 0.186831 0.109468
0.168215 0.191440 0.106935
0.186496 0.197024 0.104128
0.208469 0.203586 0.100374
0.233463 0.210178 0.096284
0.263828 0.217716 0.091127
0.297368 0.224887 0.082368
0.334539 0.232364 0.068452
0.375097 0.239933 0.045960
0.418585 0.246983 0.022370
0.463386 0.253300 0.000000
0.497536 0.254765 0.000000
0.531395 0.255558 0.000000
0.563806 0.255406 0.000000
0.594903 0.254459 0.000000
0.625116 0.253025 0.000000
0.655085 0.251133 0.000000
0.685328 0.249424 0.000000
0.715389 0.246891 0.000000
0.746304 0.244938 0.000000
0.779294 0.243290 0.000000
0.815366 0.241550 0.000000
0.855924 0.240787 0.000000
0.901427 0.240238 0.000000
0.950683 0.240177 0.000000
0.110780 0.200565 0.109651
0.111147 0.200687 0.109621
0.113527 0.200839 0.109529
0.117433 0.201175 0.109651
0.124239 0.201633 0.109682
0.132540 0.202487 0.109834
0.142977 0.203586 0.109529
0.155489 0.205631 0.109163
0.170443 0.210483 0.106630
0.188174 0.216403 0.103761
0.210391 0.223453 0.099458
0.236545 0.231632 0.093355
0.266850 0.240787 0.085023
0.301091 0.250126 0.068940
0.338994 0.258915 0.044984
0.379828 0.267796 0.019440
0.423011 0.276036 0.000000
0.467903 0.283452 0.000000
0.513207 0.289616 0.000000
0.553338 0.292546 0.000000
0.584161 0.291417 0.000000
0.613336 0.289464 0.000000
0.642451 0.287388 0.000000
0.671504 0.285252 0.000000
0.700526 0.283146 0.000000
0.729946 0.280919 0.000000
0.760708 0.279088 0.000000
0.793912 0.277714 0.000000
0.830564 0.277012 0.000000
0.871733 0.277195 0.000000
0.916960 0.277897 0.000000
0.965118 0.278996 0.000000
0.103853 0.223331 0.108156
0.104555 0.223301 0.107820
0.106813 0.223545 0.108003
0.112062 0.223941 0.107759
0.120150 0.224399 0.107729
0.129824 0.225315 0.107820
0.142184 0.226383 0.107729
0.156100 0.227848 0.107393
0.171908 0.231876 0.105562
0.190524 0.238163 0.102083
0.212650 0.245518 0.097108
0.238926 0.254154 0.090303
0.269139 0.264195 0.076661
0.302861 0.274357 0.050965
0.341009 0.285435 0.023163
0.381842 0.295293 0.000000
0.424994 0.304631 0.000000
0.469154 0.312932 0.000000
0.513664 0.319890 0.000000
0.557000 0.324712 0.000000
0.597864 0.327520 0.000000
0.630030 0.326055 0.000000
0.658198 0.323278 0.000000
0.686213 0.320500 0.000000
0.714534 0.318059 0.000000
0.743771 0.315679 0.000000
0.774777 0.313878 0.000000
0.808530 0.313237 0.000000
0.845914 0.313054 0.000000
0.887419 0.314031 0.000000
0.932250 0.315618 0.000000
0.978912 0.317205 0.000000
0.092226 0.248142 0.104829
0.093721 0.248081 0.104829
0.097322 0.248173 0.104738
0.103487 0.248600 0.105104
0.112947 0.249302 0.104952
0.125612 0.250095 0.104982
0.139284 0.251286 0.104768
0.155154 0.252842 0.104219
0.172793 0.254856 0.104036
0.191897 0.261295 0.099947
0.214176 0.268864 0.094575
0.240574 0.277775 0.085908
0.270603 0.287938 0.065827
0.304723 0.299474 0.034058
0.342229 0.311406 0.000000
0.382788 0.323095 0.000000
0.426307 0.334020 0.000000
0.470253 0.343084 0.000000
0.513909 0.350286 0.000000
0.556420 0.355718 0.000000
0.596582 0.358862 0.000000
0.635706 0.360357 0.000000
0.673915 0.361181 0.000000
0.701839 0.357794 0.000000
0.729793 0.354742 0.000000
0.759274 0.352422 0.000000
0.790799 0.350896 0.000000
0.825193 0.350408 0.000000
0.863340 0.350927 0.000000
0.904845 0.352453 0.000000
0.948608 0.354437 0.000000
0.993469 0.356329 0.000000
0.063447 0.274723 0.100587
0.064729 0.274784 0.100557
0.078370 0.274937 0.100374
0.089723 0.275364 0.100740
0.102998 0.275914 0.100191
0.117617 0.276860 0.100435
0.134981 0.278050 0.100038
0.152773 0.279606 0.100038
0.172488 0.281590 0.099275
0.192660 0.285893 0.096834
0.215671 0.293645 0.090791
0.241917 0.302739 0.078767
0.272129 0.312932 0.051881
0.305303 0.324529 0.018708
0.342931 0.337377 0.000000
0.383886 0.350774 0.000000
0.425452 0.362249 0.000000
0.470527 0.373571 0.000000
0.513725 0.381384 0.000000
0.555474 0.386847 0.000000
0.595270 0.390112 0.000000
0.634028 0.392279 0.000000
0.672114 0.393530 0.000000
0.710140 0.394110 0.000000
0.746426 0.393988 0.000000
0.776364 0.391485 0.000000
0.808713 0.390204 0.000000
0.844144 0.390204 0.000000
0.882780 0.391211 0.000000
0.923583 0.392767 0.000000
0.965942 0.394568 0.000000
1.000000 0.396246 0.000000
0.009277 0.303166 0.094362
0.011261 0.303136 0.094362
0.023621 0.303441 0.094087
0.047150 0.303868 0.094392
0.085512 0.304448 0.094087
0.106294 0.305394 0.093843
0.126802 0.306767 0.093538
0.148348 0.308415 0.093233
0.170291 0.310430 0.092866
0.192966 0.312902 0.091951
0.216556 0.319921 0.084535
0.243168 0.328801 0.065217
0.272709 0.339239 0.036225
0.305791 0.350530 0.000916
0.342168 0.363104 0.000000
0.382147 0.376593 0.000000
0.425513 0.390784 0.000000
0.467567 0.401526 0.000000
0.512596 0.412329 0.000000
0.553674 0.417914 0.000000
0.593347 0.421607 0.000000
0.631983 0.424231 0.000000
0.670130 0.425910 0.000000
0.708400 0.427039 0.000000
0.747890 0.428779 0.000000
0.790249 0.431403 0.000000
0.828977 0.432563 0.000000
0.865080 0.432715 0.000000
0.903319 0.433539 0.000000
0.942962 0.434791 0.000000
0.983276 0.436164 0.000000
1.000000 0.437110 0.000000
0.000000 0.332921 0.083864
0.000000 0.332952 0.084474
0.000000 0.333196 0.083955
0.000000 0.333623 0.083711
0.028962 0.334203 0.083772
0.088289 0.335180 0.083009
0.115419 0.336522 0.082856
0.141238 0.338170 0.081971
0.166293 0.340276 0.081453
0.190890 0.342779 0.080018
0.216495 0.346624 0.075837
0.243351 0.355596 0.050233
0.273014 0.365606 0.020691
0.305425 0.376715 0.000000
0.341039 0.388800 0.000000
0.379736 0.401892 0.000000
0.421088 0.415717 0.000000
0.466011 0.430121 0.000000
0.507591 0.439612 0.000000
0.551232 0.449073 0.000000
0.590814 0.453101 0.000000
0.629847 0.456031 0.000000
0.667842 0.458167 0.000000
0.706325 0.460060 0.000000
0.746487 0.462501 0.000000
0.789425 0.466224 0.000000
0.836149 0.471260 0.000000
0.885252 0.476905 0.000000
0.924346 0.477882 0.000000
0.962249 0.478492 0.000000
1.000000 0.478859 0.000000
1.000000 0.478645 0.000000
0.000000 0.363531 0.060914
0.000000 0.363592 0.060578
0.000000 0.364874 0.059480
0.000000 0.365209 0.059083
0.000000 0.366003 0.059541
0.025605 0.366888 0.059297
0.097993 0.368139 0.057557
0.130953 0.369848 0.056458
0.160098 0.371862 0.056123
0.188540 0.374243 0.054078
0.215854 0.377081 0.052369
0.243503 0.383673 0.036042
0.272953 0.393317 0.005951
0.305272 0.403967 0.000000
0.339910 0.415473 0.000000
0.377295 0.427893 0.000000
0.417334 0.440864 0.000000
0.459907 0.454353 0.000000
0.504692 0.467903 0.000000
0.545251 0.476112 0.000000
0.588495 0.485084 0.000000
0.627497 0.488380 0.000000
0.665888 0.490883 0.000000
0.704738 0.493385 0.000000
0.745480 0.496712 0.000000
0.789090 0.501396 0.000000
0.836362 0.507469 0.000000
0.885771 0.514122 0.000000
0.935119 0.519921 0.000000
0.980743 0.523400 0.000000
1.000000 0.522332 0.000000
1.000000 0.520562 0.000000
0.000000 0.395056 0.030915
0.000000 0.395209 0.031586
0.000000 0.395483 0.031556
0.000000 0.396002 0.030610
0.000000 0.396765 0.030701
0.000000 0.397711 0.029969
0.049561 0.399084 0.029725
0.115694 0.400580 0.027314
0.151247 0.402594 0.026154
0.182834 0.404974 0.025452
0.212924 0.407752 0.023865
0.242313 0.410803 0.022675
0.272038 0.420050 0.000000
0.303838 0.430243 0.000000
0.337896 0.441291 0.000000
0.374182 0.453040 0.000000
0.412604 0.465187 0.000000
0.453193 0.477638 0.000000
0.495766 0.490272 0.000000
0.539940 0.502953 0.000000
0.580468 0.510765 0.000000
0.624079 0.520012 0.000000
0.662684 0.522972 0.000000
0.702327 0.526268 0.000000
0.743984 0.530571 0.000000
0.788510 0.536370 0.000000
0.836301 0.543664 0.000000
0.885863 0.551110 0.000000
0.935027 0.557610 0.000000
0.981811 0.562280 0.000000
1.000000 0.564416 0.000000
1.000000 0.562554 0.000000
0.000000 0.427253 0.000000
0.000000 0.427436 0.000000
0.000000 0.427741 0.000000
0.000000 0.428290 0.000000
0.000000 0.428962 0.000000
0.000000 0.429969 0.000000
0.000000 0.431250 0.000000
0.092775 0.432807 0.000000
0.139254 0.434668 0.000000
0.175051 0.436988 0.000000
0.208682 0.439582 0.000000
0.240299 0.442512 0.000000
0.271031 0.447974 0.000000
0.302739 0.457649 0.000000
0.336126 0.467933 0.000000
0.371496 0.478737 0.000000
0.408545 0.489967 0.000000
0.447364 0.501366 0.000000
0.488045 0.513176 0.000000
0.530541 0.525292 0.000000
0.574456 0.537407 0.000000
0.615137 0.545220 0.000000
0.658442 0.554253 0.000000
0.699489 0.559167 0.000000
0.742061 0.564660 0.000000
0.787869 0.571710 0.000000
0.836301 0.580072 0.000000
0.885954 0.588281 0.000000
0.934752 0.595392 0.000000
0.980987 0.600214 0.000000
1.000000 0.602472 0.000000
1.000000 0.601495 0.000000
0.000000 0.460517 0.000000
0.000000 0.460639 0.000000
0.000000 0.460883 0.000000
0.000000 0.461494 0.000000
0.000000 0.462135 0.000000
0.000000 0.462959 0.000000
0.000000 0.464210 0.000000
0.024475 0.465705 0.000000
0.121645 0.467506 0.000000
0.165866 0.469490 0.000000
0.202579 0.471962 0.000000
0.236973 0.474800 0.000000
0.269596 0.477821 0.000000
0.301244 0.485359 0.000000
0.334356 0.494759 0.000000
0.368872 0.504601 0.000000
0.404913 0.515007 0.000000
0.442603 0.525811 0.000000
0.481727 0.536980 0.000000
0.522545 0.548425 0.000000
0.564996 0.560082 0.000000
0.609125 0.572107 0.000000
0.652094 0.581811 0.000000
0.695552 0.590906 0.000000
0.740841 0.599573 0.000000
0.787869 0.608087 0.000000
0.837247 0.617548 0.000000
0.887022 0.626459 0.000000
0.935393 0.633936 0.000000
0.980804 0.638911 0.000000
1.000000 0.640742 0.000000
1.000000 0.639246 0.000000
0.000000 0.494514 0.000000
0.000000 0.494575 0.000000
0.000000 0.494789 0.000000
0.000000 0.495094 0.000000
0.000000 0.495735 0.000000
0.000000 0.496498 0.000000
0.000000 0.497536 0.000000
0.000000 0.498817 0.000000
0.098726 0.500450 0.000000
0.154086 0.502312 0.000000
0.195895 0.504479 0.000000
0.232364 0.506950 0.000000
0.266941 0.509697 0.000000
0.300206 0.513481 0.000000
0.332860 0.522057 0.000000
0.366918 0.531243 0.000000
0.402197 0.540917 0.000000
0.438819 0.551080 0.000000
0.476753 0.561486 0.000000
0.516258 0.572381 0.000000
0.557183 0.583673 0.000000
0.600183 0.595666 0.000000
0.645167 0.608240 0.000000
0.689906 0.619471 0.000000
0.736385 0.631006 0.000000
0.786862 0.644007 0.000000
0.836759 0.654475 0.000000
0.886656 0.664149 0.000000
0.934783 0.671809 0.000000
0.979309 0.676661 0.000000
1.000000 0.678187 0.000000
1.000000 0.676112 0.000000
0.000000 0.527428 0.000000
0.000000 0.527520 0.000000
0.000000 0.527672 0.000000
0.000000 0.528008 0.000000
0.000000 0.528527 0.000000
0.000000 0.529259 0.000000
0.000000 0.530205 0.000000
0.000000 0.531334 0.000000
0.044739 0.532860 0.000000
0.141421 0.534569 0.000000
0.188174 0.536522 0.000000
0.227848 0.538811 0.000000
0.264347 0.541314 0.000000
0.299016 0.544152 0.000000
0.332128 0.549981 0.000000
0.365759 0.558495 0.000000
0.400244 0.567559 0.000000
0.436072 0.577111 0.000000
0.473213 0.587182 0.000000
0.511742 0.597864 0.000000
0.551965 0.609308 0.000000
0.594232 0.621576 0.000000
0.638758 0.634760 0.000000
0.685634 0.648920 0.000000
0.732204 0.661524 0.000000
0.782010 0.675715 0.000000
0.835935 0.691615 0.000000
0.885801 0.701717 0.000000
0.933440 0.709529 0.000000
0.977203 0.714015 0.000000
1.000000 0.714961 0.000000
1.000000 0.712398 0.000000
0.000000 0.561242 0.000000
0.000000 0.561334 0.000000
0.000000 0.561517 0.000000
0.000000 0.561791 0.000000
0.000000 0.562249 0.000000
0.000000 0.562860 0.000000
0.000000 0.563684 0.000000
0.000000 0.564691 0.000000
0.000000 0.565972 0.000000
0.126131 0.567498 0.000000
0.179965 0.569299 0.000000
0.223453 0.571313 0.000000
0.261753 0.573632 0.000000
0.297734 0.576196 0.000000
0.332250 0.579004 0.000000
0.365423 0.586633 0.000000
0.399573 0.595331 0.000000
0.435004 0.604669 0.000000
0.471443 0.614832 0.000000
0.509636 0.625727 0.000000
0.549676 0.637629 0.000000
0.591638 0.650446 0.000000
0.635859 0.664363 0.000000
0.682551 0.679286 0.000000
0.731624 0.695033 0.000000
0.780453 0.709224 0.000000
0.830808 0.723568 0.000000
0.884672 0.739498 0.000000
0.931670 0.747158 0.000000
0.974426 0.751247 0.000000
1.000000 0.751247 0.000000
1.000000 0.747982 0.000000
0.000000 0.595544 0.000000
0.000000 0.595605 0.000000
0.000000 0.595758 0.000000
0.000000 0.596063 0.000000
0.000000 0.596490 0.000000
0.000000 0.597131 0.000000
0.000000 0.597925 0.000000
0.000000 0.598993 0.000000
0.000000 0.600244 0.000000
0.110750 0.601801 0.000000
0.173220 0.603540 0.000000
0.219669 0.605615 0.000000
0.260319 0.607874 0.000000
0.297673 0.610468 0.000000
0.333532 0.613275 0.000000
0.367803 0.618036 0.000000
0.401953 0.626795 0.000000
0.436957 0.636378 0.000000
0.473487 0.646967 0.000000
0.511711 0.658473 0.000000
0.551690 0.670985 0.000000
0.593744 0.684627 0.000000
0.637934 0.699214 0.000000
0.684138 0.714473 0.000000
0.732357 0.730098 0.000000
0.782162 0.745876 0.000000
0.831266 0.759640 0.000000
0.879484 0.771725 0.000000
0.929961 0.784909 0.000000
0.971435 0.788266 0.000000
1.000000 0.787442 0.000000
1.000000 0.783047 0.000000
0.000000 0.633478 0.000000
0.000000 0.633509 0.000000
0.000000 0.633600 0.000000
0.000000 0.633967 0.000000
0.000000 0.634424 0.000000
0.000000 0.635004 0.000000
0.000000 0.635920 0.000000
0.000000 0.636988 0.000000
0.000000 0.638331 0.000000
0.094026 0.639948 0.000000
0.167544 0.641871 0.000000
0.218143 0.644007 0.000000
0.260594 0.646571 0.000000
0.299870 0.649439 0.006928
0.337041 0.652522 0.033326
0.373022 0.656031 0.061433
0.407477 0.663691 0.047913
0.442969 0.673915 0.009552
0.479805 0.685176 0.000000
0.518151 0.697444 0.000000
0.558465 0.710658 0.000000
0.600458 0.724575 0.000000
0.644038 0.738949 0.000000
0.689357 0.753628 0.000000
0.735958 0.768307 0.000000
0.783780 0.782681 0.000000
0.832303 0.796536 0.000000
0.879789 0.808255 0.000000
0.923735 0.816373 0.000000
0.967193 0.823880 0.000000
1.000000 0.822354 0.000000
1.000000 0.816983 0.000000
0.000000 0.678462 0.000000
0.000000 0.678584 0.000000
0.000000 0.678737 0.000000
0.000000 0.679072 0.000000
0.000000 0.679622 0.000000
0.000000 0.680415 0.000000
0.000000 0.681483 0.000000
0.000000 0.682856 0.000000
0.000000 0.684504 0.000000
0.060212 0.686519 0.000000
0.163882 0.688899 0.000000
0.218418 0.691524 0.015747
0.264286 0.694575 0.035767
0.305516 0.698024 0.063294
0.344762 0.701686 0.086976
0.382422 0.705776 0.100038
0.419226 0.710780 0.109316
0.455146 0.721584 0.096681
0.492226 0.733150 0.070893
0.530785 0.745418 0.016327
0.570764 0.758206 0.000000
0.612207 0.771328 0.000000
0.654871 0.784482 0.000000
0.698512 0.797604 0.000000
0.743099 0.810300 0.000000
0.788266 0.822446 0.000000
0.833738 0.833768 0.000000
0.879118 0.844114 0.000000
0.923003 0.852323 0.000000
0.961089 0.855283 0.000000
0.995544 0.855711 0.000000
1.000000 0.850370 0.111086
0.000000 0.736416 0.000000
0.000000 0.736477 0.000000
0.000000 0.736660 0.000000
0.000000 0.736995 0.000000
0.000000 0.737606 0.000000
0.000000 0.738399 0.000000
0.000000 0.739467 0.000000
0.000000 0.740932 0.004059
0.000000 0.742702 0.017975
0.000000 0.744747 0.033448
0.159701 0.747158 0.055360
0.220798 0.749905 0.078004
0.269993 0.753048 0.092653
0.314092 0.756466 0.104097
