20 Preset/Human Style/【3】LUT video cho PR-AE-FCPX/Joe-Allam/JA – Night Pop 3.cube
# Created by Adobe Lightroom plugin Export LUT (1.24.0)
# www.johnrellis.com/lightroom/exportlut.htm
# Preset: JA – Night Pop 3
# Color profile: E:\lut插件\exportlut.1.24\exportlut.lrplugin\color profiles\Rec709gamma2.4.icc
LUT_3D_SIZE 32
DOMAIN_MIN 0.0 0.0 0.0
DOMAIN_MAX 1.0 1.0 1.0
0.065034 0.100282 0.115846
0.065034 0.100282 0.115846
0.065034 0.100282 0.115846
0.080934 0.099641 0.116152
0.118471 0.095369 0.117800
0.161105 0.085725 0.120760
0.219211 0.040192 0.126345
0.290227 0.000000 0.127413
0.373144 0.000000 0.117678
0.462593 0.000000 0.108339
0.555444 0.000000 0.100160
0.648463 0.000000 0.087098
0.734463 0.000000 0.049409
0.812100 0.000000 0.000946
0.881498 0.000000 0.000000
0.941772 0.000000 0.000000
0.995911 0.000000 0.000000
1.000000 0.000000 0.000000
1.000000 0.000000 0.000000
1.000000 0.000000 0.000000
1.000000 0.000000 0.000000
1.000000 0.000000 0.000000
1.000000 0.000000 0.000000
1.000000 0.000000 0.000000
1.000000 0.000000 0.000000
1.000000 0.000000 0.000000
1.000000 0.000000 0.000000
1.000000 0.000000 0.000000
1.000000 0.000000 0.000000
1.000000 0.000000 0.000000
1.000000 0.000000 0.000000
1.000000 0.000000 0.000000
0.065034 0.100282 0.115846
0.065034 0.100282 0.115846
0.065034 0.100282 0.115846
0.080934 0.099641 0.116152
0.118471 0.095369 0.117800
0.160159 0.086152 0.120485
0.215732 0.043763 0.126131
0.285161 0.000000 0.124269
0.365606 0.000000 0.112551
0.452552 0.000000 0.108003
0.544121 0.000000 0.100252
0.637049 0.000000 0.087984
0.723507 0.000000 0.051667
0.801358 0.000000 0.002289
0.871794 0.000000 0.000000
0.933135 0.000000 0.000000
0.988006 0.000000 0.000000
1.000000 0.000000 0.000000
1.000000 0.000000 0.000000
1.000000 0.000000 0.000000
1.000000 0.000000 0.000000
1.000000 0.000000 0.000000
1.000000 0.000000 0.000000
1.000000 0.000000 0.000000
1.000000 0.000000 0.000000
1.000000 0.000000 0.000000
1.000000 0.000000 0.000000
1.000000 0.000000 0.000000
1.000000 0.000000 0.000000
1.000000 0.000000 0.000000
1.000000 0.000000 0.000000
1.000000 0.000000 0.000000
0.065034 0.100282 0.115846
0.065034 0.100282 0.115846
0.065034 0.100282 0.115846
0.085695 0.099336 0.116426
0.120516 0.095064 0.117800
0.161715 0.085756 0.117281
0.216068 0.049348 0.114870
0.282506 0.000000 0.113313
0.359289 0.000000 0.110292
0.445014 0.000000 0.104921
0.536034 0.000000 0.096132
0.628504 0.000000 0.079347
0.714778 0.000000 0.036805
0.792935 0.000000 0.000000
0.863554 0.000000 0.000000
0.925811 0.000000 0.000000
0.981140 0.000000 0.000000
1.000000 0.000000 0.000000
1.000000 0.000000 0.000000
1.000000 0.000000 0.000000
1.000000 0.000000 0.000000
1.000000 0.000000 0.000000
1.000000 0.000000 0.000000
1.000000 0.000000 0.000000
1.000000 0.000000 0.000000
1.000000 0.000000 0.000000
1.000000 0.000000 0.000000
1.000000 0.000000 0.000000
1.000000 0.000000 0.000000
1.000000 0.000000 0.000000
1.000000 0.000000 0.000000
1.000000 0.000000 0.000000
0.055055 0.106203 0.115816
0.055055 0.106203 0.115816
0.052216 0.107637 0.115663
0.079744 0.105898 0.118379
0.109743 0.109468 0.120150
0.154086 0.107912 0.116732
0.212833 0.101381 0.111940
0.277775 0.090486 0.109285
0.353429 0.044526 0.104860
0.438056 0.000000 0.097810
0.528405 0.000000 0.085847
0.620050 0.000000 0.050965
0.705928 0.000000 0.004547
0.783841 0.000000 0.000000
0.854582 0.000000 0.000000
0.916503 0.000000 0.000000
0.971954 0.000000 0.000000
1.000000 0.000000 0.000000
1.000000 0.000000 0.000000
1.000000 0.000000 0.000000
1.000000 0.000000 0.000000
1.000000 0.000000 0.000000
1.000000 0.000000 0.000000
1.000000 0.000000 0.000000
1.000000 0.000000 0.000000
1.000000 0.000000 0.000000
1.000000 0.000000 0.000000
1.000000 0.000000 0.000000
1.000000 0.000000 0.000000
1.000000 0.000000 0.000000
1.000000 0.000000 0.000000
1.000000 0.000000 0.000000
0.006256 0.127352 0.114351
0.006256 0.127352 0.114351
0.022339 0.127230 0.113375
0.078126 0.125704 0.115145
0.099275 0.120302 0.123445
0.122560 0.126986 0.131380
0.170565 0.133516 0.129397
0.240604 0.137484 0.121248
0.324010 0.136751 0.110262
0.415564 0.129458 0.094545
0.512230 0.109560 0.057221
0.604486 0.044617 0.008301
0.691035 0.000000 0.000000
0.770138 0.000000 0.000000
0.841489 0.000000 0.000000
0.905821 0.000000 0.000000
0.962737 0.000000 0.000000
1.000000 0.000000 0.000000
1.000000 0.000000 0.000000
1.000000 0.000000 0.000000
1.000000 0.000000 0.000000
1.000000 0.000000 0.000000
1.000000 0.000000 0.000000
1.000000 0.000000 0.000000
1.000000 0.000000 0.000000
1.000000 0.000000 0.000000
1.000000 0.000000 0.000000
1.000000 0.000000 0.000000
1.000000 0.000000 0.000000
1.000000 0.000000 0.000000
1.000000 0.000000 0.000000
1.000000 0.000000 0.000000
0.000000 0.152529 0.109682
0.000000 0.152529 0.109957
0.000000 0.151919 0.110231
0.049500 0.151217 0.110994
0.101900 0.144839 0.117891
0.118349 0.137819 0.128939
0.149020 0.147494 0.137942
0.189242 0.159670 0.146792
0.271885 0.173648 0.134768
0.364691 0.184756 0.119753
0.465095 0.190646 0.098543
0.567193 0.188998 0.041993
0.664454 0.178164 0.000000
0.751461 0.155550 0.000000
0.828946 0.119417 0.000000
0.898131 0.000000 0.000000
0.961273 0.000000 0.000000
1.000000 0.000000 0.000000
1.000000 0.000000 0.000000
1.000000 0.000000 0.000000
1.000000 0.000000 0.000000
1.000000 0.000000 0.000000
1.000000 0.000000 0.000000
1.000000 0.000000 0.000000
1.000000 0.000000 0.000000
1.000000 0.000000 0.000000
1.000000 0.000000 0.000000
1.000000 0.000000 0.000000
1.000000 0.000000 0.000000
1.000000 0.000000 0.000000
1.000000 0.000000 0.000000
1.000000 0.000000 0.000000
0.000000 0.196445 0.100099
0.000000 0.196353 0.100099
0.000000 0.195682 0.100740
0.000000 0.194553 0.101320
0.100465 0.188571 0.107637
0.133211 0.176303 0.120302
0.149294 0.165652 0.134951
0.192020 0.182223 0.145693
0.244663 0.200290 0.156466
0.320806 0.222782 0.159396
0.429786 0.244572 0.137789
0.541863 0.259220 0.108095
0.647242 0.264286 0.035920
0.739895 0.259312 0.000000
0.821225 0.246433 0.000000
0.892393 0.226902 0.000000
0.968353 0.203922 0.000000
1.000000 0.171725 0.000000
1.000000 0.123659 0.000000
1.000000 0.000000 0.000000
1.000000 0.000000 0.000000
1.000000 0.000000 0.000000
1.000000 0.000000 0.000000
1.000000 0.000000 0.000000
1.000000 0.000000 0.000000
1.000000 0.000000 0.000000
1.000000 0.000000 0.000000
1.000000 0.000000 0.000000
1.000000 0.000000 0.000000
1.000000 0.000000 0.000000
1.000000 0.000000 0.000000
1.000000 0.000000 0.000000
0.000000 0.242344 0.079042
0.000000 0.242130 0.079103
0.000000 0.241855 0.079408
0.000000 0.240391 0.080812
0.085786 0.236698 0.088167
0.137606 0.223880 0.104128
0.165713 0.208347 0.120729
0.181857 0.195926 0.138491
0.232944 0.217258 0.150942
0.293004 0.240299 0.163943
0.363806 0.266331 0.182498
0.468330 0.293736 0.173220
0.583581 0.313024 0.143923
0.686580 0.320592 0.106844
0.775601 0.318700 0.016083
0.863005 0.314031 0.000000
0.939513 0.301640 0.000000
1.000000 0.284611 0.000000
1.000000 0.263035 0.000000
1.000000 0.237186 0.000000
1.000000 0.207126 0.000000
1.000000 0.171145 0.000000
1.000000 0.122042 0.000000
1.000000 0.000000 0.000000
1.000000 0.000000 0.000000
1.000000 0.000000 0.000000
1.000000 0.000000 0.000000
1.000000 0.000000 0.000000
1.000000 0.000000 0.000000
1.000000 0.000000 0.000000
1.000000 0.000000 0.000000
1.000000 0.000000 0.000000
0.000000 0.298131 0.000000
0.000000 0.297917 0.000000
0.000000 0.297429 0.000000
0.000000 0.295964 0.001434
0.021668 0.294133 0.003143
0.138033 0.281743 0.051301
0.180209 0.265629 0.095094
0.205386 0.247288 0.118257
0.222141 0.233402 0.141024
0.280522 0.258946 0.156710
0.349126 0.286839 0.173495
0.425605 0.316350 0.196811
0.508659 0.345983 0.226291
0.624933 0.367071 0.200168
0.734463 0.380346 0.177035
0.828397 0.382696 0.150484
0.906920 0.376898 0.118532
0.974731 0.365820 0.054780
1.000000 0.351232 0.000000
1.000000 0.333043 0.000000
1.000000 0.312627 0.000000
1.000000 0.289647 0.000000
1.000000 0.264012 0.000000
1.000000 0.235355 0.000000
1.000000 0.200717 0.000000
1.000000 0.156527 0.000000
1.000000 0.079622 0.000000
1.000000 0.000000 0.000000
1.000000 0.000000 0.000000
1.000000 0.000000 0.000000
1.000000 0.000000 0.000000
1.000000 0.000000 0.000000
0.000000 0.362493 0.000000
0.000000 0.362097 0.000000
0.000000 0.360967 0.000000
0.000000 0.359625 0.000000
0.000000 0.357092 0.000000
0.131930 0.347326 0.000000
0.190311 0.330968 0.000000
0.227726 0.312505 0.066865
0.250614 0.291691 0.111818
0.268193 0.276402 0.142947
0.332586 0.304540 0.163760
0.406439 0.335363 0.185031
0.490700 0.368872 0.215732
0.580072 0.403204 0.257572
0.676020 0.430152 0.280125
0.778286 0.440925 0.261570
0.864805 0.442176 0.243229
0.938933 0.436591 0.223850
1.000000 0.427131 0.204135
1.000000 0.414435 0.183291
1.000000 0.399023 0.161044
1.000000 0.379828 0.131533
1.000000 0.358862 0.092897
1.000000 0.335485 0.000000
1.000000 0.309758 0.000000
1.000000 0.280339 0.000000
1.000000 0.248295 0.000000
1.000000 0.209964 0.000000
1.000000 0.162478 0.000000
1.000000 0.081575 0.000000
1.000000 0.000000 0.000000
1.000000 0.000000 0.000000
0.000000 0.428321 0.000000
0.000000 0.428107 0.000000
0.000000 0.427405 0.000000
0.000000 0.426276 0.000000
0.000000 0.424292 0.000000
0.108003 0.419257 0.000000
0.196201 0.403601 0.000000
0.246860 0.385687 0.000000
0.281712 0.365515 0.000000
0.304417 0.342809 0.100740
0.324956 0.328313 0.144747
0.400275 0.362982 0.175601
0.485512 0.399176 0.206668
0.571069 0.432074 0.247562
0.650813 0.460792 0.297185
0.721859 0.487373 0.352026
0.811124 0.499733 0.351324
0.892088 0.500542 0.336156
0.962280 0.496193 0.321294
1.000000 0.487282 0.305913
1.000000 0.475166 0.290990
1.000000 0.460609 0.276463
1.000000 0.444556 0.262181
1.000000 0.424750 0.243748
1.000000 0.403143 0.222873
1.000000 0.378943 0.196536
1.000000 0.352667 0.163210
1.000000 0.323583 0.114260
1.000000 0.291264 0.000000
1.000000 0.254826 0.000000
1.000000 0.211002 0.000000
1.000000 0.152743 0.000000
0.000000 0.501427 0.000000
0.000000 0.501366 0.000000
0.000000 0.500755 0.000000
0.000000 0.499794 0.000000
0.000000 0.498177 0.000000
0.000000 0.496132 0.000000
0.189853 0.484382 0.000000
0.260624 0.467750 0.000000
0.312230 0.450874 0.000000
0.351232 0.432776 0.000000
0.378088 0.411688 0.069459
0.402960 0.397650 0.150576
0.534661 0.472206 0.216861
0.621820 0.504540 0.270268
0.698970 0.530816 0.329870
0.767147 0.554955 0.391699
0.824521 0.578271 0.452644
0.880583 0.598505 0.496376
0.953887 0.597803 0.482734
1.000000 0.591699 0.469673
1.000000 0.581109 0.456275
1.000000 0.567864 0.443488
1.000000 0.552392 0.430457
1.000000 0.535729 0.417517
1.000000 0.516655 0.402197
1.000000 0.494118 0.382544
1.000000 0.469764 0.360174
1.000000 0.443122 0.334234
1.000000 0.414435 0.304875
1.000000 0.382788 0.270024
1.000000 0.347723 0.227268
1.000000 0.308293 0.171328
0.000000 0.593439 0.000000
0.000000 0.593225 0.000000
0.000000 0.592889 0.000000
0.000000 0.592187 0.000000
0.000000 0.591180 0.000000
0.000000 0.590204 0.000000
0.180362 0.585748 0.000000
0.281315 0.573449 0.000000
0.351141 0.558923 0.000000
0.406073 0.542504 0.000000
0.449561 0.524102 0.000000
0.481788 0.503655 0.012390
0.512932 0.490730 0.173434
0.590448 0.518181 0.244907
0.672541 0.547601 0.305943
0.743496 0.571435 0.368566
0.803616 0.592706 0.430396
0.854215 0.613794 0.488045
0.899016 0.635889 0.540307
0.956023 0.643458 0.549432
1.000000 0.638880 0.538079
1.000000 0.630640 0.527520
1.000000 0.619654 0.517449
1.000000 0.607019 0.507897
1.000000 0.592920 0.498085
1.000000 0.576532 0.486366
1.000000 0.557397 0.471626
1.000000 0.536339 0.454719
1.000000 0.513359 0.435462
1.000000 0.488808 0.414160
1.000000 0.461524 0.389075
1.000000 0.430518 0.358709
0.000000 0.667536 0.000000
0.000000 0.666987 0.000000
0.000000 0.665461 0.000000
0.000000 0.663478 0.000000
0.000000 0.660883 0.000000
0.000000 0.657618 0.000000
0.135775 0.654536 0.000000
0.272526 0.643549 0.000000
0.355352 0.629938 0.000000
0.420447 0.615137 0.000000
0.474067 0.598932 0.000000
0.518090 0.580743 0.000000
0.550774 0.560082 0.066346
0.580346 0.545434 0.202884
0.647395 0.564660 0.282719
0.720943 0.589105 0.346654
0.782956 0.608881 0.408759
0.835508 0.627527 0.467842
0.881987 0.647242 0.521904
0.922118 0.667048 0.569421
0.958801 0.684657 0.605646
1.000000 0.682399 0.596979
1.000000 0.676661 0.589441
1.000000 0.668513 0.582605
1.000000 0.658564 0.576104
1.000000 0.647272 0.569482
1.000000 0.634150 0.561547
1.000000 0.618280 0.551019
1.000000 0.601343 0.539605
1.000000 0.583276 0.527245
1.000000 0.563378 0.512749
1.000000 0.541009 0.495369
0.000000 0.726192 0.000000
0.000000 0.725887 0.000000
0.000000 0.724269 0.000000
0.000000 0.721920 0.000000
0.000000 0.718502 0.000000
0.000000 0.714626 0.000000
0.000000 0.710780 0.000000
0.251926 0.703944 0.000000
0.349432 0.691798 0.000000
0.423804 0.678553 0.000000
0.486000 0.664302 0.000000
0.538781 0.648463 0.000000
0.581781 0.630182 0.000000
0.613184 0.609461 0.130434
0.640253 0.593133 0.241367
0.697902 0.606043 0.324132
0.763699 0.626764 0.388861
0.818112 0.643702 0.449165
0.866117 0.661280 0.505058
0.907958 0.679133 0.554559
0.943877 0.697047 0.597772
0.973907 0.715175 0.636103
1.000000 0.722164 0.647639
1.000000 0.718410 0.642084
1.000000 0.712245 0.637140
1.000000 0.704463 0.632593
1.000000 0.696101 0.628840
1.000000 0.685969 0.623957
1.000000 0.674372 0.618280
1.000000 0.662379 0.612604
1.000000 0.649561 0.606378
1.000000 0.635523 0.599054
0.000000 0.772335 0.000000
0.000000 0.772366 0.000000
0.000000 0.771511 0.000000
0.000000 0.770138 0.000000
0.000000 0.767849 0.000000
0.000000 0.765286 0.000000
0.000000 0.762661 0.000000
0.221103 0.760098 0.000000
0.338079 0.750607 0.000000
0.422461 0.739193 0.000000
0.491859 0.726131 0.000000
0.551171 0.710933 0.000000
0.600458 0.693660 0.000000
0.639521 0.673579 0.000000
0.667353 0.650782 0.183108
0.690150 0.632502 0.281468
0.739620 0.640955 0.364019
0.798154 0.658625 0.427985
0.848173 0.674647 0.485786
0.892454 0.691310 0.538079
0.931060 0.708400 0.584344
0.963684 0.725612 0.625299
0.990021 0.742794 0.661769
1.000000 0.758907 0.692226
1.000000 0.757259 0.688746
1.000000 0.753353 0.685908
1.000000 0.748287 0.683864
1.000000 0.742672 0.682338
1.000000 0.734951 0.679561
1.000000 0.726558 0.676692
1.000000 0.717403 0.673396
1.000000 0.707515 0.669734
0.000000 0.812802 0.000000
0.000000 0.812619 0.000000
0.000000 0.811978 0.000000
0.000000 0.810849 0.000000
0.000000 0.809171 0.000000
0.000000 0.807065 0.000000
0.000000 0.804654 0.000000
0.169100 0.802121 0.000000
0.314611 0.796323 0.000000
0.407813 0.785946 0.000000
0.483772 0.774075 0.000000
0.548577 0.760555 0.000000
0.604364 0.745235 0.000000
0.650904 0.727840 0.000000
0.687984 0.708309 0.144656
0.714900 0.686641 0.235172
0.736019 0.668818 0.325200
0.778347 0.674067 0.406683
0.832364 0.690730 0.469215
0.878386 0.706050 0.523613
0.919097 0.721950 0.572320
0.953704 0.737972 0.615290
0.981933 0.753964 0.653468
1.000000 0.770047 0.687861
1.000000 0.785824 0.718044
1.000000 0.792355 0.729152
1.000000 0.790555 0.728084
1.000000 0.787686 0.727687
1.000000 0.784237 0.727718
1.000000 0.779019 0.726802
1.000000 0.773220 0.725887
1.000000 0.766964 0.724880
0.000000 0.852171 0.000000
0.000000 0.852445 0.000000
0.000000 0.876158 0.000000
0.000000 0.875151 0.000000
0.000000 0.873625 0.000000
0.000000 0.871458 0.000000
0.000000 0.868803 0.000000
0.114382 0.865843 0.000000
0.304753 0.862669 0.000000
0.409766 0.853422 0.000000
0.493294 0.842710 0.000000
0.564446 0.830350 0.000000
0.626062 0.815793 0.000000
0.678706 0.799191 0.000000
0.722164 0.780331 0.162875
0.756130 0.759579 0.248631
0.780087 0.737148 0.315618
0.797604 0.718532 0.396185
0.832029 0.720516 0.471809
0.879362 0.734890 0.528069
0.918914 0.747829 0.575586
0.952850 0.761257 0.618189
0.980468 0.774746 0.656123
1.000000 0.788266 0.690028
1.000000 0.801389 0.719509
1.000000 0.814725 0.746151
1.000000 0.827451 0.768948
1.000000 0.826383 0.767941
1.000000 0.824887 0.768185
1.000000 0.822416 0.768429
1.000000 0.819089 0.768582
1.000000 0.815244 0.768826
0.000000 0.892851 0.000000
0.000000 0.894743 0.000000
0.000000 0.896391 0.000000
0.000000 0.897459 0.000000
0.000000 0.897520 0.000000
0.000000 0.896208 0.000000
0.000000 0.894102 0.000000
0.000000 0.891264 0.000000
0.260349 0.888304 0.000000
0.378668 0.882231 0.000000
0.468208 0.872953 0.000000
0.543511 0.862303 0.000000
0.609552 0.849668 0.000000
0.666529 0.835508 0.000000
0.715908 0.819364 0.112490
0.756924 0.801511 0.225528
0.789212 0.782132 0.294011
0.812650 0.761990 0.359808
0.830076 0.745449 0.436896
0.861601 0.747616 0.509209
0.905486 0.761593 0.562036
0.941863 0.774350 0.607172
0.971557 0.786893 0.647150
0.995026 0.799313 0.682826
1.000000 0.811368 0.713710
1.000000 0.823484 0.741421
1.000000 0.836332 0.767208
1.000000 0.849912 0.791409
1.000000 0.855802 0.800748
1.000000 0.856077 0.802060
1.000000 0.855100 0.803128
1.000000 0.853483 0.804349
0.000000 0.917540 0.000000
0.000000 0.919219 0.000000
0.000000 0.920775 0.000000
0.000000 0.921813 0.000000
0.000000 0.921935 0.000000
0.000000 0.920928 0.000000
0.000000 0.919036 0.000000
0.000000 0.916564 0.000000
0.209812 0.913756 0.000000
0.345922 0.910246 0.000000
0.442359 0.902251 0.000000
0.522454 0.893004 0.000000
0.592004 0.882414 0.000000
0.653529 0.870329 0.000000
0.707546 0.856809 0.000000
0.754208 0.841703 0.207034
0.793240 0.825010 0.283848
0.824338 0.807523 0.350713
0.847379 0.789303 0.409400
0.864042 0.774533 0.481666
0.891752 0.775845 0.548272
0.930907 0.788510 0.596612
0.962615 0.800198 0.638636
0.987762 0.811551 0.676112
1.000000 0.822507 0.708461
1.000000 0.833494 0.737301
1.000000 0.845151 0.764004
1.000000 0.857664 0.788998
1.000000 0.870939 0.812406
1.000000 0.882811 0.831296
1.000000 0.884001 0.832975
1.000000 0.884245 0.834653
0.000000 0.940429 0.000000
0.000000 0.941802 0.000000
0.000000 0.942931 0.000000
0.000000 0.943664 0.000000
0.000000 0.943694 0.000000
0.000000 0.942748 0.000000
0.000000 0.941161 0.000000
0.000000 0.938994 0.000000
0.136141 0.936461 0.000000
0.308995 0.933562 0.000000
0.413275 0.928130 0.000000
0.498085 0.920317 0.000000
0.571649 0.911223 0.000000
0.636530 0.901061 0.000000
0.694545 0.889708 0.000000
0.746029 0.877195 0.190524
0.791135 0.863859 0.277012
0.829465 0.849821 0.348669
0.860899 0.835508 0.412787
0.885161 0.820890 0.467659
0.902647 0.809110 0.535485
0.927459 0.810788 0.596887
0.960357 0.821866 0.641108
0.986358 0.832639 0.680659
1.000000 0.842863 0.714717
1.000000 0.852964 0.744869
1.000000 0.863737 0.772702
1.000000 0.875273 0.798337
1.000000 0.887480 0.822049
1.000000 0.899809 0.843717
1.000000 0.911711 0.863249
1.000000 0.913848 0.867002
0.000000 0.968383 0.000000
0.000000 0.968811 0.000000
0.000000 0.968902 0.000000
0.000000 0.968566 0.000000
0.000000 0.967834 0.000000
0.000000 0.966491 0.000000
0.000000 0.964843 0.000000
0.000000 0.962799 0.000000
0.000000 0.960540 0.000000
0.272160 0.957977 0.000000
0.384894 0.954711 0.000000
0.475319 0.948119 0.000000
0.552026 0.940642 0.000000
0.620569 0.932067 0.000000
0.682155 0.922484 0.000000
0.737484 0.911925 0.193118
0.786435 0.900542 0.282231
0.829343 0.888579 0.357763
0.865690 0.876188 0.422583
0.895476 0.863371 0.477302
0.918395 0.850278 0.523552
0.933837 0.839048 0.582635
0.953277 0.838560 0.636286
0.979248 0.846586 0.675013
1.000000 0.855222 0.709957
1.000000 0.864103 0.741299
1.000000 0.873838 0.770413
1.000000 0.884459 0.797208
1.000000 0.895750 0.821775
1.000000 0.907195 0.844022
1.000000 0.918334 0.863981
1.000000 0.920348 0.869383
0.000000 0.984985 0.000000
0.000000 0.985290 0.000000
0.000000 0.985382 0.000000
0.000000 0.985107 0.000000
0.000000 0.984436 0.000000
0.000000 0.983398 0.000000
0.000000 0.981903 0.000000
0.000000 0.980163 0.000000
0.000000 0.978180 0.000000
0.223423 0.975860 0.000000
0.349615 0.973297 0.000000
0.444739 0.968597 0.000000
0.526085 0.962188 0.000000
0.597528 0.955047 0.000000
0.662196 0.946990 0.000000
0.720302 0.938262 0.177798
0.773098 0.928801 0.279973
0.819852 0.918975 0.364691
0.860716 0.908721 0.431800
0.895415 0.898192 0.487495
0.923919 0.887510 0.534539
0.946288 0.876707 0.575006
0.960327 0.866880 0.628046
0.975647 0.865660 0.676631
0.992981 0.866941 0.703456
1.000000 0.874266 0.735470
1.000000 0.882902 0.765927
1.000000 0.892454 0.793912
1.000000 0.902831 0.819516
1.000000 0.913542 0.842741
1.000000 0.924346 0.863798
1.000000 0.925048 0.868162
0.000000 1.000000 0.000000
0.000000 1.000000 0.000000
0.000000 1.000000 0.000000
0.000000 1.000000 0.000000
0.000000 1.000000 0.000000
0.000000 1.000000 0.000000
0.000000 0.998962 0.000000
0.000000 0.996918 0.000000
0.000000 0.994629 0.000000
0.153689 0.992126 0.000000
0.310002 0.989319 0.000000
0.410163 0.985809 0.000000
0.495674 0.979919 0.000000
0.570031 0.973297 0.000000
0.636225 0.965942 0.000000
0.696620 0.957916 0.117922
0.751675 0.949401 0.270237
0.801358 0.940581 0.359411
0.845579 0.931670 0.429175
0.884154 0.922759 0.487221
0.916960 0.913909 0.536248
0.943877 0.904936 0.577874
0.964965 0.895720 0.613825
0.977111 0.886534 0.661982
0.989075 0.884062 0.704707
1.000000 0.887968 0.734401
1.000000 0.894072 0.763912
1.000000 0.901976 0.792203
1.000000 0.910918 0.818235
1.000000 0.920653 0.842100
1.000000 0.930663 0.863767
1.000000 0.929900 0.866911
0.000000 1.000000 0.000000
0.000000 1.000000 0.000000
0.000000 1.000000 0.000000
0.000000 1.000000 0.000000
0.000000 1.000000 0.000000
0.000000 1.000000 0.000000
0.000000 1.000000 0.000000
0.000000 1.000000 0.000000
0.000000 1.000000 0.000000
0.000000 1.000000 0.000000
0.265232 1.000000 0.000000
0.373877 1.000000 0.000000
0.463844 0.997436 0.000000
0.542260 0.991760 0.000000
0.611872 0.985351 0.000000
0.675227 0.978393 0.137942
0.733364 0.970855 0.285863
0.785824 0.963073 0.374517
0.832914 0.955200 0.444373
0.874205 0.947478 0.502068
0.909911 0.939849 0.550652
0.940002 0.932372 0.592401
0.964660 0.924956 0.628717
0.984070 0.917571 0.660700
0.994537 0.909575 0.703731
1.000000 0.907195 0.742580
1.000000 0.910399 0.770138
1.000000 0.915892 0.797147
1.000000 0.923796 0.823850
1.000000 0.932372 0.847959
1.000000 0.939422 0.864408
1.000000 0.934936 0.865568
0.000000 1.000000 0.000000
0.000000 1.000000 0.000000
0.000000 1.000000 0.000000
0.000000 1.000000 0.000000
0.000000 1.000000 0.000000
0.000000 1.000000 0.000000
0.000000 1.000000 0.000000
0.000000 1.000000 0.000000
0.000000 1.000000 0.000000
0.000000 1.000000 0.000000
0.201785 1.000000 0.000000
0.332311 1.000000 0.000000
0.425208 1.000000 0.000000
0.508934 1.000000 0.000000
0.582971 1.000000 0.000000
0.650294 0.995056 0.147433
0.711482 0.988281 0.295048
0.767056 0.981231 0.385382
0.816861 0.974151 0.455940
0.860655 0.967224 0.513756
0.898680 0.960510 0.562463
0.931182 0.953979 0.604303
0.958312 0.947570 0.640833
0.980407 0.941314 0.672602
0.997742 0.935119 0.700282
1.000000 0.928069 0.739681
1.000000 0.926085 0.776120
1.000000 0.928710 0.800778
1.000000 0.933745 0.825254
1.000000 0.941314 0.849943
1.000000 0.944976 0.862943
1.000000 0.940185 0.864195
0.000000 1.000000 0.000000
0.000000 1.000000 0.000000
0.000000 1.000000 0.000000
0.000000 1.000000 0.000000
0.000000 1.000000 0.000000
0.000000 1.000000 0.000000
0.000000 1.000000 0.000000
0.000000 1.000000 0.000000
0.000000 1.000000 0.000000
0.000000 1.000000 0.000000
0.089204 1.000000 0.000000
0.288792 1.000000 0.000000
0.390539 1.000000 0.000000
0.479683 1.000000 0.000000
0.561456 1.000000 0.000000
0.634516 1.000000 0.231205
0.700099 1.000000 0.350256
0.759060 1.000000 0.434363
0.811002 0.996155 0.500603
0.856413 0.990112 0.554986
0.895628 0.984344 0.601251
0.929290 0.978820 0.641627
0.957397 0.973571 0.676265
0.980499 0.968597 0.706691
0.998901 0.963897 0.734157
1.000000 0.959472 0.759426
1.000000 0.954314 0.795743
1.000000 0.953124 0.827512
1.000000 0.955016 0.847288
1.000000 0.956115 0.859953
1.000000 0.950713 0.861387
1.000000 0.945617 0.862760
0.000000 1.000000 0.000000
0.000000 1.000000 0.000000
0.000000 1.000000 0.000000
0.000000 1.000000 0.000000
0.000000 1.000000 0.000000
0.000000 1.000000 0.000000
0.000000 1.000000 0.000000
0.000000 1.000000 0.000000
0.000000 1.000000 0.000000
0.000000 1.000000 0.000000
0.000000 1.000000 0.000000
0.234592 1.000000 0.000000
0.352697 1.000000 0.000000
0.438941 1.000000 0.000000
