20 Preset/Human Style/【3】LUT video cho PR-AE-FCPX/Joe-Allam/JA – Static Pop 2.cube
# Created by Adobe Lightroom plugin Export LUT (1.24.0)
# www.johnrellis.com/lightroom/exportlut.htm
# Preset: JA – Static Pop 2
# Color profile: E:\lut插件\exportlut.1.24\exportlut.lrplugin\color profiles\Rec709gamma2.4.icc
LUT_3D_SIZE 5
DOMAIN_MIN 0.000000 0.000000 0.000000
DOMAIN_MAX 0.903226 0.903226 0.903226
0.093263 0.097353 0.100832
0.221073 0.047852 0.101808
0.674861 0.000000 0.000000
1.000000 0.053040 0.000000
1.000000 0.180789 0.000000
0.032471 0.191012 0.086885
0.217472 0.197452 0.078676
0.654475 0.287297 0.000000
1.000000 0.309056 0.000000
1.000000 0.310765 0.000000
0.000000 0.592218 0.000000
0.296788 0.584710 0.000000
0.669581 0.581109 0.000000
1.000000 0.591028 0.000000
1.000000 0.542687 0.090730
0.196536 0.880613 0.260288
0.377539 0.879362 0.265934
0.675044 0.863035 0.235355
0.947356 0.819608 0.101991
1.000000 0.775143 0.341375
0.574487 1.000000 0.584161
0.611780 1.000000 0.586358
0.716304 0.998413 0.560601
0.895628 0.990631 0.543450
1.000000 0.968231 0.513848
0.075288 0.107698 0.161990
0.158145 0.081392 0.173251
0.586938 0.000000 0.190707
0.995727 0.000000 0.122927
1.000000 0.000000 0.143160
0.000000 0.171786 0.181216
0.168215 0.175814 0.182040
0.594415 0.179873 0.149722
0.989654 0.211612 0.110140
1.000000 0.263645 0.159640
0.000000 0.549432 0.195193
0.136538 0.550256 0.192660
0.603296 0.532555 0.136446
0.978729 0.558648 0.157321
1.000000 0.536614 0.262882
0.139345 0.870970 0.384070
0.356634 0.870909 0.388952
0.661585 0.858305 0.372930
0.932738 0.813626 0.283574
1.000000 0.777218 0.417304
0.582452 1.000000 0.621942
0.616724 1.000000 0.622461
0.740719 1.000000 0.631586
0.899290 0.993774 0.603174
1.000000 0.973632 0.570764
0.000000 0.151186 0.506401
0.000000 0.134279 0.508629
0.476112 0.000000 0.505730
0.939086 0.000000 0.550317
1.000000 0.000000 0.500084
0.000000 0.292912 0.516289
0.000000 0.266056 0.519219
0.483101 0.099275 0.511192
0.931060 0.000000 0.535088
1.000000 0.252934 0.497627
0.000000 0.541924 0.565850
0.000000 0.537346 0.558953
0.500084 0.508324 0.519799
0.916503 0.516075 0.514183
1.000000 0.547082 0.535180
0.000000 0.847990 0.605463
0.000000 0.839628 0.600763
0.603082 0.835416 0.612055
0.883360 0.801297 0.550652
1.000000 0.789364 0.609094
0.578668 0.997955 0.720607
0.614710 0.997498 0.722988
0.733272 0.994720 0.729274
0.883360 0.987671 0.711482
1.000000 0.969177 0.659785
0.000000 0.307530 0.824094
0.000000 0.308598 0.825284
0.343694 0.163668 0.823056
0.787106 0.000000 0.803830
1.000000 0.271366 0.790219
0.000000 0.413855 0.822812
0.000000 0.413245 0.822477
0.373541 0.329686 0.821530
0.779263 0.000000 0.795315
1.000000 0.377356 0.787472
0.000000 0.626917 0.827420
0.313207 0.637964 0.825193
0.573114 0.649042 0.817807
0.776913 0.496040 0.785702
1.000000 0.594049 0.787015
0.000000 0.827909 0.843687
0.000000 0.825071 0.839719
0.551873 0.820218 0.830167
0.785336 0.775692 0.779446
1.000000 0.795499 0.791348
0.000000 1.000000 0.809934
0.303197 1.000000 0.813321
0.640711 0.992615 0.832639
0.869596 0.984283 0.858946
1.000000 0.969451 0.807218
0.343969 0.564874 0.977356
0.342931 0.564385 0.977203
0.371710 0.515557 0.981140
0.613825 0.291234 0.989715
0.974792 0.000000 0.983551
0.342199 0.564050 0.977081
0.342535 0.564630 0.977020
0.426734 0.557092 0.978912
0.633539 0.406165 0.985992
0.973388 0.141573 0.980987
0.520226 0.712062 0.968841
0.523919 0.715602 0.968109
0.621881 0.731258 0.968933
0.722957 0.663661 0.974670
0.971679 0.510704 0.974792
0.447639 0.816495 0.971923
0.461036 0.816251 0.971435
0.676143 0.842741 0.968017
0.858427 0.880034 0.967987
0.972839 0.783780 0.968994
0.000000 0.961822 0.979004
0.255802 0.962615 0.978729
0.598352 0.966278 0.978210
0.839414 0.972351 0.977844
0.970703 0.964508 0.963775
