20 Preset/Human Style/【3】LUT video cho PR-AE-FCPX/Joe-Allam/JA – Cine Night 3.cube
# Created by Adobe Lightroom plugin Export LUT (1.24.0)
# www.johnrellis.com/lightroom/exportlut.htm
# Preset: JA – Cine Night 3
# Color profile: E:\lut插件\exportlut.1.24\exportlut.lrplugin\color profiles\Rec709gamma2.4.icc
LUT_3D_SIZE 5
DOMAIN_MIN 0.000000 0.000000 0.000000
DOMAIN_MAX 0.903226 0.903226 0.903226
0.002106 0.025910 0.056245
0.137667 0.046815 0.081209
0.524987 0.000000 0.104707
0.912963 0.000000 0.140597
1.000000 0.000000 0.220859
0.000000 0.144656 0.118349
0.141604 0.159731 0.119997
0.572534 0.085145 0.121614
0.920104 0.000000 0.156832
1.000000 0.209018 0.240208
0.000000 0.456794 0.178286
0.000000 0.457343 0.188876
0.639490 0.553338 0.167300
0.934386 0.565393 0.229557
1.000000 0.564599 0.312444
0.000000 0.778439 0.280552
0.210361 0.779751 0.292943
0.572351 0.797818 0.332128
0.874205 0.854582 0.383001
1.000000 0.834775 0.498177
0.472633 0.975006 0.537194
0.519371 0.974426 0.547143
0.648310 0.967712 0.569055
0.834440 0.972778 0.634119
1.000000 0.968170 0.709468
0.000000 0.061738 0.167544
0.074617 0.070802 0.189853
0.454444 0.000000 0.226535
0.864073 0.000000 0.256016
1.000000 0.000000 0.304936
0.000000 0.144991 0.211978
0.081331 0.156466 0.225467
0.510582 0.092897 0.243503
0.878569 0.000000 0.270085
1.000000 0.210605 0.318212
0.000000 0.450507 0.258213
0.000000 0.454536 0.265415
0.599725 0.517998 0.275334
0.901518 0.543053 0.328679
1.000000 0.571862 0.389380
0.000000 0.776577 0.340093
0.181003 0.778561 0.351476
0.564508 0.791806 0.391821
0.863523 0.850523 0.445594
1.000000 0.839139 0.552850
0.462409 0.974365 0.560632
0.509972 0.973632 0.569207
0.655879 0.971954 0.607843
0.835447 0.973816 0.665705
0.998444 0.969024 0.741238
0.000000 0.099794 0.342107
0.000000 0.102235 0.366857
0.415839 0.000000 0.434455
0.781918 0.000000 0.461158
1.000000 0.131807 0.498543
0.000000 0.160800 0.362646
0.000000 0.164736 0.391272
0.456519 0.138308 0.454932
0.797330 0.127321 0.474372
1.000000 0.303349 0.511681
0.000000 0.421820 0.453651
0.000000 0.436133 0.463386
0.528374 0.486854 0.502251
0.826139 0.529534 0.530297
1.000000 0.597162 0.570642
0.000000 0.767208 0.502098
0.000000 0.766812 0.504204
0.528313 0.779110 0.542992
0.826474 0.838956 0.613092
1.000000 0.850248 0.692744
0.336889 0.971283 0.619471
0.425116 0.971099 0.632288
0.614069 0.970062 0.666407
0.815091 0.970031 0.725338
0.985687 0.968475 0.801663
0.000000 0.141756 0.529961
0.000000 0.144045 0.549004
0.354009 0.104768 0.624231
0.767971 0.000000 0.697871
0.952850 0.302678 0.685054
0.000000 0.191592 0.537011
0.000000 0.193210 0.558648
0.369238 0.196078 0.629175
0.768154 0.208927 0.700649
0.946044 0.374578 0.686580
0.000000 0.353033 0.558038
0.000000 0.357519 0.563348
0.395422 0.415747 0.635248
0.760708 0.509117 0.715785
0.949035 0.585382 0.721492
0.000000 0.702876 0.676783
0.000000 0.706722 0.680446
0.380041 0.730831 0.702876
0.747616 0.795743 0.762264
0.977142 0.829374 0.798093
0.000000 0.972625 0.737789
0.000000 0.972137 0.739925
0.388159 0.971740 0.753353
0.768948 0.967498 0.817288
0.964446 0.968750 0.896635
0.000000 0.236973 0.777218
0.000000 0.238285 0.785672
0.353826 0.242130 0.823728
0.714412 0.293431 0.888151
0.956237 0.413397 0.921202
0.000000 0.271092 0.772183
0.000000 0.272160 0.782101
0.346319 0.284733 0.819760
0.708431 0.346868 0.884459
0.950866 0.460761 0.919860
0.000000 0.383734 0.751980
0.000000 0.385565 0.761654
0.274418 0.410895 0.808713
0.683162 0.500816 0.877012
0.937469 0.615991 0.924590
0.000000 0.622553 0.805661
0.000000 0.616938 0.803922
0.000000 0.599664 0.802823
0.606867 0.672877 0.861418
0.927245 0.812436 0.943847
0.000000 0.935210 0.909148
0.000000 0.934966 0.909636
0.000000 0.936950 0.915435
0.538384 0.941894 0.927031
0.932006 0.961517 0.963409
