20 Preset/Human Style/【3】LUT video cho PR-AE-FCPX/Joe-Allam/JA – Controlled Contrast 3.cube
# Created by Adobe Lightroom plugin Export LUT (1.24.0)
# www.johnrellis.com/lightroom/exportlut.htm
# Preset: JA – Controlled Contrast 3
# Color profile: E:\lut插件\exportlut.1.24\exportlut.lrplugin\color profiles\Rec709gamma2.4.icc
LUT_3D_SIZE 32
DOMAIN_MIN 0.0 0.0 0.0
DOMAIN_MAX 1.0 1.0 1.0
0.079744 0.065095 0.057282
0.079744 0.065095 0.057282
0.079744 0.065095 0.057282
0.079744 0.065095 0.057282
0.079744 0.065095 0.057282
0.079744 0.065095 0.057282
0.079744 0.065095 0.057282
0.082216 0.064637 0.057252
0.101411 0.059266 0.057069
0.133394 0.045411 0.057679
0.189029 0.007874 0.057404
0.264988 0.000000 0.055451
0.345495 0.000000 0.052796
0.413703 0.000000 0.051637
0.462165 0.000000 0.046723
0.498634 0.000000 0.047028
0.531701 0.000000 0.043946
0.567803 0.000000 0.017548
0.609430 0.000000 0.000061
0.656214 0.000000 0.000000
0.705959 0.000000 0.000000
0.756130 0.000000 0.000000
0.810117 0.000000 0.000000
0.878416 0.000000 0.000000
0.930816 0.000000 0.000000
0.968811 0.000000 0.000000
0.997070 0.000000 0.015900
1.000000 0.000000 0.102907
1.000000 0.000000 0.146304
1.000000 0.000000 0.187045
1.000000 0.000000 0.227390
1.000000 0.000000 0.263554
0.079744 0.065095 0.057282
0.079744 0.065095 0.057282
0.079744 0.065095 0.057282
0.079744 0.065095 0.057282
0.079744 0.065095 0.057282
0.079744 0.065095 0.057282
0.079744 0.065095 0.057282
0.080995 0.064851 0.057282
0.099519 0.059937 0.057099
0.128603 0.047883 0.056641
0.180545 0.014801 0.056550
0.253727 0.000000 0.054871
0.333532 0.000000 0.053620
0.404425 0.000000 0.050233
0.455207 0.000000 0.048615
0.492897 0.000000 0.045472
0.526085 0.000000 0.045838
0.561334 0.000000 0.019104
0.601862 0.000000 0.002197
0.647730 0.000000 0.000000
0.696315 0.000000 0.000000
0.745846 0.000000 0.000000
0.799252 0.000000 0.000000
0.864988 0.000000 0.000000
0.917693 0.000000 0.000000
0.957549 0.000000 0.000000
0.987579 0.000000 0.000000
1.000000 0.000000 0.078706
1.000000 0.000000 0.128481
1.000000 0.000000 0.170474
1.000000 0.000000 0.212589
1.000000 0.000000 0.251621
0.079744 0.065095 0.057282
0.079744 0.065095 0.057282
0.079744 0.065095 0.057282
0.079744 0.065095 0.057282
0.079744 0.065095 0.057282
0.079744 0.065095 0.057282
0.079744 0.065095 0.057282
0.080995 0.064851 0.057282
0.098878 0.060182 0.057099
0.127138 0.048554 0.057801
0.177066 0.017487 0.057771
0.248142 0.000000 0.056275
0.327459 0.000000 0.054047
0.398871 0.000000 0.050721
0.450935 0.000000 0.046784
0.489326 0.000000 0.048157
0.522606 0.000000 0.036072
0.556939 0.000000 0.017121
0.596857 0.000000 0.000244
0.642206 0.000000 0.000000
0.690913 0.000000 0.000000
0.740383 0.000000 0.000000
0.795163 0.000000 0.000000
0.859007 0.000000 0.000000
0.911284 0.000000 0.000000
0.951385 0.000000 0.000000
0.982238 0.000000 0.000000
1.000000 0.000000 0.053407
1.000000 0.000000 0.119356
1.000000 0.000000 0.162448
1.000000 0.000000 0.204898
1.000000 0.000000 0.244846
0.079744 0.065095 0.057282
0.079744 0.065095 0.057282
0.079744 0.065095 0.057282
0.079744 0.065095 0.057282
0.079744 0.065095 0.057282
0.079744 0.065095 0.057282
0.079744 0.065095 0.057282
0.082216 0.064637 0.057252
0.100160 0.059724 0.057069
0.128115 0.048096 0.056641
0.177066 0.017487 0.057771
0.247074 0.000000 0.055177
0.324590 0.000000 0.054231
0.395575 0.000000 0.051026
0.447547 0.000000 0.051698
0.485847 0.000000 0.042908
0.518120 0.000000 0.024659
0.550805 0.000000 0.011139
0.589349 0.000000 0.000000
0.633204 0.000000 0.000000
0.680568 0.000000 0.000000
0.729427 0.000000 0.000000
0.786465 0.000000 0.000000
0.847959 0.000000 0.000000
0.901396 0.000000 0.000000
0.944121 0.000000 0.000000
0.977417 0.000000 0.000000
1.000000 0.000000 0.037690
1.000000 0.000000 0.115175
1.000000 0.000000 0.159762
1.000000 0.000000 0.201083
1.000000 0.000000 0.240604
0.079744 0.065095 0.057282
0.079744 0.065095 0.057282
0.079744 0.065095 0.057282
0.079744 0.065095 0.057282
0.079744 0.065095 0.057282
0.079744 0.065095 0.057282
0.079744 0.065095 0.057282
0.083467 0.064424 0.057252
0.100771 0.059510 0.057069
0.128603 0.047883 0.056641
0.175631 0.018585 0.056672
0.242954 0.000000 0.057649
0.319402 0.000000 0.055726
0.390600 0.000000 0.051453
0.443702 0.000000 0.036805
0.482490 0.000000 0.026123
0.514733 0.000000 0.013489
0.547509 0.000000 0.000061
0.585992 0.000000 0.000000
0.629419 0.000000 0.000000
0.676783 0.000000 0.000000
0.725521 0.000000 0.000000
0.785519 0.000000 0.000000
0.845182 0.000000 0.000000
0.897978 0.000000 0.000000
0.940978 0.000000 0.000000
0.974456 0.000000 0.000000
1.000000 0.000000 0.028687
1.000000 0.000000 0.112764
1.000000 0.000000 0.156619
1.000000 0.000000 0.197665
1.000000 0.000000 0.236820
0.079744 0.065095 0.057282
0.079744 0.065095 0.057282
0.079744 0.065095 0.057282
0.079744 0.065095 0.057282
0.079744 0.065095 0.057282
0.079744 0.065095 0.057282
0.079744 0.065095 0.057282
0.088197 0.063539 0.057221
0.105165 0.057923 0.057008
0.134768 0.044739 0.056519
0.184024 0.014313 0.054994
0.251835 0.000000 0.051026
0.326604 0.000000 0.043091
0.394812 0.000000 0.032013
0.445106 0.000000 0.018494
0.482551 0.000000 0.006439
0.514641 0.000000 0.000000
0.548119 0.000000 0.000000
0.587366 0.000000 0.000000
0.631312 0.000000 0.000000
0.678767 0.000000 0.000000
0.730709 0.000000 0.000000
0.862730 0.000000 0.000000
0.920745 0.000000 0.000000
0.962158 0.000000 0.000000
0.991882 0.000000 0.016114
1.000000 0.000000 0.112215
1.000000 0.000000 0.156802
1.000000 0.000000 0.196323
1.000000 0.000000 0.231815
1.000000 0.000000 0.262486
1.000000 0.000000 0.288060
0.077882 0.069886 0.056672
0.077882 0.069886 0.056672
0.077882 0.069886 0.056672
0.077882 0.069886 0.056672
0.077180 0.071107 0.056519
0.078340 0.072084 0.056367
0.084871 0.073152 0.056031
0.098116 0.078981 0.054505
0.122133 0.080079 0.052644
0.163760 0.080690 0.048402
0.225223 0.075532 0.039979
0.298253 0.054994 0.025971
0.368475 0.014221 0.008881
0.423651 0.000000 0.000000
0.463996 0.000000 0.000000
0.496681 0.000000 0.000000
0.528222 0.000000 0.000000
0.563897 0.000000 0.000000
0.605737 0.000000 0.000000
0.653132 0.000000 0.000000
0.703944 0.000000 0.000000
0.772671 0.000000 0.000000
0.842618 0.000000 0.000000
0.903777 0.000000 0.000000
0.949950 0.000000 0.000000
0.982300 0.000000 0.000000
1.000000 0.000000 0.098512
1.000000 0.000000 0.145418
1.000000 0.000000 0.185763
1.000000 0.000000 0.221286
1.000000 0.000000 0.252659
1.000000 0.000000 0.279393
0.065766 0.089937 0.054047
0.065766 0.089937 0.054047
0.065064 0.090394 0.053895
0.065064 0.090394 0.053895
0.064363 0.090822 0.053742
0.074861 0.091218 0.053407
0.089174 0.091127 0.053010
0.101961 0.094942 0.049744
0.127871 0.102144 0.044892
0.173831 0.112093 0.035462
0.237583 0.123781 0.018830
0.306859 0.132235 0.000000
0.371893 0.134829 0.000000
0.422736 0.130739 0.000000
0.461250 0.121035 0.000000
0.493172 0.108919 0.000000
0.524437 0.095552 0.000000
0.560052 0.074037 0.000000
0.602014 0.000000 0.000000
0.648646 0.000000 0.000000
0.707515 0.000000 0.000000
0.774411 0.000000 0.000000
0.839231 0.000000 0.000000
0.897276 0.000000 0.000000
0.942412 0.000000 0.000000
0.974823 0.000000 0.000000
0.999573 0.000000 0.086397
1.000000 0.000000 0.139040
1.000000 0.000000 0.179751
1.000000 0.000000 0.215732
1.000000 0.000000 0.247257
1.000000 0.000000 0.274235
0.029480 0.114900 0.046235
0.028779 0.115236 0.046082
0.028779 0.115236 0.046082
0.036713 0.114992 0.046052
0.050904 0.115175 0.046815
0.078401 0.115236 0.046265
0.096712 0.114931 0.045624
0.114473 0.120241 0.040589
0.140291 0.128847 0.031281
0.183017 0.144533 0.015045
0.246586 0.164645 0.000000
0.316442 0.181888 0.000000
0.379583 0.190188 0.000000
0.425299 0.189822 0.000000
0.461189 0.184268 0.000000
0.492317 0.176394 0.000000
0.523796 0.168887 0.000000
0.560327 0.158907 0.000000
0.602533 0.146120 0.000000
0.655543 0.131411 0.000000
0.716732 0.111543 0.000000
0.778897 0.051759 0.000000
0.839658 0.000000 0.000000
0.894316 0.000000 0.000000
0.937530 0.000000 0.000000
0.969299 0.000000 0.000000
0.993957 0.000000 0.079438
1.000000 0.000000 0.138125
1.000000 0.000000 0.178592
1.000000 0.000000 0.214725
1.000000 0.083589 0.245335
1.000000 0.136385 0.271977
0.000000 0.157717 0.026368
0.000000 0.157443 0.026520
0.000000 0.156893 0.026795
0.014588 0.156893 0.026398
0.051057 0.155978 0.026398
0.090089 0.155184 0.027161
0.111391 0.154879 0.026123
0.134646 0.159640 0.019409
0.164004 0.169558 0.004639
0.200656 0.182010 0.000000
0.249577 0.198856 0.000000
0.316075 0.220981 0.000000
0.374762 0.232853 0.000000
0.422065 0.234806 0.000000
0.460090 0.231662 0.000000
0.491585 0.225132 0.000000
0.524834 0.218112 0.000000
0.563134 0.211337 0.000000
0.614130 0.208194 0.000000
0.669734 0.204013 0.000000
0.727016 0.196506 0.000000
0.783474 0.185702 0.000000
0.838254 0.171145 0.000000
0.887572 0.152773 0.000000
0.927916 0.133303 0.000000
0.959197 0.112947 0.000000
0.984222 0.102998 0.042176
1.000000 0.107454 0.127138
1.000000 0.127565 0.171511
1.000000 0.154177 0.209018
1.000000 0.179873 0.241489
1.000000 0.202213 0.268956
0.000000 0.208438 0.000000
0.000000 0.208225 0.000000
0.000000 0.208469 0.000000
0.019654 0.208011 0.000000
0.076417 0.207797 0.000000
0.109224 0.207370 0.000000
0.135561 0.207004 0.000000
0.162631 0.210971 0.000000
0.193606 0.220920 0.000000
0.230442 0.232456 0.000000
0.271733 0.245457 0.000000
0.317327 0.257328 0.000000
0.373419 0.271550 0.000000
0.417273 0.274327 0.000000
0.454719 0.271153 0.000000
0.489784 0.266056 0.000000
0.530877 0.263279 0.000000
0.576776 0.262669 0.000000
0.626795 0.262058 0.000000
0.679591 0.260685 0.000000
0.733181 0.257694 0.000000
0.786282 0.252537 0.000000
0.838193 0.246433 0.000000
0.884977 0.237980 0.000000
0.923705 0.228946 0.000000
0.954009 0.220737 0.000000
0.978759 0.215610 0.047120
1.000000 0.215396 0.130648
1.000000 0.221134 0.174868
1.000000 0.231815 0.211612
1.000000 0.244419 0.242741
1.000000 0.256626 0.268986
0.003174 0.266392 0.000000
0.011139 0.266331 0.000000
0.033814 0.266484 0.000000
0.082612 0.266270 0.000000
0.111177 0.265995 0.000000
0.137636 0.265629 0.000000
0.166049 0.265446 0.000000
0.194247 0.267521 0.000000
0.225162 0.275547 0.000000
0.259220 0.284642 0.000000
0.296666 0.293950 0.000000
0.335851 0.303136 0.000000
0.395666 0.326482 0.000000
0.435950 0.327337 0.000000
0.477668 0.327733 0.000000
0.525048 0.330358 0.000000
0.580041 0.336004 0.000000
0.640497 0.342473 0.000000
0.698482 0.346166 0.000000
0.752071 0.346715 0.000000
0.803586 0.345586 0.000000
0.850980 0.342535 0.000000
0.891844 0.337255 0.000000
0.925475 0.331029 0.000000
0.952270 0.324773 0.000000
0.974640 0.319463 0.115908
0.993744 0.316014 0.160067
1.000000 0.314031 0.194156
1.000000 0.313939 0.222690
1.000000 0.315373 0.247349
1.000000 0.318059 0.269322
1.000000 0.321721 0.289677
0.114199 0.330724 0.000000
0.115816 0.330480 0.000000
0.124056 0.329625 0.000000
0.137575 0.328740 0.000000
0.156222 0.327214 0.000000
0.178042 0.325628 0.000000
0.202609 0.324010 0.000000
0.228244 0.324376 0.000000
0.254734 0.328923 0.000000
0.284642 0.334447 0.000000
0.317388 0.340734 0.000000
0.356664 0.350988 0.000000
0.397925 0.360845 0.000000
0.433509 0.362463 0.000000
0.475685 0.365667 0.000000
0.522515 0.369726 0.000000
0.574731 0.376287 0.000000
0.630793 0.383185 0.000000
0.689326 0.389349 0.000000
0.747860 0.393744 0.000000
0.796078 0.393133 0.000000
0.840970 0.390631 0.000000
0.880552 0.386328 0.000000
0.913939 0.380652 0.000000
0.941161 0.374273 0.000000
0.964202 0.368353 0.110201
0.984192 0.363745 0.155764
1.000000 0.360266 0.191379
1.000000 0.358434 0.220890
1.000000 0.357885 0.246128
1.000000 0.358343 0.267979
1.000000 0.359838 0.288060
0.142702 0.362036 0.000000
0.144656 0.361700 0.000000
0.151156 0.360937 0.000000
0.160678 0.360174 0.000000
0.175692 0.358923 0.000000
0.195315 0.357977 0.000000
0.217838 0.357824 0.000000
0.243015 0.357946 0.000000
0.268040 0.362005 0.000000
0.295567 0.367407 0.000000
0.325902 0.373632 0.000000
0.359594 0.380682 0.000000
0.396185 0.388373 0.000000
0.434913 0.396460 0.000000
0.469001 0.397162 0.000000
0.514305 0.403693 0.000000
0.564538 0.410925 0.000000
0.617823 0.418738 0.000000
0.673518 0.426307 0.000000
0.729549 0.432319 0.000000
0.784756 0.436591 0.000000
0.834592 0.437293 0.000000
0.872831 0.433295 0.000000
0.905547 0.428046 0.000000
0.932616 0.421790 0.000000
0.955871 0.415351 0.114046
0.976257 0.409705 0.160159
0.994537 0.404883 0.194339
1.000000 0.401190 0.222629
1.000000 0.398688 0.246647
1.000000 0.397345 0.268162
1.000000 0.397345 0.287785
0.179232 0.395697 0.000000
0.180148 0.395514 0.000000
0.184298 0.394934 0.000000
0.191806 0.394018 0.000000
0.203922 0.392798 0.000000
0.219577 0.391516 0.000000
0.238560 0.390448 0.000000
0.260258 0.389532 0.000000
0.282719 0.390906 0.000000
0.305913 0.394934 0.000000
0.332708 0.400214 0.000000
0.362921 0.406928 0.000000
0.396338 0.414740 0.000000
0.432685 0.423346 0.000000
0.471931 0.432441 0.000000
0.506554 0.434455 0.000000
0.551720 0.441505 0.000000
0.603937 0.450935 0.000000
0.657588 0.459846 0.000000
0.711910 0.467597 0.000000
0.766110 0.473701 0.000000
0.818265 0.477668 0.000000
0.864073 0.477699 0.000000
0.898009 0.472847 0.000000
0.924620 0.466102 0.000000
0.947906 0.459236 0.121157
0.968750 0.452918 0.166323
0.987793 0.447242 0.199466
1.000000 0.442725 0.226871
1.000000 0.439460 0.251347
1.000000 0.437415 0.272953
1.000000 0.437018 0.293156
0.215763 0.424598 0.000000
0.216434 0.424659 0.000000
0.219821 0.424262 0.000000
0.226047 0.423651 0.000000
0.235569 0.422705 0.000000
0.248417 0.421912 0.007691
0.264347 0.421210 0.019928
0.283421 0.420722 0.040436
0.304509 0.420661 0.068757
0.324773 0.425208 0.044007
0.347845 0.430610 0.017090
0.374182 0.437079 0.000000
0.403388 0.444343 0.000000
0.435462 0.451972 0.000000
0.470130 0.459846 0.000000
0.507469 0.467689 0.000000
0.541558 0.469856 0.000000
0.584436 0.475624 0.000000
0.637995 0.487190 0.000000
0.691798 0.497169 0.000000
0.746120 0.506065 0.000000
0.799130 0.512840 0.000000
0.846464 0.515648 0.000000
0.886290 0.514122 0.000000
0.918242 0.509361 0.052949
0.941772 0.502251 0.138430
0.962951 0.495338 0.177249
0.982361 0.488808 0.208194
1.000000 0.482979 0.233860
1.000000 0.478187 0.255619
1.000000 0.474647 0.275944
1.000000 0.472755 0.294865
0.251255 0.455024 0.120912
0.251957 0.454902 0.120394
0.254337 0.454597 0.120516
0.258976 0.454108 0.121553
0.266819 0.453376 0.123110
0.277775 0.452491 0.125643
0.291142 0.451759 0.129610
0.307347 0.451270 0.134707
0.325628 0.451087 0.142580
0.344121 0.453651 0.141878
0.364233 0.459266 0.135439
0.387243 0.465888 0.125643
0.413153 0.473213 0.112367
0.441993 0.480842 0.089998
0.473213 0.488746 0.021271
0.507225 0.496468 0.000000
0.543786 0.504173 0.000000
0.578363 0.507439 0.000000
0.620081 0.512810 0.000000
0.673274 0.525017 0.000000
0.727382 0.536065 0.000000
0.780636 0.545312 0.000000
0.829068 0.550317 0.000000
0.870329 0.550713 0.000000
0.904204 0.547204 0.094118
0.933196 0.541863 0.150698
0.957031 0.535058 0.186801
0.976928 0.527764 0.215427
0.996002 0.521080 0.239567
1.000000 0.515587 0.260655
1.000000 0.511437 0.280339
1.000000 0.508995 0.299351
0.288548 0.491310 0.175021
0.289586 0.491737 0.175570
0.318364 0.521599 0.208255
0.322362 0.521019 0.208377
0.328618 0.520256 0.209720
0.336797 0.519036 0.210391
0.347723 0.517784 0.212375
0.361059 0.516625 0.214572
0.376501 0.515984 0.217960
0.393744 0.516167 0.221317
0.411414 0.521996 0.216251
0.431861 0.528618 0.210147
0.454475 0.535149 0.201999
0.479896 0.541802 0.191531
0.507469 0.548211 0.177127
0.537194 0.554314 0.158694
0.569512 0.559960 0.132937
0.604150 0.565667 0.092836
0.637842 0.567620 0.000000
0.676234 0.569696 0.000000
0.727749 0.580255 0.000000
0.778927 0.589197 0.000000
0.824735 0.593500 0.000000
0.863584 0.592798 0.072450
0.895872 0.587854 0.133150
0.924071 0.581231 0.169986
0.949187 0.573602 0.198947
0.972198 0.565820 0.224552
0.991638 0.558129 0.245762
1.000000 0.551568 0.265446
1.000000 0.546899 0.284489
1.000000 0.544060 0.303624
0.328038 0.539422 0.220218
0.330541 0.542382 0.222263
0.334661 0.545342 0.225254
0.340124 0.547814 0.227451
0.347295 0.549248 0.229526
0.355352 0.549126 0.230808
0.365332 0.548058 0.232395
0.377081 0.546624 0.233616
0.391028 0.545647 0.236179
0.406653 0.544793 0.238895
0.423316 0.547692 0.237461
0.441566 0.553552 0.232578
0.462043 0.559594 0.225803
0.484871 0.565789 0.217807
0.510094 0.571923 0.207248
0.537621 0.577996 0.194949
0.567407 0.584009 0.178164
0.599878 0.590387 0.157626
0.635523 0.597101 0.129427
0.670405 0.601160 0.091859
0.707485 0.602899 0.000000
0.758206 0.613489 0.000000
0.805753 0.620417 0.000000
0.846342 0.621759 0.087953
0.880034 0.618189 0.134737
0.909453 0.612238 0.169436
0.935607 0.605097 0.197452
0.959625 0.597406 0.222507
0.982544 0.590417 0.245060
1.000000 0.584344 0.266361
1.000000 0.579431 0.285771
1.000000 0.576379 0.305394
0.348180 0.572869 0.238743
0.350652 0.576165 0.240848
0.354528 0.579339 0.242771
0.359625 0.582238 0.244572
0.366155 0.583886 0.246433
0.373541 0.584070 0.247562
0.383001 0.583032 0.248295
0.394049 0.581750 0.249699
0.407019 0.580468 0.251194
0.421576 0.579339 0.253361
0.437903 0.578759 0.254734
0.454749 0.583978 0.250523
0.473762 0.589532 0.244724
0.494972 0.595331 0.238285
0.518547 0.601251 0.229923
0.544030 0.607111 0.220249
0.571832 0.612970 0.208408
0.601984 0.618860 0.193759
0.634668 0.625360 0.176669
0.670283 0.632410 0.154299
0.705867 0.637140 0.128145
0.740291 0.637140 0.097780
0.786770 0.644923 0.008545
0.829252 0.648493 0.097932
0.864439 0.646448 0.136324
0.895079 0.641352 0.168063
0.922301 0.634760 0.195071
0.947173 0.627405 0.219455
0.970977 0.620478 0.242649
0.994903 0.614710 0.264591
1.000000 0.610834 0.286473
1.000000 0.608240 0.308293
0.366674 0.609369 0.252720
0.368566 0.612390 0.253758
0.371679 0.615412 0.255131
0.376287 0.618006 0.256626
0.382269 0.619501 0.257694
0.389624 0.619654 0.258579
0.398413 0.618921 0.259464
0.408911 0.617670 0.260441
0.421668 0.616449 0.261662
0.435615 0.615137 0.263157
0.451545 0.614038 0.264988
0.468086 0.616419 0.263523
0.485939 0.621424 0.258701
0.506188 0.626673 0.252720
0.528313 0.632349 0.246250
0.552819 0.638239 0.238285
0.579858 0.644831 0.229343
0.609461 0.651911 0.218631
0.641749 0.659815 0.207034
0.676875 0.668208 0.192386
0.714687 0.676844 0.176242
0.752346 0.683497 0.158297
0.783169 0.680385 0.147463
0.823301 0.683284 0.128756
0.859281 0.682338 0.159518
0.890654 0.678035 0.186648
0.918486 0.671778 0.211948
0.944060 0.664973 0.235660
0.968872 0.658747 0.258732
0.994446 0.654139 0.282231
1.000000 0.651728 0.306645
1.000000 0.651484 0.334997
0.392065 0.667140 0.268711
0.392981 0.668391 0.269017
0.394903 0.669184 0.269474
0.398230 0.669490 0.270054
0.403204 0.669032 0.270268
0.409857 0.667933 0.270787
0.418189 0.666499 0.271244
0.428595 0.664973 0.271885
0.440772 0.663691 0.272831
0.455238 0.662623 0.274052
0.471138 0.661707 0.275700
0.488441 0.661067 0.277134
0.505669 0.665461 0.272801
0.525109 0.670130 0.267704
0.546410 0.674830 0.261692
0.569482 0.679652 0.255009
0.594720 0.684657 0.247410
0.621912 0.689937 0.238834
0.651026 0.695369 0.229221
0.682307 0.701076 0.218051
0.715358 0.706813 0.205570
0.750423 0.712490 0.191257
0.785306 0.716426 0.175357
0.809781 0.708186 0.171054
0.842924 0.705928 0.158846
0.875975 0.703273 0.181521
0.905119 0.698116 0.206973
0.931823 0.692012 0.231205
0.957610 0.686275 0.255619
0.983825 0.682124 0.280278
1.000000 0.680079 0.306523
1.000000 0.680110 0.336278
0.407019 0.703639 0.277348
0.407721 0.704616 0.277806
0.409674 0.705318 0.278172
0.413123 0.705562 0.278660
0.417884 0.705318 0.279057
0.424262 0.704524 0.279393
0.432654 0.703304 0.279606
0.442908 0.702022 0.280217
0.454841 0.700954 0.281163
0.468940 0.699977 0.282383
0.484565 0.699062 0.283818
0.501732 0.698085 0.285527
0.519219 0.699763 0.284062
0.537469 0.703792 0.279759
0.557824 0.707820 0.274846
0.579736 0.712001 0.269108
0.603540 0.716335 0.262913
0.628962 0.720760 0.255863
0.656184 0.725216 0.248203
0.685054 0.729732 0.239994
0.715572 0.734188 0.230747
0.747494 0.738491 0.220584
0.780606 0.742428 0.208804
0.814237 0.745510 0.196445
0.828977 0.728756 0.186709
0.858183 0.724331 0.177584
0.889708 0.721035 0.196689
0.917571 0.715877 0.222324
0.944244 0.710689 0.247074
0.971221 0.706905 0.273442
0.999451 0.705440 0.302098
1.000000 0.706111 0.333349
0.428962 0.745754 0.296818
0.430213 0.747127 0.297948
0.432044 0.747616 0.298589
0.434882 0.747158 0.298558
0.438697 0.745968 0.298161
0.444221 0.744106 0.297429
0.451026 0.741939 0.296574
0.459937 0.739467 0.295933
0.470710 0.737087 0.295811
0.483253 0.734859 0.295933
0.497475 0.732509 0.296330
0.513298 0.730526 0.297368
0.530297 0.728634 0.298100
0.546624 0.730617 0.293767
0.564233 0.732509 0.288518
0.583703 0.734646 0.282689
0.604883 0.737118 0.276341
0.628046 0.740047 0.269993
0.652918 0.743557 0.263584
0.679744 0.747463 0.256809
0.708034 0.751431 0.249851
0.737575 0.755123 0.241947
0.767971 0.758236 0.232425
0.799100 0.760830 0.221469
0.831083 0.762783 0.207767
0.848966 0.750179 0.206760
0.875517 0.744076 0.199924
0.904356 0.739406 0.214145
0.931456 0.734401 0.239658
0.958862 0.730739 0.266148
0.987579 0.729427 0.295109
1.000000 0.730312 0.328099
0.443763 0.767819 0.314000
0.445136 0.768856 0.315404
0.447059 0.769467 0.316442
0.449958 0.769406 0.316808
0.453956 0.768917 0.316838
0.459388 0.768215 0.316930
0.466621 0.767330 0.317052
0.475746 0.766293 0.317052
0.486488 0.765377 0.317845
0.499123 0.764431 0.319005
0.513207 0.763272 0.320012
0.528832 0.762051 0.321477
0.545464 0.760525 0.322881
0.561547 0.760525 0.321202
0.577691 0.761746 0.316136
0.595300 0.763027 0.310704
0.614313 0.764492 0.304753
0.635157 0.766293 0.298741
0.657832 0.768643 0.292790
0.682216 0.771450 0.287480
0.708186 0.774411 0.281407
0.735409 0.777371 0.275090
0.763638 0.780117 0.267613
0.792844 0.782467 0.259220
0.822751 0.784360 0.249027
0.853635 0.785855 0.237247
0.870665 0.773281 0.235904
0.895628 0.766659 0.231144
0.924010 0.762448 0.243107
0.952514 0.759823 0.272190
0.982177 0.759426 0.303868
1.000000 0.760922 0.338079
0.468421 0.792691 0.347906
0.469337 0.793149 0.348913
0.470741 0.793271 0.349279
0.473030 0.793118 0.349645
0.476600 0.792599 0.349310
0.481270 0.791867 0.349035
0.487587 0.790982 0.348638
0.495460 0.790066 0.348730
0.505028 0.789090 0.349035
0.516381 0.788144 0.349767
0.529320 0.787076 0.350927
0.543664 0.785977 0.352148
0.559167 0.784756 0.353735
0.575402 0.783352 0.355016
0.589868 0.784237 0.350103
0.605554 0.785153 0.344671
0.622614 0.786160 0.339055
0.641444 0.787503 0.333318
0.661952 0.789303 0.327916
0.684138 0.791501 0.323003
0.707851 0.793912 0.317967
0.732570 0.796323 0.312566
0.758480 0.798459 0.306279
0.785275 0.800381 0.298619
0.812894 0.801938 0.289464
0.841489 0.803159 0.278660
0.871122 0.804227 0.266453
0.887419 0.791928 0.262974
0.912047 0.785672 0.258183
0.941833 0.783444 0.266880
0.972412 0.783749 0.300420
1.000000 0.785824 0.336645
0.493782 0.812314 0.384649
0.494667 0.812619 0.385809
0.496193 0.812833 0.386450
0.498573 0.812833 0.387060
0.502129 0.812802 0.387915
0.507286 0.812833 0.389288
0.514702 0.813199 0.392218
0.524010 0.813718 0.395819
0.535210 0.814450 0.400488
0.548028 0.815274 0.406256
0.562310 0.816098 0.412573
0.577539 0.816770 0.418982
0.593561 0.817136 0.424964
0.609888 0.817014 0.430365
0.624659 0.817685 0.431250
0.638300 0.818753 0.427649
0.652796 0.819760 0.423102
0.668727 0.820890 0.418280
0.686366 0.822324 0.413886
0.705440 0.824063 0.410071
0.725948 0.826047 0.406500
0.747768 0.828122 0.402045
0.770565 0.829984 0.396582
0.794491 0.831785 0.389899
0.819486 0.833341 0.381170
0.845609 0.834745 0.371221
0.873136 0.836118 0.359747
0.902037 0.837430 0.346715
0.919036 0.826719 0.339208
0.945525 0.822782 0.333135
0.978668 0.824094 0.338018
1.000000 0.827665 0.379614
0.549889 0.840940 0.467231
0.550134 0.840940 0.467323
0.550744 0.840787 0.467140
0.551965 0.840513 0.466835
0.554192 0.840177 0.466468
0.557519 0.839750 0.466255
0.562188 0.839322 0.466529
0.568353 0.838956 0.467384
0.576043 0.838651 0.469001
0.585199 0.838376 0.471199
0.595697 0.838102 0.474037
0.607416 0.837827 0.477424
0.620111 0.837400 0.480751
0.633509 0.836790 0.483894
