20 Preset/Human Style/【3】LUT video cho PR-AE-FCPX/Joe-Allam/JA – Static Pop 2.cube
# Created by Adobe Lightroom plugin Export LUT (1.24.0)
# www.johnrellis.com/lightroom/exportlut.htm
# Preset: JA – Static Pop 2
# Color profile: E:\lut插件\exportlut.1.24\exportlut.lrplugin\color profiles\Rec709gamma2.4.icc
LUT_3D_SIZE 32
DOMAIN_MIN 0.0 0.0 0.0
DOMAIN_MAX 1.0 1.0 1.0
0.093263 0.097353 0.100832
0.093263 0.097353 0.100832
0.093263 0.097353 0.100832
0.093263 0.097353 0.100832
0.114351 0.095064 0.101411
0.142550 0.090822 0.102235
0.176669 0.079957 0.104036
0.221073 0.047852 0.101808
0.273869 0.016663 0.101045
0.333989 0.000000 0.098146
0.398474 0.000000 0.092653
0.467140 0.000000 0.082765
0.537987 0.000000 0.056916
0.608484 0.000000 0.019532
0.674861 0.000000 0.000000
0.736049 0.000000 0.000000
0.793210 0.000000 0.000000
0.850614 0.000000 0.000000
0.921538 0.000000 0.000000
0.979370 0.000000 0.000000
1.000000 0.000000 0.000000
1.000000 0.053040 0.000000
1.000000 0.093690 0.000000
1.000000 0.114260 0.000000
1.000000 0.128481 0.000000
1.000000 0.141634 0.000000
1.000000 0.154116 0.000000
1.000000 0.166964 0.000000
1.000000 0.180789 0.000000
1.000000 0.197086 0.000000
1.000000 0.216129 0.000000
1.000000 0.239567 0.095949
0.093263 0.097353 0.100832
0.093263 0.097353 0.100832
0.093263 0.097353 0.100832
0.093263 0.097353 0.100832
0.114351 0.095064 0.101411
0.141695 0.091005 0.102602
0.174472 0.080323 0.103731
0.217258 0.054047 0.101778
0.268132 0.026886 0.101015
0.326421 0.000000 0.097902
0.389715 0.000000 0.093294
0.457435 0.000000 0.084474
0.527306 0.000000 0.059663
0.597375 0.000000 0.024659
0.664149 0.000000 0.000000
0.725917 0.000000 0.000000
0.783841 0.000000 0.000000
0.841825 0.000000 0.000000
0.911101 0.000000 0.000000
0.967803 0.000000 0.000000
1.000000 0.001160 0.000000
1.000000 0.055909 0.000000
1.000000 0.094087 0.000000
1.000000 0.111635 0.000000
1.000000 0.124910 0.000000
1.000000 0.138399 0.000000
1.000000 0.149905 0.000000
1.000000 0.162325 0.000000
1.000000 0.175418 0.000000
1.000000 0.190921 0.000000
1.000000 0.209506 0.000000
1.000000 0.232029 0.042756
0.093263 0.097353 0.100832
0.093263 0.097353 0.100832
0.093263 0.097353 0.100832
0.093965 0.097261 0.100832
0.115938 0.094850 0.101411
0.142550 0.090822 0.102235
0.174502 0.085298 0.101961
0.215122 0.076356 0.101289
0.264805 0.057221 0.099977
0.321874 0.035737 0.096925
0.384588 0.009155 0.092042
0.451392 0.000000 0.081727
0.520317 0.000000 0.056672
0.589868 0.000000 0.020630
0.656397 0.000000 0.000000
0.718502 0.000000 0.000000
0.776394 0.000000 0.000000
0.836881 0.000000 0.000000
0.904021 0.000000 0.000000
0.959930 0.023957 0.000000
1.000000 0.074830 0.000000
1.000000 0.099458 0.000000
1.000000 0.113466 0.000000
1.000000 0.127077 0.000000
1.000000 0.137697 0.000000
1.000000 0.147005 0.000000
1.000000 0.157015 0.000000
1.000000 0.168032 0.000000
1.000000 0.179812 0.000000
1.000000 0.194125 0.000000
1.000000 0.211032 0.000000
1.000000 0.232029 0.003754
0.092714 0.098177 0.100740
0.092622 0.098177 0.101106
0.092195 0.099001 0.100649
0.097383 0.099886 0.100771
0.118105 0.100557 0.100984
0.143313 0.100435 0.101381
0.174411 0.099977 0.100649
0.214633 0.098726 0.099947
0.263493 0.096437 0.098116
0.319890 0.092653 0.094606
0.381353 0.087221 0.088716
0.446876 0.080934 0.073304
0.514702 0.071870 0.045075
0.583154 0.066560 0.008301
0.648951 0.059602 0.000000
0.709987 0.072297 0.000000
0.767453 0.081819 0.000000
0.829465 0.094057 0.000000
0.892424 0.105074 0.000000
0.945800 0.116457 0.000000
0.992157 0.126284 0.000000
1.000000 0.135439 0.000000
1.000000 0.144289 0.000000
1.000000 0.151980 0.000000
1.000000 0.159640 0.000000
1.000000 0.167391 0.000000
1.000000 0.174777 0.000000
1.000000 0.183200 0.000000
1.000000 0.193149 0.000000
1.000000 0.205600 0.000000
1.000000 0.220096 0.000000
1.000000 0.238682 0.000000
0.080781 0.112886 0.100221
0.080781 0.112886 0.100221
0.082399 0.113436 0.100099
0.098085 0.114107 0.100130
0.117281 0.114534 0.100374
0.142275 0.116304 0.100130
0.173037 0.117494 0.099550
0.212009 0.119509 0.097993
0.259556 0.121614 0.095125
0.314092 0.124269 0.090639
0.373907 0.126253 0.081361
0.438148 0.128542 0.059236
0.504784 0.132265 0.027771
0.572869 0.135744 0.000000
0.638636 0.139925 0.000000
0.701106 0.143404 0.000000
0.759701 0.146731 0.000000
0.825711 0.154360 0.000000
0.886412 0.160769 0.000000
0.938689 0.166781 0.000000
0.984680 0.172152 0.000000
1.000000 0.177279 0.000000
1.000000 0.181003 0.000000
1.000000 0.185916 0.000000
1.000000 0.190738 0.000000
1.000000 0.194614 0.000000
1.000000 0.199405 0.000000
1.000000 0.205325 0.000000
1.000000 0.213169 0.000000
1.000000 0.222507 0.000000
1.000000 0.234287 0.000000
1.000000 0.249973 0.000000
0.055726 0.130556 0.098695
0.058991 0.130709 0.098634
0.078767 0.130709 0.098909
0.096498 0.131502 0.098848
0.116670 0.131807 0.098726
0.140230 0.132692 0.098634
0.173220 0.138186 0.097322
0.213504 0.144015 0.094270
0.260533 0.150362 0.089967
0.314305 0.156497 0.081819
0.373419 0.163088 0.062226
0.436866 0.169558 0.034424
0.503166 0.176761 0.000000
0.570611 0.183108 0.000000
0.636469 0.189364 0.000000
0.698970 0.194034 0.000000
0.759792 0.198825 0.000000
0.828428 0.205997 0.000000
0.887266 0.211154 0.000000
0.938628 0.214939 0.000000
0.984070 0.218173 0.000000
1.000000 0.220310 0.000000
1.000000 0.243168 0.000000
1.000000 0.244175 0.000000
1.000000 0.245670 0.000000
1.000000 0.248173 0.000000
1.000000 0.251591 0.000000
1.000000 0.256382 0.000000
1.000000 0.262852 0.000000
1.000000 0.271489 0.000000
1.000000 0.283482 0.024414
1.000000 0.298711 0.138430
0.043000 0.159518 0.094911
0.046265 0.159640 0.094850
0.072511 0.160067 0.094545
0.099184 0.160769 0.094392
0.122560 0.161257 0.094484
0.148592 0.161776 0.093904
0.177981 0.164370 0.093080
0.225620 0.177462 0.086030
0.277623 0.188754 0.071931
0.337163 0.201266 0.043793
0.398810 0.211978 0.012055
0.464759 0.222293 0.000000
0.531914 0.231449 0.000000
0.598566 0.239078 0.000000
0.662043 0.245029 0.000000
0.721370 0.249180 0.000000
0.792172 0.257664 0.000000
0.858549 0.263920 0.000000
0.915557 0.267796 0.000000
0.966979 0.270390 0.000000
1.000000 0.272068 0.000000
1.000000 0.272618 0.000000
1.000000 0.273289 0.000000
1.000000 0.274174 0.000000
1.000000 0.274907 0.000000
1.000000 0.276432 0.000000
1.000000 0.277775 0.000000
1.000000 0.280552 0.000000
1.000000 0.284977 0.000000
1.000000 0.290654 0.000000
1.000000 0.299138 0.000000
1.000000 0.311315 0.116548
0.032471 0.191012 0.086885
0.040406 0.190921 0.086854
0.069215 0.191531 0.086122
0.100862 0.192233 0.085634
0.127169 0.192844 0.084749
0.154971 0.193301 0.084901
0.183993 0.193484 0.083192
0.217472 0.197452 0.078676
0.272465 0.215610 0.049989
0.329900 0.230442 0.018341
0.393652 0.246067 0.000000
0.460609 0.260746 0.000000
0.526696 0.271580 0.000000
0.591791 0.280919 0.000000
0.654475 0.287297 0.000000
0.721614 0.295415 0.000000
0.790433 0.302678 0.000000
0.851408 0.307103 0.000000
0.905669 0.308721 0.000000
0.955596 0.309270 0.000000
1.000000 0.309453 0.000000
1.000000 0.309056 0.000000
1.000000 0.308598 0.000000
1.000000 0.307866 0.000000
1.000000 0.307713 0.000000
1.000000 0.307256 0.000000
1.000000 0.307439 0.000000
1.000000 0.308232 0.000000
1.000000 0.310765 0.000000
1.000000 0.314763 0.000000
1.000000 0.320836 0.000000
1.000000 0.330175 0.099214
0.007965 0.230259 0.071107
0.013764 0.230533 0.070619
0.049531 0.230808 0.068421
0.098543 0.231418 0.067262
0.130312 0.232456 0.064698
0.162081 0.232273 0.062837
0.194156 0.232273 0.059693
0.226322 0.232364 0.055238
0.263554 0.237156 0.042023
0.325444 0.258610 0.000000
0.387549 0.275853 0.000000
0.454536 0.292912 0.000000
0.524285 0.308721 0.000000
0.590692 0.320043 0.000000
0.660151 0.330541 0.000000
0.728817 0.339300 0.000000
0.791775 0.344793 0.000000
0.848783 0.347448 0.000000
0.900877 0.348302 0.000000
0.949401 0.348394 0.000000
0.994171 0.348058 0.000000
1.000000 0.346868 0.000000
1.000000 0.345220 0.000000
1.000000 0.343877 0.000000
1.000000 0.342229 0.000000
1.000000 0.340520 0.000000
1.000000 0.339361 0.000000
1.000000 0.338903 0.000000
1.000000 0.339757 0.000000
1.000000 0.342046 0.000000
1.000000 0.346380 0.000000
1.000000 0.353124 0.083803
0.000000 0.276646 0.031586
0.000000 0.276585 0.031525
0.004181 0.276646 0.031739
0.087587 0.277073 0.030335
0.128878 0.277684 0.027680
0.167025 0.277379 0.024231
0.203372 0.276280 0.020996
0.238712 0.275944 0.016327
0.273259 0.275547 0.009308
0.313878 0.280430 0.000000
0.379187 0.302861 0.000000
0.444373 0.320836 0.000000
0.512322 0.338018 0.000000
0.591302 0.358526 0.000000
0.666773 0.374395 0.000000
0.731319 0.382025 0.000000
0.792477 0.386847 0.000000
0.848508 0.389441 0.000000
0.899687 0.389654 0.000000
0.947265 0.389014 0.000000
0.990082 0.387549 0.000000
1.000000 0.384649 0.000000
1.000000 0.382055 0.000000
1.000000 0.378790 0.000000
1.000000 0.375738 0.000000
1.000000 0.372778 0.000000
1.000000 0.370275 0.000000
1.000000 0.368688 0.000000
1.000000 0.368475 0.000000
1.000000 0.369574 0.000000
1.000000 0.372412 0.000000
1.000000 0.377691 0.078431
0.000000 0.323980 0.000000
0.000000 0.324010 0.000000
0.000000 0.324529 0.000000
0.041474 0.324987 0.000000
0.121981 0.325933 0.000000
0.169253 0.326574 0.000000
0.210971 0.325902 0.000000
0.250584 0.325139 0.000000
0.288945 0.324681 0.000000
0.326818 0.323919 0.000000
0.370245 0.328832 0.000000
0.444831 0.356390 0.000000
0.518791 0.378698 0.000000
0.592462 0.397528 0.000000
0.663813 0.412177 0.000000
0.731197 0.423163 0.000000
0.793057 0.429450 0.000000
0.846952 0.430976 0.000000
0.896422 0.430549 0.000000
0.942412 0.429053 0.000000
0.984192 0.426215 0.000000
1.000000 0.422950 0.000000
1.000000 0.419409 0.000000
1.000000 0.415412 0.000000
1.000000 0.411566 0.000000
1.000000 0.407782 0.000000
1.000000 0.404486 0.000000
1.000000 0.401801 0.000000
1.000000 0.400153 0.000000
1.000000 0.400183 0.000000
1.000000 0.401892 0.000000
1.000000 0.405676 0.097871
0.000000 0.379400 0.000000
0.000000 0.379553 0.000000
0.000000 0.379767 0.000000
0.000000 0.380499 0.000000
0.109712 0.381659 0.000000
0.168093 0.383093 0.000000
0.217166 0.382574 0.000000
0.262364 0.381781 0.000000
0.305455 0.380621 0.000000
0.350744 0.383459 0.000000
0.396460 0.386969 0.000000
0.447913 0.394995 0.000000
0.579156 0.462898 0.000000
0.655085 0.480629 0.000000
0.725826 0.492866 0.000000
0.792111 0.501030 0.000000
0.851774 0.505028 0.000000
0.906004 0.506401 0.000000
0.951110 0.502464 0.000000
0.990875 0.496895 0.000000
1.000000 0.490303 0.000000
1.000000 0.483589 0.000000
1.000000 0.476631 0.000000
1.000000 0.470069 0.000000
1.000000 0.463874 0.000000
1.000000 0.457893 0.000000
1.000000 0.452644 0.000000
1.000000 0.448188 0.000000
1.000000 0.444892 0.000000
1.000000 0.443183 0.009003
1.000000 0.443397 0.120485
1.000000 0.446021 0.166812
0.000000 0.457496 0.000000
0.000000 0.457282 0.000000
0.000000 0.457008 0.000000
0.000000 0.456336 0.000000
0.079133 0.455909 0.000000
0.169650 0.459113 0.000000
0.231113 0.462135 0.000000
0.286412 0.463996 0.000000
0.338964 0.466011 0.000000
0.391119 0.469062 0.000000
0.443519 0.472724 0.000000
0.496223 0.476631 0.000000
0.554070 0.484596 0.000000
0.631312 0.506157 0.000000
0.704585 0.522240 0.000000
0.771267 0.532036 0.000000
0.831083 0.536767 0.000000
0.884764 0.538201 0.000000
0.933867 0.537499 0.000000
0.976196 0.533898 0.000000
1.000000 0.526696 0.000000
1.000000 0.519310 0.000000
1.000000 0.511894 0.000000
1.000000 0.504814 0.000000
1.000000 0.497810 0.000000
1.000000 0.491249 0.000000
1.000000 0.485298 0.000000
1.000000 0.480201 0.000000
1.000000 0.476051 0.000000
1.000000 0.473732 0.062348
1.000000 0.473030 0.134951
1.000000 0.474434 0.178439
0.000000 0.529198 0.000000
0.000000 0.528862 0.000000
0.000000 0.528038 0.000000
0.000000 0.527611 0.000000
0.000000 0.527337 0.000000
0.164157 0.527611 0.000000
0.234653 0.528740 0.000000
0.293889 0.527611 0.000000
0.349462 0.526970 0.000000
0.403113 0.527276 0.000000
0.455573 0.528862 0.000000
0.508659 0.530755 0.000000
0.560876 0.532097 0.000000
0.614954 0.535485 0.000000
0.684871 0.550866 0.000000
0.752224 0.562493 0.000000
0.811612 0.567773 0.000000
0.865263 0.569604 0.000000
0.914763 0.569390 0.000000
0.959106 0.566949 0.000000
0.998535 0.563226 0.000000
1.000000 0.556268 0.000000
1.000000 0.548455 0.000000
1.000000 0.540734 0.000000
1.000000 0.533349 0.000000
1.000000 0.526116 0.000000
1.000000 0.519493 0.000000
1.000000 0.513573 0.000000
1.000000 0.508751 0.000000
1.000000 0.505547 0.106630
1.000000 0.503960 0.154849
1.000000 0.504479 0.195468
0.000000 0.592218 0.000000
0.000000 0.591943 0.000000
0.000000 0.590875 0.000000
0.000000 0.589410 0.000000
0.000000 0.587701 0.000000
0.153811 0.586236 0.000000
0.232883 0.585840 0.000000
0.296788 0.584710 0.000000
0.354925 0.582971 0.000000
0.409644 0.582086 0.000000
0.463661 0.582177 0.000000
0.517021 0.582788 0.000000
0.569360 0.582879 0.000000
0.619257 0.581781 0.000000
0.669581 0.581109 0.000000
0.733059 0.591150 0.000000
0.794156 0.598627 0.000000
0.847929 0.601099 0.000000
0.897704 0.601190 0.000000
0.942596 0.599084 0.000000
0.982971 0.595483 0.000000
1.000000 0.591028 0.000000
1.000000 0.585443 0.000000
1.000000 0.577020 0.000000
1.000000 0.568902 0.000000
1.000000 0.561120 0.000000
1.000000 0.554070 0.000000
1.000000 0.547784 0.000000
1.000000 0.542687 0.090730
1.000000 0.539269 0.144350
1.000000 0.537713 0.186618
1.000000 0.538323 0.225437
0.000000 0.643793 0.000000
0.000000 0.644068 0.000000
0.000000 0.643580 0.000000
0.000000 0.642969 0.000000
0.000000 0.642145 0.000000
0.147341 0.641688 0.000000
0.233585 0.642054 0.000000
0.302068 0.643275 0.000000
0.362310 0.641718 0.000000
0.418982 0.640253 0.000000
0.473030 0.638575 0.000000
0.525750 0.636469 0.000000
0.576349 0.633692 0.000000
0.624659 0.629664 0.000000
0.670283 0.624292 0.000000
0.715206 0.619287 0.000000
0.771939 0.624414 0.000000
0.828183 0.629267 0.000000
0.878660 0.630304 0.000000
0.924804 0.629114 0.000000
0.966949 0.626551 0.000000
1.000000 0.622675 0.000000
1.000000 0.617975 0.000000
1.000000 0.612787 0.000000
1.000000 0.605585 0.000000
1.000000 0.597498 0.000000
1.000000 0.590051 0.000000
1.000000 0.583337 0.090120
1.000000 0.577630 0.141238
1.000000 0.573419 0.179599
1.000000 0.570764 0.213993
1.000000 0.570275 0.248905
0.000000 0.689479 0.000000
0.000000 0.689418 0.000000
0.000000 0.689082 0.000000
0.000000 0.688716 0.000000
0.000000 0.688289 0.000000
0.142611 0.687984 0.000000
0.231815 0.688106 0.000000
0.301793 0.688869 0.000000
0.363104 0.688136 0.000000
0.419196 0.686061 0.000000
0.474128 0.683650 0.000000
0.526299 0.681178 0.000000
0.577173 0.678004 0.000000
0.625666 0.673793 0.000000
0.671809 0.668360 0.000000
0.715633 0.661677 0.000000
0.757351 0.654444 0.000000
0.809079 0.656580 0.000000
0.862394 0.660060 0.000000
0.909209 0.659632 0.000000
0.952331 0.657527 0.000000
0.991516 0.654200 0.000000
1.000000 0.649836 0.000000
1.000000 0.644709 0.000000
1.000000 0.639185 0.000000
1.000000 0.633631 0.000000
1.000000 0.625849 0.099397
1.000000 0.618769 0.145724
1.000000 0.612696 0.181796
1.000000 0.608057 0.214267
1.000000 0.605005 0.245914
1.000000 0.603967 0.278202
0.000000 0.733944 0.000000
0.000000 0.734401 0.000000
0.000000 0.765988 0.000000
0.000000 0.765621 0.000000
0.069306 0.765133 0.000000
0.191318 0.764431 0.000000
0.266880 0.763760 0.000000
0.331243 0.763394 0.000000
0.391760 0.763119 0.000000
0.447181 0.760372 0.000000
0.500999 0.757290 0.000000
0.553002 0.753597 0.000000
0.603174 0.748775 0.000000
0.651392 0.742763 0.000000
0.697078 0.735531 0.000000
0.740505 0.727138 0.000000
0.781430 0.717556 0.000000
0.818692 0.706477 0.000000
0.864073 0.703395 0.000000
0.910796 0.702693 0.000000
0.951812 0.698787 0.000000
0.989593 0.694209 0.000000
1.000000 0.688746 0.000000
1.000000 0.682490 0.000000
1.000000 0.675593 0.000000
1.000000 0.668727 0.118257
1.000000 0.662135 0.161868
1.000000 0.655146 0.194888
1.000000 0.648096 0.221378
1.000000 0.642664 0.248844
1.000000 0.638972 0.277440
1.000000 0.637263 0.307439
0.000000 0.782925 0.000000
0.000000 0.785641 0.000000
0.000000 0.788388 0.000000
0.000000 0.790677 0.000000
0.113313 0.792172 0.000000
0.202853 0.792294 0.000000
0.270665 0.791867 0.000000
0.330816 0.791226 0.000000
0.388495 0.790921 0.000000
0.442115 0.788815 0.000000
0.493935 0.785702 0.000000
0.544152 0.782223 0.000000
0.593194 0.777646 0.000000
0.640314 0.772427 0.000000
0.685908 0.766049 0.000000
0.729793 0.758846 0.000000
0.771603 0.750912 0.000000
0.811948 0.742367 0.000000
0.848356 0.731716 0.000000
0.891234 0.728084 0.000000
0.935424 0.726772 0.000000
0.974609 0.723079 0.000000
1.000000 0.718166 0.000000
1.000000 0.712184 0.000000
1.000000 0.705531 0.092836
1.000000 0.698543 0.146578
1.000000 0.691737 0.185153
1.000000 0.685573 0.218662
1.000000 0.680507 0.250431
1.000000 0.674800 0.275975
1.000000 0.670558 0.302922
1.000000 0.668208 0.331395
0.000000 0.812650 0.096223
0.000000 0.815213 0.106020
0.000000 0.817868 0.118349
0.014405 0.820096 0.125887
0.159609 0.821530 0.132479
0.224491 0.821805 0.135744
0.283604 0.821378 0.135348
0.338201 0.820676 0.137942
0.391852 0.820066 0.140017
0.443549 0.819028 0.139559
0.492409 0.816007 0.127932
0.540520 0.812558 0.112825
0.587640 0.808499 0.094148
0.633845 0.803799 0.029969
0.678859 0.798367 0.000000
0.722469 0.792081 0.000000
0.764614 0.785061 0.000000
0.805325 0.777554 0.000000
0.844968 0.769680 0.000000
0.879698 0.758846 0.000000
0.918975 0.753536 0.000000
0.959808 0.751217 0.000000
0.996338 0.746944 0.000000
1.000000 0.741421 0.017121
1.000000 0.734890 0.129122
1.000000 0.727932 0.172763
1.000000 0.721004 0.206485
1.000000 0.714565 0.238071
1.000000 0.709194 0.268772
1.000000 0.705074 0.299535
1.000000 0.701991 0.329534
1.000000 0.698970 0.356390
0.000000 0.841611 0.172763
0.000000 0.843717 0.178866
0.089021 0.845823 0.183688
0.149996 0.847623 0.189792
0.202518 0.848753 0.194034
0.252506 0.848875 0.195712
0.301183 0.848539 0.197116
0.349798 0.847807 0.197665
0.398993 0.847227 0.199619
0.447883 0.846555 0.201999
0.493965 0.844358 0.197238
0.539391 0.841215 0.188724
0.584649 0.837522 0.177646
0.629145 0.833341 0.164401
0.672755 0.828702 0.147890
0.715938 0.823514 0.125917
0.758480 0.818173 0.099062
0.800229 0.812619 0.012757
0.841489 0.807034 0.000000
0.882231 0.801541 0.000000
0.916625 0.791592 0.000000
0.953735 0.785946 0.000000
0.991241 0.782559 0.086854
1.000000 0.777920 0.151705
1.000000 0.772030 0.195682
1.000000 0.765499 0.232151
1.000000 0.758816 0.262943
1.000000 0.752590 0.293187
1.000000 0.747402 0.322728
1.000000 0.743496 0.352544
1.000000 0.741146 0.383215
1.000000 0.740291 0.414374
0.196536 0.880613 0.260288
0.202579 0.881376 0.262821
0.215457 0.881834 0.264561
0.237003 0.881987 0.265446
0.266514 0.881743 0.265843
0.300053 0.881041 0.265812
0.337163 0.880217 0.265751
0.377539 0.879362 0.265934
0.420050 0.878569 0.267002
0.464424 0.877958 0.269139
0.508049 0.876799 0.269413
0.549737 0.874113 0.262943
0.591363 0.870909 0.255070
0.633417 0.867247 0.246006
0.675044 0.863035 0.235355
0.716335 0.858396 0.222385
0.757229 0.853391 0.207889
0.797818 0.848081 0.190402
0.837858 0.842527 0.170993
0.877409 0.836942 0.147189
0.916228 0.831266 0.116670
0.947356 0.819608 0.101991
0.979767 0.811398 0.133181
1.000000 0.805631 0.179355
1.000000 0.799588 0.216068
1.000000 0.793179 0.249699
1.000000 0.786648 0.281834
1.000000 0.780484 0.311742
1.000000 0.775143 0.341375
1.000000 0.770901 0.370642
1.000000 0.767941 0.400702
1.000000 0.766567 0.431708
0.260044 0.903746 0.308629
0.263951 0.904265 0.310521
0.273014 0.904692 0.311681
0.288823 0.904784 0.312963
0.309697 0.904662 0.313451
0.335729 0.904112 0.313481
0.366613 0.903410 0.313329
0.401099 0.902647 0.313512
0.438025 0.901946 0.314916
0.477577 0.901274 0.316960
0.518242 0.900664 0.319493
0.556664 0.898589 0.315770
0.595392 0.895872 0.308873
0.634455 0.892821 0.302068
0.673915 0.889372 0.294011
0.713130 0.885679 0.284489
0.752804 0.881559 0.273808
0.792050 0.877226 0.262425
0.831174 0.872709 0.249180
0.870024 0.868040 0.235233
0.908507 0.863279 0.219425
0.946593 0.858396 0.201938
0.975463 0.846372 0.195865
1.000000 0.836942 0.214725
1.000000 0.824765 0.229007
1.000000 0.818143 0.260990
1.000000 0.811765 0.291844
1.000000 0.805631 0.322362
1.000000 0.800198 0.352087
1.000000 0.795651 0.381994
1.000000 0.792477 0.412848
1.000000 0.791043 0.444953
0.334386 0.930266 0.370306
0.338537 0.931090 0.372930
0.344732 0.931334 0.374090
0.354345 0.931029 0.373846
0.367498 0.930266 0.372747
0.385412 0.929137 0.370733
0.407141 0.927703 0.368200
0.433021 0.926177 0.366430
0.462867 0.924651 0.364782
0.495644 0.923217 0.364263
0.530236 0.921752 0.363592
0.565667 0.919860 0.361730
0.599725 0.916930 0.354681
0.634882 0.913664 0.346227
0.670436 0.909972 0.337224
0.706722 0.905974 0.327062
0.743496 0.901854 0.316075
0.780697 0.897734 0.305058
0.818296 0.893797 0.294438
0.856199 0.889952 0.283757
0.893980 0.886168 0.273136
0.931395 0.882109 0.260319
0.968109 0.877653 0.244968
0.994415 0.864805 0.239414
1.000000 0.853910 0.253666
1.000000 0.845335 0.281071
1.000000 0.837797 0.308202
1.000000 0.831022 0.335607
1.000000 0.824979 0.364141
1.000000 0.819913 0.393256
1.000000 0.816403 0.424109
1.000000 0.814389 0.456428
0.372107 0.945922 0.403143
0.375769 0.946593 0.405493
0.381384 0.946960 0.406958
0.389960 0.946899 0.407691
0.401617 0.946563 0.407538
0.417334 0.946014 0.407416
0.436988 0.945373 0.407294
0.460792 0.944610 0.407233
0.487648 0.943877 0.407843
0.517205 0.943145 0.409094
0.548669 0.942229 0.410101
0.581903 0.941253 0.412085
0.612726 0.939055 0.406775
0.644465 0.936370 0.400244
0.676783 0.933288 0.392218
0.709895 0.929900 0.383581
0.743923 0.926299 0.374182
0.778531 0.922667 0.364630
0.813962 0.919158 0.355535
0.849882 0.915862 0.346838
0.885985 0.912535 0.338231
0.922057 0.909178 0.328710
0.957824 0.905577 0.317540
0.993133 0.901671 0.305150
1.000000 0.888548 0.301549
1.000000 0.877165 0.314519
1.000000 0.868132 0.340368
1.000000 0.860349 0.365850
1.000000 0.854154 0.392981
1.000000 0.849058 0.422492
1.000000 0.845182 0.452766
1.000000 0.842435 0.484016
0.422034 0.964050 0.447303
0.424079 0.964324 0.448280
0.427863 0.964385 0.449073
0.433906 0.964263 0.448951
0.443122 0.963867 0.448707
0.455665 0.963317 0.448402
0.471473 0.962646 0.447761
0.490974 0.961883 0.447730
0.513390 0.961089 0.447883
0.538720 0.960296 0.448585
0.566339 0.959380 0.449714
0.595758 0.958465 0.450813
0.624811 0.956970 0.449500
0.653132 0.954772 0.443793
0.682429 0.952178 0.436957
0.712642 0.949279 0.429358
0.743709 0.946227 0.421088
0.775875 0.943114 0.412726
0.809018 0.940124 0.405127
0.842832 0.937285 0.397559
0.877043 0.934447 0.390356
0.911345 0.931609 0.382605
0.945556 0.928466 0.373724
0.979583 0.925078 0.363867
1.000000 0.921447 0.352361
1.000000 0.907836 0.348882
1.000000 0.896056 0.359655
1.000000 0.886625 0.383734
1.000000 0.878874 0.409277
1.000000 0.873533 0.437598
1.000000 0.869169 0.467536
1.000000 0.865934 0.499275
0.462226 0.978637 0.483040
0.463752 0.978851 0.484047
0.466957 0.978973 0.484657
0.472572 0.978912 0.485267
0.480995 0.978820 0.485908
0.492683 0.978729 0.487007
0.508751 0.978851 0.489570
0.528069 0.979034 0.492866
0.550408 0.979309 0.497169
0.575158 0.979583 0.502098
0.601984 0.979828 0.507652
0.629755 0.979919 0.513024
0.658320 0.979797 0.517906
0.683894 0.978790 0.516533
0.709926 0.977386 0.513176
0.736385 0.975463 0.508141
0.763516 0.973297 0.502068
0.791867 0.971008 0.495949
0.821225 0.968780 0.489967
0.851530 0.966613 0.484321
0.882383 0.964477 0.478889
0.913695 0.962219 0.472938
0.945129 0.959747 0.465858
0.976654 0.957153 0.458350
1.000000 0.954406 0.449836
1.000000 0.951507 0.440223
1.000000 0.938231 0.438941
1.000000 0.926421 0.448859
1.000000 0.916594 0.469886
1.000000 0.908568 0.493050
1.000000 0.903441 0.521233
1.000000 0.891691 0.528374
0.533562 0.998322 0.547204
0.534142 0.998322 0.547478
0.535882 0.998199 0.547204
0.539086 0.997986 0.547021
0.544579 0.997711 0.546532
0.552483 0.997314 0.546593
0.563043 0.996918 0.546685
0.576379 0.996490 0.547295
0.592340 0.996063 0.548547
0.610620 0.995605 0.550042
0.631067 0.995087 0.552300
0.653162 0.994507 0.554528
0.676783 0.993835 0.557031
0.699367 0.992828 0.556451
