20 Preset/Human Style/【3】LUT video cho PR-AE-FCPX/Joe-Allam/JA – Controlled Contrast 4.cube
# Created by Adobe Lightroom plugin Export LUT (1.24.0)
# www.johnrellis.com/lightroom/exportlut.htm
# Preset: JA – Controlled Contrast 4
# Color profile: E:\lut插件\exportlut.1.24\exportlut.lrplugin\color profiles\Rec709gamma2.4.icc
LUT_3D_SIZE 8
DOMAIN_MIN 0.000000 0.000000 0.000000
DOMAIN_MAX 0.903226 0.903226 0.903226
0.000000 0.000000 0.000000
0.000000 0.000000 0.000000
0.163394 0.028504 0.057984
0.361364 0.000000 0.070893
0.660853 0.000000 0.066285
0.835325 0.000000 0.088563
0.952636 0.000000 0.058045
1.000000 0.000000 0.094026
0.000000 0.000000 0.000000
0.000000 0.000000 0.000000
0.169589 0.027436 0.060761
0.370489 0.000000 0.070344
0.663935 0.000000 0.065583
0.836210 0.000000 0.021057
0.951873 0.000000 0.019562
1.000000 0.000000 0.077211
0.000000 0.152499 0.050568
0.044099 0.156039 0.037751
0.164920 0.143801 0.032563
0.400763 0.175845 0.000000
0.675074 0.123476 0.000000
0.836423 0.000000 0.000000
0.952087 0.000000 0.000000
1.000000 0.000000 0.000000
0.000000 0.407019 0.000000
0.035523 0.410346 0.000000
0.298985 0.410742 0.000000
0.389593 0.337285 0.000000
0.660761 0.391852 0.000000
0.835111 0.351019 0.000000
0.951354 0.273838 0.000000
1.000000 0.158083 0.000000
0.000000 0.636896 0.000000
0.133700 0.637903 0.000000
0.352361 0.642115 0.000000
0.507378 0.610986 0.000000
0.611780 0.542657 0.000000
0.778012 0.520623 0.000000
0.949310 0.490211 0.000000
1.000000 0.431464 0.000000
0.000000 0.765591 0.000000
0.162112 0.766323 0.000000
0.342504 0.768765 0.000000
0.509911 0.762783 0.000000
0.639368 0.724605 0.000000
0.742763 0.666133 0.000000
0.874510 0.624292 0.000000
1.000000 0.607019 0.000000
0.000000 0.881376 0.000000
0.130068 0.881865 0.000000
0.316930 0.883635 0.000000
0.491341 0.886870 0.000000
0.634638 0.868833 0.000000
0.759121 0.832120 0.000000
0.864988 0.780179 0.000000
0.990967 0.736263 0.000000
0.228183 0.978424 0.000000
0.261723 0.978332 0.000000
0.364141 0.977905 0.000000
0.497688 0.976776 0.000000
0.640742 0.973785 0.000000
0.757229 0.961120 0.000000
0.882780 0.942473 0.000000
1.000000 0.916167 0.000000
0.000671 0.000977 0.002106
0.000000 0.000000 0.000000
0.165499 0.028138 0.058930
0.359747 0.000000 0.071015
0.658564 0.000000 0.065583
0.834165 0.000000 0.031891
0.950561 0.000000 0.034089
1.000000 0.000000 0.088441
0.000671 0.000977 0.002106
0.000977 0.000977 0.000977
0.170687 0.031128 0.060121
0.368963 0.000000 0.058778
0.662409 0.000000 0.009369
0.834592 0.000000 0.000000
0.950378 0.000000 0.000000
1.000000 0.000000 0.062837
0.020325 0.156680 0.042237
0.092531 0.157931 0.035035
0.169009 0.145632 0.031891
0.402106 0.187167 0.000000
0.674311 0.158419 0.000000
0.834897 0.000000 0.000000
0.950530 0.000000 0.000000
1.000000 0.000000 0.000000
0.000000 0.411109 0.000000
0.133455 0.414221 0.000000
0.308385 0.409918 0.000000
0.391821 0.338231 0.000000
0.658259 0.393500 0.000000
0.833829 0.355627 0.000000
0.950164 0.279454 0.000000
1.000000 0.165164 0.000000
0.000000 0.637842 0.000000
0.174868 0.638727 0.000000
0.364294 0.642817 0.000000
0.510704 0.610224 0.000000
0.612085 0.542077 0.000000
0.777462 0.521141 0.000000
0.949096 0.491371 0.000000
1.000000 0.431983 0.000000
0.086427 0.765805 0.000000
0.184665 0.766415 0.000000
0.351049 0.768765 0.000000
0.512779 0.762173 0.000000
0.640772 0.724208 0.000000
0.743008 0.665797 0.000000
0.874876 0.624475 0.000000
1.000000 0.606958 0.000000
0.000000 0.881376 0.000000
0.137453 0.881743 0.000000
0.319707 0.883482 0.000000
0.492561 0.886778 0.000000
0.635279 0.868681 0.000000
0.759518 0.831998 0.000000
0.864927 0.779721 0.000000
0.991455 0.736080 0.000000
0.219547 0.978454 0.000000
0.254978 0.978393 0.000000
0.359808 0.977966 0.000000
0.495216 0.976837 0.000000
0.640101 0.974121 0.000000
0.756710 0.961425 0.000000
0.882597 0.942626 0.000000
1.000000 0.916136 0.000000
0.087709 0.110750 0.154299
0.087282 0.110475 0.153933
0.163821 0.061891 0.155032
0.285496 0.000000 0.170596
0.607355 0.000000 0.246128
0.804257 0.000000 0.238010
0.935149 0.000000 0.205570
1.000000 0.000000 0.186160
0.085908 0.115908 0.150790
0.099245 0.110536 0.150332
0.164004 0.089265 0.149233
0.291478 0.005707 0.170871
0.608453 0.000000 0.230503
0.806485 0.000000 0.217197
0.936919 0.000000 0.187594
1.000000 0.000000 0.181430
0.104250 0.143374 0.133577
0.118746 0.143526 0.134585
0.167941 0.154543 0.147646
0.348669 0.129824 0.148592
0.633692 0.000000 0.143984
0.815427 0.000000 0.144625
0.939696 0.000000 0.150057
1.000000 0.000000 0.157809
0.000000 0.328893 0.137789
0.000000 0.335454 0.121401
0.207218 0.362097 0.096468
0.356542 0.310216 0.082643
0.649439 0.363226 0.000000
0.818112 0.323796 0.000000
0.941619 0.263554 0.001251
1.000000 0.176333 0.042969
0.000000 0.602991 0.000000
0.000000 0.606348 0.000000
0.263767 0.613397 0.000000
0.477760 0.598138 0.000000
0.594476 0.527123 0.000000
0.774655 0.511437 0.000000
0.943359 0.484901 0.000000
1.000000 0.433112 0.000000
0.000000 0.749538 0.000000
0.038911 0.750393 0.000000
0.312474 0.754055 0.000000
0.498482 0.757870 0.000000
0.629725 0.719966 0.000000
0.736995 0.660426 0.000000
0.876280 0.623285 0.000000
1.000000 0.607141 0.000000
0.106783 0.876463 0.000000
0.182528 0.877043 0.000000
0.330999 0.879576 0.000000
0.494728 0.884276 0.000000
0.636164 0.869108 0.000000
0.761624 0.832944 0.000000
0.866667 0.779965 0.000000
0.996155 0.737331 0.000000
0.177523 0.979339 0.000000
0.222354 0.979217 0.000000
0.341405 0.978790 0.000000
0.484688 0.977630 0.000000
0.635187 0.975097 0.000000
0.754208 0.962432 0.000000
0.881987 0.943603 0.000000
1.000000 0.916381 0.000000
0.000000 0.174380 0.387457
0.000000 0.141421 0.387823
0.205783 0.055146 0.380621
0.370092 0.000000 0.355779
0.510307 0.000000 0.350469
0.719570 0.000000 0.383490
0.889036 0.000000 0.382452
1.000000 0.000000 0.384680
0.000000 0.189487 0.371069
0.000000 0.167300 0.370306
0.194858 0.115541 0.363470
0.358892 0.000000 0.342962
0.506767 0.000000 0.344091
0.725673 0.000000 0.380438
0.889677 0.000000 0.379889
1.000000 0.000000 0.389746
0.000000 0.260685 0.338567
0.000000 0.257877 0.338018
0.180636 0.224826 0.336156
0.342382 0.158694 0.322789
0.503258 0.105745 0.326879
0.748959 0.000000 0.373144
0.887510 0.000000 0.391394
1.000000 0.144106 0.427283
0.000000 0.300969 0.280064
0.030640 0.302342 0.282048
0.212436 0.314885 0.298222
0.399115 0.381537 0.373236
0.602045 0.352117 0.363531
0.758785 0.363561 0.393347
0.884092 0.380224 0.426276
1.000000 0.386297 0.452491
0.000000 0.527825 0.354803
0.000000 0.531487 0.357977
0.241764 0.548699 0.372320
0.447578 0.579492 0.392126
0.570031 0.523491 0.318975
0.755886 0.531884 0.376074
0.892790 0.529747 0.420172
1.000000 0.516289 0.437171
0.322789 0.700587 0.448890
0.344854 0.702663 0.452491
0.400916 0.713588 0.448859
0.512932 0.727047 0.448188
0.624659 0.713405 0.409339
0.711055 0.652033 0.287175
0.859831 0.637324 0.326848
1.000000 0.648829 0.391882
0.390478 0.846555 0.471656
0.401160 0.848356 0.469306
0.454353 0.853208 0.466224
0.550256 0.861082 0.463569
0.667048 0.864958 0.444099
0.754574 0.829374 0.343603
0.851194 0.774929 0.000000
0.996643 0.742641 0.000000
0.311559 0.974121 0.358465
0.330999 0.974212 0.356786
0.399390 0.974578 0.345953
0.505394 0.974975 0.320745
0.633875 0.974487 0.261204
0.746853 0.964752 0.000000
0.879698 0.945617 0.000000
1.000000 0.916808 0.000000
0.000000 0.252384 0.605341
0.000000 0.230350 0.604547
0.000000 0.185122 0.599359
0.386755 0.028656 0.587945
0.562371 0.000000 0.564202
0.683345 0.000000 0.524224
0.778775 0.000000 0.492042
0.954040 0.000000 0.521935
0.000000 0.299107 0.596979
0.000000 0.280644 0.596796
0.103578 0.228702 0.592981
0.383856 0.141512 0.582757
0.558892 0.000000 0.559625
0.680690 0.000000 0.520439
0.781491 0.000000 0.493965
0.954711 0.000000 0.524407
0.094240 0.401129 0.580957
0.166293 0.397711 0.579400
0.261509 0.366552 0.574945
0.386938 0.297642 0.566339
0.547936 0.192355 0.545190
0.668208 0.145235 0.508690
0.791470 0.167208 0.505791
0.956115 0.189883 0.539544
0.193759 0.473030 0.550378
0.237552 0.474220 0.550591
0.352483 0.481056 0.553582
0.446784 0.468452 0.554711
0.543786 0.400916 0.536492
0.646601 0.378943 0.506279
0.805936 0.409064 0.545647
0.952514 0.439918 0.582147
0.221073 0.512291 0.493446
0.252079 0.512902 0.494820
0.345861 0.516747 0.502251
0.461280 0.532403 0.523919
0.584649 0.580255 0.579461
0.702815 0.568048 0.575555
0.829129 0.577813 0.595911
0.966522 0.585962 0.617700
0.364691 0.636866 0.537163
0.378485 0.639002 0.540154
0.429755 0.647944 0.552514
0.508171 0.668727 0.574762
0.619135 0.705959 0.603571
0.682582 0.656916 0.542809
0.839536 0.681636 0.587457
0.990295 0.691920 0.613550
0.445838 0.799924 0.604791
0.454414 0.801450 0.606073
0.489113 0.808499 0.611292
0.567956 0.824369 0.628779
0.663416 0.845762 0.634028
0.753475 0.831937 0.604883
0.817136 0.770993 0.511925
0.973358 0.773617 0.527855
0.477943 0.952758 0.632349
0.484535 0.953613 0.631159
0.512078 0.957061 0.625330
0.571283 0.962219 0.615381
0.671565 0.963958 0.613550
0.777920 0.961059 0.592309
0.874357 0.944640 0.500633
1.000000 0.916533 0.294194
0.205692 0.422675 0.725551
0.210452 0.413245 0.725399
0.271489 0.385443 0.723476
0.393042 0.342321 0.717891
0.530694 0.249943 0.708431
0.675471 0.000000 0.689754
0.791775 0.000000 0.657404
0.881590 0.153597 0.635676
0.283207 0.454780 0.720974
0.284855 0.446387 0.720790
0.310430 0.414771 0.719387
0.407507 0.373358 0.714199
0.532921 0.287968 0.705257
0.673426 0.145693 0.687037
0.788083 0.000000 0.654963
0.878355 0.202823 0.635157
0.392493 0.528374 0.710414
0.404883 0.527520 0.709377
0.417914 0.506249 0.707576
0.456428 0.465126 0.703334
0.544976 0.402350 0.694850
0.666285 0.313207 0.677516
0.773556 0.277562 0.647425
0.866087 0.322393 0.635309
0.450019 0.594263 0.701839
0.460243 0.594446 0.701320
0.492897 0.590723 0.697810
0.526268 0.570672 0.692775
0.569177 0.524773 0.683650
0.658045 0.463142 0.665949
0.750423 0.435279 0.640284
0.855924 0.445075 0.643061
0.449378 0.623163 0.673976
0.459907 0.623957 0.674250
0.499367 0.627558 0.676326
0.559655 0.635981 0.682643
0.608453 0.628168 0.685359
0.659449 0.578820 0.665553
0.733486 0.548913 0.639765
0.895567 0.568078 0.682582
0.437659 0.642695 0.632258
0.446845 0.642878 0.632837
0.481636 0.644007 0.635615
0.536767 0.648249 0.642908
0.605158 0.661585 0.660273
0.695613 0.700313 0.704250
0.809232 0.696468 0.707851
0.952270 0.706233 0.728389
0.489906 0.732937 0.660548
0.495705 0.734493 0.662165
0.519005 0.741176 0.668940
0.563226 0.756527 0.683223
0.629541 0.786557 0.706813
0.742580 0.834714 0.740352
0.794766 0.776516 0.674220
0.967834 0.810361 0.719722
0.492622 0.924102 0.730159
0.498726 0.925048 0.730526
0.524559 0.929198 0.732326
0.576257 0.937530 0.736538
0.676478 0.947814 0.755306
0.780392 0.955352 0.762081
0.869200 0.946563 0.728450
0.969726 0.916564 0.632044
0.462531 0.583948 0.830014
0.465187 0.581201 0.831296
0.471839 0.563378 0.830259
0.513939 0.543450 0.827939
0.577539 0.504631 0.823423
0.666407 0.430976 0.816159
0.777798 0.343267 0.801022
0.885039 0.291142 0.778561
0.472053 0.590295 0.821927
0.474983 0.588067 0.823545
0.476478 0.568566 0.823087
0.514275 0.547692 0.819974
0.573938 0.508293 0.814755
0.658839 0.434394 0.806088
0.767544 0.345251 0.789731
0.872892 0.289281 0.766262
0.529839 0.639704 0.820096
0.531945 0.637110 0.819821
0.530022 0.619287 0.818143
0.545220 0.592340 0.815366
0.591699 0.557427 0.808682
0.664973 0.497688 0.800351
0.766445 0.429755 0.787472
0.869108 0.392462 0.768948
0.559167 0.685054 0.820188
0.563439 0.683803 0.819211
0.580591 0.679042 0.815579
0.596796 0.661097 0.812741
0.621057 0.627497 0.806394
0.678859 0.583520 0.798154
0.765255 0.528771 0.784604
0.859373 0.495857 0.767269
0.567193 0.717128 0.806241
0.571405 0.716274 0.805081
0.592706 0.717494 0.805142
0.625727 0.716426 0.805905
0.651362 0.695033 0.800137
0.683925 0.653254 0.788907
0.754635 0.602106 0.771603
0.850187 0.579065 0.762448
0.552178 0.735927 0.780056
0.557641 0.736507 0.780606
0.578820 0.738460 0.782589
0.616968 0.742947 0.787655
0.670375 0.751492 0.797543
0.717830 0.744656 0.803830
0.764248 0.692409 0.780240
0.850919 0.662043 0.762783
0.529656 0.756344 0.748714
0.535454 0.757229 0.749844
0.555016 0.757137 0.750668
0.591333 0.758145 0.753567
0.640986 0.760861 0.758938
0.705745 0.772335 0.773983
0.805386 0.814664 0.820737
0.942626 0.824918 0.838895
0.561486 0.865904 0.793576
0.564965 0.867308 0.794675
0.581048 0.874754 0.800595
0.610681 0.885344 0.808133
0.660456 0.901396 0.819272
0.744564 0.925231 0.838895
0.875792 0.947265 0.877958
0.940948 0.918181 0.801022
0.586267 0.697871 0.928313
0.587366 0.695918 0.929046
0.585809 0.681392 0.928344
0.609186 0.669001 0.928710
0.648859 0.647517 0.928374
0.706691 0.610620 0.927214
0.789914 0.550072 0.926970
0.893187 0.486030 0.919951
0.588952 0.700801 0.924193
0.590051 0.698909 0.924987
0.589624 0.685817 0.925109
0.609094 0.671168 0.925170
0.647669 0.649836 0.924712
0.704494 0.613245 0.923430
0.785641 0.552087 0.921996
0.887175 0.486976 0.913848
0.615229 0.726802 0.920470
0.615320 0.724361 0.920714
0.613703 0.711788 0.920348
0.624140 0.694850 0.923339
0.657038 0.673243 0.921752
0.707851 0.637446 0.919127
0.784970 0.581628 0.917693
0.883940 0.520897 0.909972
0.630579 0.756649 0.917876
0.634882 0.756863 0.918212
0.649317 0.754849 0.917418
0.655604 0.738277 0.918639
0.672999 0.712825 0.918730
0.717617 0.681788 0.916930
0.788357 0.633204 0.915679
0.884184 0.577569 0.908965
0.638300 0.791409 0.915129
0.641901 0.791562 0.915679
0.652461 0.788296 0.915160
0.678950 0.784756 0.915129
0.699214 0.766049 0.914427
0.725307 0.731899 0.912718
0.787900 0.689052 0.911131
0.883238 0.638453 0.906462
0.628351 0.819425 0.907073
0.631098 0.818753 0.906554
0.645136 0.818021 0.906157
0.675990 0.820066 0.908354
0.720089 0.822538 0.913298
0.758022 0.807523 0.916930
0.802487 0.769741 0.918883
0.895018 0.720760 0.915892
0.614405 0.858640 0.902464
0.617975 0.858518 0.902434
0.633417 0.858396 0.902831
0.666041 0.860197 0.905516
0.716121 0.864408 0.910704
0.785885 0.874479 0.920378
0.844480 0.872068 0.928313
0.899199 0.810269 0.916655
0.582910 0.903929 0.891936
0.586267 0.903502 0.891661
0.602502 0.903044 0.891905
0.635950 0.903746 0.893950
0.684962 0.904051 0.896513
0.748867 0.904265 0.900023
0.828061 0.907622 0.907713
0.922515 0.929137 0.933196
