20 Preset/Human Style/【3】LUT video cho PR-AE-FCPX/Joe-Allam/JA – Night Pop 2.cube
# Created by Adobe Lightroom plugin Export LUT (1.24.0)
# www.johnrellis.com/lightroom/exportlut.htm
# Preset: JA – Night Pop 2
# Color profile: E:\lut插件\exportlut.1.24\exportlut.lrplugin\color profiles\Rec709gamma2.4.icc
LUT_3D_SIZE 5
DOMAIN_MIN 0.000000 0.000000 0.000000
DOMAIN_MAX 0.903226 0.903226 0.903226
0.046357 0.060670 0.072084
0.161501 0.027192 0.069673
0.363928 0.000000 0.029541
0.807980 0.000000 0.000000
1.000000 0.000000 0.000000
0.008118 0.137545 0.053895
0.136202 0.131533 0.077455
0.307713 0.165225 0.111727
0.774075 0.225895 0.000000
1.000000 0.194614 0.000000
0.000000 0.318914 0.000000
0.147890 0.316320 0.000000
0.303044 0.280186 0.026154
0.629999 0.408728 0.212070
1.000000 0.472511 0.196841
0.000000 0.711574 0.000000
0.000000 0.707027 0.000000
0.482673 0.677882 0.000000
0.709987 0.622309 0.000000
0.952605 0.679744 0.413794
0.000000 0.970672 0.000000
0.000000 0.968292 0.000000
0.466590 0.960082 0.000000
0.795193 0.935119 0.000000
1.000000 0.894652 0.000000
0.000000 0.059571 0.163699
0.129122 0.036988 0.152438
0.348730 0.000000 0.138735
0.811002 0.000000 0.000000
1.000000 0.000000 0.000000
0.000000 0.143648 0.158083
0.122316 0.136202 0.146487
0.339788 0.143252 0.138399
0.797513 0.163302 0.000000
1.000000 0.165469 0.000000
0.000000 0.330541 0.132692
0.005097 0.326146 0.131991
0.308232 0.290288 0.138552
0.648554 0.418677 0.268223
1.000000 0.465919 0.216281
0.000000 0.718410 0.000000
0.000000 0.713161 0.000000
0.458961 0.685084 0.000000
0.710811 0.624964 0.000000
0.947662 0.689754 0.474617
0.000000 0.974273 0.000000
0.000000 0.971862 0.000000
0.420081 0.961089 0.000000
0.782681 0.935729 0.000000
1.000000 0.893584 0.000000
0.000000 0.043366 0.475166
0.000000 0.000000 0.456214
0.295445 0.000000 0.341741
0.775204 0.000000 0.458991
1.000000 0.000000 0.332280
0.000000 0.228519 0.491127
0.000000 0.164157 0.456092
0.293889 0.100435 0.340154
0.779324 0.000000 0.429389
1.000000 0.000000 0.251438
0.000000 0.409064 0.446906
0.000000 0.390173 0.425849
0.269841 0.296178 0.316686
0.773342 0.329259 0.325780
1.000000 0.329442 0.293675
0.000000 0.748165 0.428016
0.000000 0.742885 0.400824
0.262882 0.710323 0.351080
0.702571 0.632319 0.282689
0.927184 0.733394 0.649531
0.000000 0.983154 0.403876
0.000000 0.980438 0.397070
0.272343 0.969207 0.370733
0.743404 0.944579 0.321141
1.000000 0.899657 0.321965
0.000000 0.000000 0.833829
0.000000 0.000000 0.832334
0.242222 0.000000 0.794217
0.671687 0.000000 0.719478
1.000000 0.000000 0.730404
0.000000 0.275517 0.842557
0.000000 0.245151 0.838804
0.150088 0.000000 0.799344
0.674434 0.000000 0.721706
1.000000 0.000000 0.725490
0.000000 0.520165 0.844633
0.000000 0.501030 0.843137
0.000000 0.407355 0.815213
0.672602 0.236027 0.717922
1.000000 0.277134 0.702235
0.000000 0.778805 0.810727
0.000000 0.776364 0.807584
0.000000 0.758328 0.784451
0.634607 0.649653 0.670558
1.000000 0.687251 0.696254
0.000000 1.000000 0.692195
0.000000 1.000000 0.692317
0.000000 0.984588 0.709316
0.707088 0.954711 0.723751
0.992615 0.910552 0.664088
0.000000 0.000000 1.000000
0.000000 0.000000 1.000000
0.000000 0.000000 0.998138
0.535973 0.000000 0.987518
0.952697 0.000000 0.968505
0.000000 0.000000 1.000000
0.000000 0.000000 1.000000
0.000000 0.000000 0.998932
0.519402 0.000000 0.988556
0.953887 0.000000 0.969329
0.000000 0.400702 0.999817
0.000000 0.407507 0.999695
0.000000 0.347417 0.999634
0.472541 0.316564 0.988891
0.955810 0.000000 0.968811
0.000000 0.667506 0.988983
0.000000 0.665431 0.989197
0.000000 0.631312 0.991394
0.631891 0.745083 0.973816
0.951965 0.645167 0.955077
0.000000 0.936248 0.966308
0.000000 0.936767 0.966186
0.000000 0.938445 0.964569
0.608453 0.944945 0.955474
0.935485 0.926574 0.927031
