20 Preset/Human Style/【3】LUT video cho PR-AE-FCPX/Joe-Allam/JA – Shaded Light 4.cube
# Created by Adobe Lightroom plugin Export LUT (1.24.0)
# www.johnrellis.com/lightroom/exportlut.htm
# Preset: JA – Shaded Light 4
# Color profile: E:\lut插件\exportlut.1.24\exportlut.lrplugin\color profiles\Rec709gamma2.4.icc
LUT_3D_SIZE 8
DOMAIN_MIN 0.000000 0.000000 0.000000
DOMAIN_MAX 0.903226 0.903226 0.903226
0.033692 0.062470 0.088197
0.049958 0.061646 0.089387
0.180179 0.017914 0.093202
0.254704 0.016236 0.094606
0.347417 0.041627 0.097292
0.598291 0.000000 0.091188
0.808774 0.000000 0.060212
0.968566 0.000000 0.055634
0.000000 0.109377 0.089937
0.079133 0.112001 0.089265
0.186435 0.106966 0.092897
0.257298 0.105623 0.094942
0.376623 0.114504 0.101869
0.632166 0.106905 0.085634
0.828122 0.000000 0.047211
0.980072 0.000000 0.051575
0.000000 0.208438 0.095216
0.009613 0.208713 0.095216
0.173709 0.207767 0.102998
0.252140 0.197360 0.120150
0.450019 0.249058 0.110201
0.684077 0.279362 0.042420
0.847868 0.270603 0.007050
0.990631 0.250523 0.025086
0.000000 0.312444 0.124483
0.000000 0.314458 0.122744
0.145449 0.315160 0.121798
0.277226 0.324041 0.123232
0.466133 0.377295 0.093385
0.732570 0.460853 0.000000
0.888548 0.454170 0.000000
1.000000 0.431464 0.000000
0.000000 0.603174 0.000000
0.000000 0.602533 0.000000
0.000000 0.597162 0.000000
0.342199 0.590814 0.000000
0.534905 0.595239 0.000000
0.701137 0.583246 0.000000
0.893309 0.608606 0.000000
1.000000 0.611536 0.000000
0.000000 0.778561 0.000000
0.000000 0.775631 0.000000
0.000000 0.771817 0.000000
0.266178 0.761563 0.000000
0.504906 0.758785 0.000000
0.695338 0.755886 0.000000
0.850645 0.728664 0.000000
1.000000 0.730495 0.000000
0.000000 0.908751 0.000000
0.000000 0.907805 0.000000
0.000000 0.905699 0.000000
0.000000 0.900237 0.000000
0.437690 0.893034 0.000000
0.646693 0.889433 0.000000
0.827604 0.883940 0.000000
0.980133 0.862028 0.000000
0.000000 0.999176 0.309300
0.000000 0.999023 0.306065
0.000000 0.998108 0.291020
0.173220 0.996033 0.255436
0.427466 0.994018 0.256962
0.609918 0.988800 0.275029
0.777279 0.982940 0.328466
0.929320 0.976623 0.389929
0.016266 0.084260 0.119875
0.067781 0.070527 0.123293
0.185061 0.022827 0.139681
0.257145 0.048890 0.132326
0.368322 0.019501 0.137026
0.625513 0.000000 0.132662
0.826505 0.000000 0.124147
0.980896 0.000000 0.123476
0.000000 0.111330 0.129183
0.088228 0.113191 0.134463
0.188022 0.113680 0.136965
0.256504 0.113680 0.139071
0.388403 0.107485 0.140810
0.645289 0.000000 0.131685
0.838376 0.000000 0.123079
0.989502 0.000000 0.123445
0.000000 0.211460 0.147463
0.013489 0.211490 0.146670
0.174105 0.210147 0.148440
0.255558 0.205142 0.163912
0.465797 0.250004 0.154726
0.698695 0.270237 0.128267
0.862608 0.257298 0.117159
1.000000 0.232853 0.117128
0.000000 0.330175 0.158999
0.000000 0.331243 0.157015
0.144686 0.329076 0.153658
0.293187 0.342046 0.153292
0.502037 0.400641 0.127596
0.757900 0.469520 0.101625
0.903655 0.451850 0.089509
1.000000 0.425666 0.081788
0.000000 0.611414 0.000000
0.000000 0.611383 0.000000
0.000000 0.607385 0.000000
0.341009 0.601068 0.000000
0.545190 0.605768 0.000000
0.715602 0.591485 0.000000
0.904387 0.611505 0.000000
1.000000 0.612970 0.152407
0.000000 0.784726 0.000000
0.000000 0.783688 0.000000
0.000000 0.779446 0.000000
0.252842 0.768490 0.000000
0.504448 0.763973 0.000000
0.699001 0.759518 0.000000
0.856657 0.730983 0.000000
1.000000 0.732723 0.000000
0.000000 0.912749 0.000000
0.000000 0.912627 0.000000
0.000000 0.910521 0.000000
0.000000 0.904875 0.000000
0.434730 0.896269 0.000000
0.647791 0.892363 0.000000
0.831022 0.887083 0.000000
0.983642 0.864866 0.000000
0.000000 1.000000 0.357244
0.000000 0.999817 0.352911
0.000000 0.998993 0.340337
0.214023 0.997009 0.310643
0.428992 0.992889 0.287663
0.611048 0.988342 0.305882
0.778866 0.983062 0.357885
0.929992 0.976837 0.412970
0.000000 0.113466 0.217380
0.000000 0.105470 0.218479
0.153628 0.098299 0.222568
0.215183 0.131380 0.239384
0.355718 0.050172 0.261326
0.612238 0.000000 0.280400
0.818509 0.000000 0.211337
0.975586 0.000000 0.206302
0.000000 0.135531 0.224765
0.042756 0.131228 0.226566
0.158511 0.132265 0.231144
0.219211 0.151614 0.243503
0.376165 0.094942 0.261601
0.633326 0.000000 0.252873
0.830686 0.000000 0.212436
0.983673 0.000000 0.206363
0.000000 0.210239 0.242741
0.085603 0.209873 0.243351
0.164675 0.208194 0.245029
0.245090 0.203037 0.240299
0.447761 0.190372 0.232975
0.687373 0.158175 0.221103
0.858122 0.103395 0.209842
1.000000 0.000000 0.200168
0.000000 0.340093 0.249119
0.000000 0.339605 0.241306
0.074128 0.340002 0.232456
0.294011 0.345129 0.227420
0.538476 0.403265 0.214572
0.759976 0.428046 0.208896
0.899809 0.400793 0.195804
1.000000 0.373449 0.189700
0.000000 0.626734 0.126894
0.000000 0.625696 0.124025
0.000000 0.620172 0.113344
0.295171 0.606531 0.100679
0.546441 0.607324 0.062654
0.736202 0.591974 0.093507
0.915373 0.606714 0.226932
1.000000 0.603815 0.328466
0.000000 0.793271 0.000000
0.000000 0.791928 0.000000
0.000000 0.787594 0.000000
0.152132 0.777676 0.000000
0.487678 0.768887 0.000000
0.702113 0.762783 0.000000
0.865782 0.728573 0.000000
1.000000 0.736568 0.312840
0.000000 0.914275 0.248875
0.000000 0.914031 0.245518
0.000000 0.912352 0.227390
0.000000 0.907683 0.178714
0.420508 0.897704 0.105409
0.644495 0.892973 0.164858
0.830564 0.886351 0.216342
0.981262 0.862119 0.297459
0.000000 0.998474 0.467323
0.000000 0.998413 0.465949
0.098207 0.997711 0.457282
0.301244 0.995666 0.434577
0.457862 0.992157 0.411536
0.620233 0.987213 0.410437
0.782864 0.981964 0.442969
0.930907 0.975952 0.481819
0.000000 0.137911 0.296391
0.000000 0.134585 0.295537
0.136263 0.135225 0.299351
0.212253 0.143282 0.300816
0.299657 0.161135 0.336858
0.536034 0.000000 0.445228
0.799802 0.000000 0.485512
0.965850 0.000000 0.446571
0.000000 0.160494 0.302068
0.017060 0.160494 0.302739
0.142458 0.159426 0.305852
0.215885 0.162142 0.306188
0.308385 0.171756 0.344610
0.562432 0.000000 0.452308
0.809171 0.000000 0.475959
0.972564 0.000000 0.429358
0.011475 0.236088 0.331273
0.061158 0.233555 0.333288
0.137819 0.215579 0.338018
0.240085 0.207370 0.337438
0.360235 0.196902 0.378515
0.658595 0.000000 0.448463
0.839048 0.000000 0.407477
0.994018 0.000000 0.318822
0.000000 0.359167 0.396277
0.000000 0.360204 0.397864
0.000000 0.358892 0.398901
0.282811 0.340429 0.390570
0.556786 0.310399 0.365209
0.748684 0.281743 0.345861
0.892546 0.252567 0.331609
1.000000 0.225437 0.324346
0.000000 0.646632 0.437293
0.000000 0.645869 0.431861
0.000000 0.639521 0.406958
0.138552 0.622370 0.369268
0.546563 0.608759 0.351995
0.754757 0.596826 0.415259
0.900755 0.626581 0.517418
1.000000 0.594873 0.498085
0.000000 0.799832 0.436957
0.000000 0.796719 0.440070
0.000000 0.792477 0.434394
0.028168 0.783902 0.403784
0.465980 0.769314 0.366766
0.702907 0.763180 0.376867
0.873350 0.735653 0.411048
1.000000 0.760616 0.557977
0.000000 0.914305 0.516625
0.000000 0.913756 0.513848
0.000000 0.911528 0.502983
0.247471 0.906950 0.480140
0.451209 0.898466 0.443977
0.650233 0.891234 0.440925
0.832059 0.885313 0.457343
0.976837 0.859739 0.487190
0.278080 0.994598 0.598444
0.291112 0.994507 0.597131
0.338781 0.993896 0.590997
0.415412 0.992493 0.577264
0.513237 0.990173 0.554070
0.639399 0.985229 0.538201
0.791897 0.980285 0.555962
0.933074 0.974487 0.577478
0.000000 0.172671 0.535698
0.000000 0.170687 0.534264
0.129763 0.161501 0.536187
0.306554 0.134340 0.535882
0.415320 0.102815 0.526268
0.557153 0.000000 0.561181
0.691005 0.000000 0.599268
0.917662 0.000000 0.635889
0.000000 0.191501 0.545922
0.000000 0.188815 0.543633
0.112917 0.178195 0.544396
0.309178 0.149844 0.545006
0.424170 0.112947 0.534813
0.567285 0.000000 0.567437
0.696925 0.000000 0.601404
0.926268 0.000000 0.633173
0.000000 0.267277 0.582300
0.000000 0.252415 0.582605
0.000000 0.225040 0.583032
0.302831 0.194095 0.581262
0.460670 0.149905 0.570001
0.608698 0.064454 0.591882
0.753140 0.000000 0.616571
0.962310 0.000000 0.618463
0.000000 0.468544 0.624170
0.000000 0.467659 0.624323
0.000000 0.452583 0.624781
0.274876 0.384833 0.624201
0.506340 0.345037 0.610742
0.638331 0.355138 0.613550
0.834714 0.256046 0.613275
0.995361 0.000000 0.568811
0.000000 0.657954 0.667750
0.000000 0.656550 0.667323
0.000000 0.650599 0.665736
0.362585 0.636194 0.660151
0.554559 0.607172 0.644862
0.728664 0.583612 0.626581
0.873259 0.558587 0.608331
1.000000 0.536309 0.593378
0.000000 0.815183 0.679286
0.000000 0.813962 0.678798
0.232425 0.809598 0.677668
0.400702 0.798795 0.668849
0.539300 0.781399 0.644068
0.715206 0.766903 0.625238
0.876127 0.764828 0.658930
0.988678 0.799924 0.732357
0.259190 0.919768 0.687953
0.279759 0.919524 0.687678
0.344457 0.917540 0.684596
0.450629 0.911101 0.680385
0.543969 0.903197 0.654871
0.673579 0.891905 0.627955
0.841093 0.886625 0.632868
0.976043 0.865782 0.651575
0.471351 0.992981 0.728298
0.476143 0.992889 0.727169
0.496254 0.992462 0.722530
0.530724 0.990814 0.710048
0.590204 0.988708 0.691768
0.675013 0.984741 0.667323
0.805356 0.979828 0.668086
0.939269 0.974548 0.680232
0.000000 0.196078 0.729946
0.000000 0.192660 0.729274
0.000000 0.177432 0.730098
0.328649 0.135622 0.728786
0.500206 0.000000 0.725795
0.618769 0.000000 0.715328
0.747707 0.000000 0.722316
0.865110 0.000000 0.747036
0.000000 0.210636 0.740078
0.000000 0.207370 0.739986
0.000000 0.192599 0.739681
0.325444 0.153933 0.737728
0.503716 0.000000 0.733059
0.625696 0.000000 0.721370
0.756130 0.000000 0.727871
0.868132 0.000000 0.749386
0.000000 0.282811 0.752621
0.000000 0.280583 0.752682
0.000000 0.269322 0.751827
0.298161 0.243809 0.751064
0.502281 0.183017 0.745724
0.639185 0.125826 0.732662
0.774197 0.116121 0.739437
0.868772 0.257237 0.751553
0.098909 0.532891 0.765103
0.134218 0.527642 0.765652
0.209079 0.500877 0.766445
0.337652 0.456672 0.763851
0.513664 0.417609 0.757351
0.656245 0.387793 0.744289
0.782132 0.393317 0.748745
0.863981 0.428779 0.754086
0.349126 0.693538 0.787198
0.370245 0.693812 0.787045
0.440711 0.694087 0.785885
0.527398 0.687739 0.782406
0.580468 0.642847 0.777188
0.687312 0.607874 0.762722
0.776822 0.593347 0.757931
0.942687 0.536431 0.760037
0.385595 0.816495 0.814176
0.399573 0.815091 0.813413
0.456397 0.812375 0.812680
0.540429 0.805936 0.810422
0.634791 0.793484 0.804471
0.726131 0.764157 0.785641
0.858854 0.743465 0.769680
0.980499 0.724361 0.755825
0.504051 0.925658 0.826444
0.510399 0.925048 0.825864
0.539788 0.923247 0.824704
0.589654 0.919310 0.821164
0.650233 0.911376 0.810849
0.720394 0.896361 0.784695
0.850553 0.885588 0.769894
0.974151 0.882872 0.800168
0.591485 0.991760 0.830411
0.596643 0.991669 0.830594
0.614923 0.991058 0.830076
0.645289 0.989502 0.826993
0.699001 0.986053 0.825193
0.741054 0.983490 0.802029
0.823453 0.978424 0.779934
0.946807 0.973754 0.786221
0.000000 0.284520 0.871031
0.000000 0.283299 0.870970
0.000000 0.276555 0.870390
0.341527 0.259129 0.868986
0.510216 0.220493 0.866545
0.665003 0.114168 0.861936
0.773556 0.131044 0.851164
0.881987 0.195438 0.845701
0.000000 0.314946 0.872679
0.000000 0.313542 0.872526
0.080446 0.306889 0.871946
0.346044 0.290440 0.870573
0.512078 0.255589 0.867887
0.666041 0.174777 0.863127
0.775204 0.187137 0.852110
0.883818 0.236149 0.847166
0.000000 0.429725 0.876768
0.000000 0.428260 0.876646
0.224369 0.421942 0.875975
0.381140 0.407080 0.874388
0.526726 0.379370 0.871550
0.671931 0.326299 0.866636
0.780789 0.326940 0.855070
0.889281 0.352697 0.852079
0.376989 0.607568 0.880034
0.380835 0.603510 0.880369
0.394079 0.584222 0.880858
0.470192 0.570642 0.879240
0.570886 0.547478 0.876219
0.688869 0.506920 0.870939
0.790860 0.489082 0.859251
0.898619 0.492622 0.860899
0.556207 0.758846 0.887053
0.561791 0.757839 0.887022
0.583734 0.753048 0.886717
0.596918 0.729458 0.886442
0.629755 0.694270 0.884672
0.715419 0.662226 0.878416
0.806607 0.632380 0.866087
0.912200 0.619501 0.872435
0.607080 0.845579 0.901244
0.613306 0.845518 0.901183
0.637934 0.845121 0.900908
0.681514 0.843931 0.900023
0.734524 0.838865 0.897612
0.758145 0.798856 0.891722
0.829709 0.762387 0.877073
0.908537 0.739895 0.873381
0.632319 0.927367 0.917296
0.637781 0.927123 0.917266
0.659968 0.925963 0.917327
0.700099 0.923491 0.917144
0.753506 0.918975 0.916228
0.811948 0.910124 0.912261
0.864683 0.885985 0.895689
0.963195 0.871153 0.884459
0.731930 0.988830 0.923613
0.734920 0.988708 0.923674
0.747158 0.988159 0.923827
0.769894 0.987091 0.923919
0.800778 0.985412 0.923003
0.834684 0.982666 0.918151
0.869810 0.977356 0.899992
0.955779 0.972198 0.889403
0.391028 0.532494 0.962615
0.401434 0.532097 0.962585
0.441993 0.530236 0.962524
0.510460 0.524681 0.962341
0.598962 0.513451 0.962066
0.701106 0.492317 0.961608
0.813870 0.457465 0.960693
0.900023 0.484627 0.954498
0.408881 0.550378 0.962432
0.418280 0.549828 0.962402
0.455482 0.547295 0.962341
0.519860 0.541344 0.962158
0.604578 0.529595 0.961913
0.704036 0.508385 0.961517
0.815244 0.472969 0.960693
0.900694 0.497475 0.954559
0.465522 0.610101 0.961791
0.472419 0.609277 0.961761
0.501061 0.606287 0.961730
0.553246 0.599634 0.961608
0.626001 0.587335 0.961425
0.715572 0.566369 0.961089
0.820401 0.530602 0.960540
0.903044 0.543938 0.954650
0.541741 0.693904 0.961425
0.542992 0.691249 0.961608
0.563104 0.688136 0.961578
0.601709 0.681361 0.961486
0.658991 0.669337 0.961334
0.734188 0.649500 0.960998
0.827573 0.616876 0.960418
0.907774 0.614313 0.955261
0.669825 0.807767 0.959686
0.669093 0.805325 0.959838
0.665797 0.794369 0.960601
0.667475 0.774624 0.961975
0.700923 0.759060 0.962310
0.758480 0.740200 0.961975
0.837217 0.709773 0.961334
0.915282 0.695155 0.956786
0.752956 0.891020 0.961639
0.754971 0.890593 0.961700
0.763180 0.888579 0.961944
0.778744 0.883909 0.962402
0.786618 0.866819 0.963287
0.799252 0.837827 0.964233
0.855314 0.812375 0.963104
0.925994 0.789212 0.958831
0.777066 0.938720 0.968963
0.779904 0.938720 0.968994
0.791470 0.938720 0.969085
0.813413 0.938781 0.969207
0.844785 0.938872 0.969360
0.880766 0.937957 0.969268
0.892576 0.912963 0.968414
0.941436 0.886656 0.962829
0.800687 0.987396 0.976562
0.803189 0.987304 0.976623
0.813626 0.986908 0.976867
0.833555 0.986114 0.977356
0.862364 0.984985 0.978149
0.897673 0.983520 0.979156
0.934905 0.981292 0.979767
0.965637 0.971557 0.973846
