20 Preset/Human Style/【3】LUT video cho PR-AE-FCPX/Joe-Allam/JA – Shaded Light 1.cube
# Created by Adobe Lightroom plugin Export LUT (1.24.0)
# www.johnrellis.com/lightroom/exportlut.htm
# Preset: JA – Shaded Light 1
# Color profile: E:\lut插件\exportlut.1.24\exportlut.lrplugin\color profiles\Rec709gamma2.4.icc
LUT_3D_SIZE 8
DOMAIN_MIN 0.000000 0.000000 0.000000
DOMAIN_MAX 0.903226 0.903226 0.903226
0.047120 0.060426 0.076631
0.047120 0.060426 0.076631
0.106081 0.052399 0.078767
0.151186 0.050111 0.082887
0.219516 0.078462 0.088228
0.293187 0.095064 0.099947
0.428107 0.108949 0.105806
0.668757 0.128389 0.098116
0.045960 0.065003 0.077150
0.043091 0.071992 0.078370
0.111635 0.076997 0.079957
0.162570 0.087434 0.082673
0.235752 0.102052 0.093538
0.313329 0.114321 0.103670
0.475746 0.134340 0.105409
0.702296 0.163241 0.097322
0.025269 0.119814 0.090700
0.046632 0.120607 0.091646
0.106325 0.126741 0.092561
0.158785 0.131289 0.093996
0.230228 0.148257 0.100984
0.304845 0.159609 0.108797
0.439643 0.186587 0.107973
0.667506 0.234867 0.092439
0.000000 0.186404 0.108125
0.007752 0.189029 0.109194
0.101259 0.194064 0.112764
0.163912 0.198276 0.107973
0.223636 0.194827 0.104341
0.290227 0.208865 0.115297
0.429419 0.257145 0.113588
0.661891 0.331273 0.079438
0.000000 0.284977 0.138857
0.000000 0.286412 0.139773
0.052857 0.288945 0.143374
0.163912 0.290379 0.147799
0.247013 0.302922 0.133791
0.325231 0.302953 0.119783
0.480385 0.364050 0.082277
0.672572 0.440558 0.000885
0.000000 0.498329 0.125795
0.000000 0.487709 0.128573
0.000000 0.491279 0.130373
0.071809 0.496742 0.133822
0.279911 0.506859 0.127077
0.412360 0.516075 0.063233
0.538628 0.525170 0.000000
0.683009 0.546838 0.000000
0.000000 0.714748 0.111666
0.000000 0.713039 0.110964
0.000000 0.715816 0.123720
0.000000 0.718563 0.144289
0.242283 0.724544 0.178622
0.433814 0.727504 0.160037
0.585504 0.728725 0.000000
0.745724 0.743709 0.000000
0.000000 0.893675 0.430915
0.000000 0.894041 0.432990
0.000000 0.894285 0.438849
0.104372 0.893706 0.448127
0.398230 0.911406 0.505119
0.531792 0.910613 0.522667
0.648341 0.913298 0.500755
0.781582 0.921141 0.473610
0.045228 0.061616 0.079927
0.046601 0.061372 0.081331
0.118593 0.048951 0.089418
0.172305 0.070161 0.100740
0.247379 0.082033 0.108034
0.329931 0.095308 0.117128
0.511223 0.098085 0.121492
0.735317 0.111269 0.124208
0.039490 0.071962 0.086854
0.061524 0.078187 0.089723
0.117525 0.088197 0.096559
0.174472 0.095308 0.103792
0.251164 0.103456 0.110231
0.337407 0.114809 0.119203
0.532006 0.130465 0.121889
0.753445 0.155123 0.125795
0.041169 0.126406 0.105287
0.063539 0.127352 0.106325
0.113039 0.132692 0.107454
0.171206 0.139864 0.109071
0.247288 0.155489 0.116732
0.334112 0.169284 0.124758
0.516808 0.206119 0.122438
0.729976 0.245975 0.118654
0.000000 0.204135 0.122225
0.000000 0.205692 0.123568
0.106569 0.207736 0.126833
0.177676 0.214847 0.123171
0.244144 0.211185 0.119203
0.327886 0.233219 0.132235
0.505882 0.295109 0.125063
0.722377 0.354711 0.110048
0.000000 0.295964 0.151614
0.000000 0.298711 0.152956
0.042298 0.304234 0.156374
0.173220 0.310857 0.162478
0.268864 0.329778 0.146426
0.355596 0.328801 0.128878
0.519493 0.390936 0.094423
0.706020 0.459174 0.063264
0.000000 0.523400 0.134463
0.000000 0.523430 0.134951
0.000000 0.525048 0.136751
0.000000 0.526268 0.140291
0.289860 0.531365 0.135164
0.426368 0.533623 0.088533
0.556512 0.540490 0.000000
0.704189 0.561212 0.000000
0.000000 0.732998 0.167269
0.000000 0.735561 0.173495
0.000000 0.738399 0.186252
0.000000 0.738888 0.202274
0.257755 0.739590 0.225956
0.446387 0.742092 0.211490
0.601709 0.746273 0.131563
0.768643 0.763546 0.000000
0.000000 0.905364 0.468391
0.000000 0.903868 0.465919
0.000000 0.904448 0.472450
0.192203 0.903593 0.480140
0.383856 0.904784 0.497383
0.530175 0.908934 0.525811
0.652949 0.915496 0.514488
0.785458 0.923369 0.488746
0.024231 0.081880 0.124971
0.045777 0.074922 0.125704
0.111482 0.062013 0.129244
0.158022 0.087709 0.143404
0.247105 0.063569 0.160037
0.341283 0.038911 0.166781
0.535119 0.000000 0.173312
0.748959 0.000000 0.185519
0.046967 0.084138 0.128969
0.073701 0.085634 0.130068
0.115267 0.091402 0.134676
0.169833 0.097688 0.150820
0.257420 0.090364 0.162417
0.360845 0.068025 0.166690
0.555962 0.000000 0.177249
0.763546 0.000000 0.188663
0.058320 0.130495 0.141787
0.080385 0.131350 0.143160
0.120119 0.134188 0.147616
0.185550 0.139925 0.152895
0.258030 0.148135 0.160220
0.353246 0.160006 0.170413
0.546380 0.174899 0.176944
0.754635 0.195651 0.184848
0.000000 0.206577 0.163027
0.000000 0.207065 0.163027
0.109621 0.209598 0.165499
0.181308 0.214511 0.164462
0.249760 0.212680 0.161929
0.336400 0.235782 0.179019
0.526604 0.285710 0.176425
0.737453 0.332067 0.175357
0.000000 0.306432 0.191470
0.000000 0.307591 0.192081
0.027527 0.310704 0.194369
0.175509 0.313756 0.198154
0.269505 0.327306 0.186709
0.365393 0.328893 0.169711
0.537743 0.395026 0.159213
0.718471 0.453773 0.156039
0.000000 0.537865 0.177676
0.000000 0.536889 0.178042
0.000000 0.538994 0.179599
0.000000 0.542077 0.182223
0.286931 0.546044 0.182559
0.437293 0.545495 0.147707
0.568139 0.542992 0.091768
0.718807 0.562676 0.000000
0.000000 0.734127 0.247227
0.000000 0.736141 0.252415
0.000000 0.740322 0.265721
0.000000 0.742763 0.282292
0.266300 0.744289 0.303258
0.450874 0.744289 0.293065
0.601434 0.742977 0.223301
0.766781 0.755856 0.100771
0.000000 0.906950 0.507530
0.000000 0.908110 0.511070
0.000000 0.908843 0.516747
0.227665 0.905760 0.518090
0.399207 0.906859 0.532799
0.535851 0.908476 0.552605
0.655116 0.913603 0.541680
0.786191 0.921263 0.514641
0.033051 0.088289 0.192935
0.071962 0.084871 0.190127
0.126162 0.072908 0.190463
0.174472 0.081666 0.198611
0.237980 0.091157 0.219272
0.322057 0.093294 0.243778
0.553246 0.000000 0.311009
0.791592 0.000000 0.334264
0.070039 0.091829 0.191775
0.089876 0.091859 0.191989
0.128237 0.091859 0.194583
0.176120 0.094240 0.200931
0.238926 0.103578 0.220310
0.331090 0.104768 0.248112
0.566918 0.000000 0.311254
0.801328 0.000000 0.325750
0.054719 0.145357 0.214969
0.074067 0.142000 0.215946
0.128847 0.137972 0.217899
0.190402 0.139223 0.221317
0.245304 0.153140 0.230777
0.365789 0.144289 0.257237
0.580255 0.000000 0.280461
0.807065 0.000000 0.268559
0.004578 0.214725 0.231876
0.049714 0.215854 0.233341
0.130495 0.218021 0.236820
0.194491 0.218509 0.239536
0.273228 0.224765 0.245304
0.419074 0.233097 0.250401
0.614496 0.244175 0.253910
0.797787 0.263951 0.267094
0.000000 0.313848 0.260044
0.000000 0.316381 0.260777
0.000000 0.322148 0.258701
0.163882 0.323888 0.252171
0.277470 0.331182 0.245640
0.403296 0.342657 0.231449
0.571618 0.392676 0.240421
0.761410 0.435828 0.255161
0.000000 0.542504 0.281193
0.000000 0.534752 0.272526
0.000000 0.540734 0.258335
0.000000 0.542199 0.263035
0.267369 0.544610 0.269902
0.443305 0.548547 0.238285
0.581903 0.532647 0.198978
0.743862 0.561395 0.206607
0.000000 0.741024 0.377935
0.000000 0.740383 0.377569
0.000000 0.740078 0.381353
0.000000 0.739681 0.388861
0.277012 0.740627 0.403418
0.459327 0.741665 0.407263
0.607202 0.742153 0.350256
0.776150 0.752407 0.270756
0.000000 0.904265 0.559564
0.000000 0.904662 0.560967
0.000000 0.905547 0.565881
0.257176 0.905974 0.572686
0.414679 0.907622 0.585016
0.546532 0.909361 0.599969
0.662745 0.912718 0.593042
0.788754 0.917906 0.560235
0.087068 0.089540 0.275212
0.104097 0.086732 0.271855
0.144869 0.081239 0.271153
0.192752 0.074342 0.268376
0.245884 0.085817 0.277562
0.325566 0.096559 0.309117
0.464851 0.013886 0.375830
0.741665 0.000000 0.479957
0.093233 0.098085 0.275456
0.105348 0.097017 0.272740
0.143801 0.095460 0.272465
0.194125 0.091768 0.271885
0.248325 0.098756 0.280919
0.329503 0.109804 0.313024
0.477913 0.027771 0.383307
0.751339 0.000000 0.480568
0.057649 0.144808 0.294621
0.090852 0.144320 0.294072
0.141756 0.143099 0.294194
0.201205 0.139651 0.292271
0.262974 0.147066 0.300481
0.360906 0.154421 0.341222
0.544549 0.055238 0.417121
0.798276 0.000000 0.483497
0.000000 0.258152 0.349706
0.024506 0.255863 0.349584
0.130831 0.241581 0.345281
0.205539 0.222171 0.336400
0.286198 0.217136 0.333379
0.404578 0.215976 0.370520
0.639429 0.164248 0.436255
0.840848 0.183932 0.471260
0.000000 0.369177 0.393439
0.000000 0.368902 0.393194
0.000000 0.370886 0.395941
0.145571 0.371130 0.398352
0.322911 0.365240 0.397253
0.512840 0.385443 0.415442
0.683558 0.412543 0.440101
0.836057 0.452796 0.479622
0.000000 0.596490 0.477974
0.000000 0.596612 0.477424
0.000000 0.601190 0.479316
0.000000 0.601526 0.476600
0.323339 0.598383 0.476081
0.486152 0.582544 0.434455
0.638941 0.554284 0.378668
0.780117 0.586023 0.443244
0.000000 0.762264 0.539513
0.000000 0.764004 0.542077
0.000000 0.767025 0.546715
0.000000 0.764767 0.548730
0.348882 0.761501 0.555200
0.504936 0.760250 0.561273
0.637690 0.758755 0.516533
0.793759 0.749477 0.454932
0.000000 0.923369 0.650385
0.000000 0.923796 0.652430
0.165743 0.924773 0.659113
0.323827 0.920226 0.660975
0.452094 0.919921 0.666346
0.573938 0.920012 0.674495
0.688289 0.921569 0.674861
0.810208 0.925902 0.644984
0.121035 0.069886 0.404273
0.133730 0.068940 0.399969
0.179110 0.055634 0.402686
0.234836 0.033906 0.395727
0.293858 0.005859 0.390753
0.376196 0.000000 0.419898
0.514275 0.000000 0.489052
0.685054 0.000000 0.564080
0.122560 0.089723 0.441352
0.139132 0.088350 0.441108
0.189609 0.079133 0.438727
0.251102 0.050935 0.429084
0.310948 0.016327 0.414649
0.394354 0.000000 0.439918
0.533410 0.000000 0.505577
0.700343 0.000000 0.574121
0.015869 0.146975 0.466682
0.092836 0.145815 0.467109
0.172335 0.141421 0.464729
0.256809 0.131075 0.464118
0.326299 0.113832 0.442023
0.415961 0.104768 0.464729
0.555871 0.000000 0.522728
0.716548 0.000000 0.579736
0.000000 0.239506 0.537102
0.000000 0.233310 0.538842
0.000000 0.228428 0.534752
0.226169 0.213260 0.512383
0.335912 0.191775 0.483467
0.440345 0.178195 0.494057
0.584314 0.148989 0.539513
0.740841 0.144594 0.585138
0.000000 0.490120 0.633661
0.000000 0.490852 0.634485
0.000000 0.488472 0.634607
0.230472 0.449256 0.616205
0.353399 0.376226 0.591577
0.504295 0.349218 0.574029
0.638087 0.376226 0.591913
0.821378 0.426795 0.641260
0.000000 0.632044 0.657404
0.000000 0.628656 0.654261
0.000000 0.628870 0.655604
0.226444 0.627527 0.656428
0.405524 0.622644 0.654994
0.532708 0.599084 0.636805
0.687953 0.610346 0.646113
0.846952 0.632929 0.666743
0.000000 0.776577 0.687892
0.000000 0.775051 0.686244
0.000000 0.775784 0.687282
0.256016 0.776761 0.688533
0.410376 0.776425 0.687556
0.544610 0.772000 0.685298
0.666194 0.764584 0.659449
0.816800 0.745235 0.612512
0.206455 0.931853 0.754086
0.232334 0.932799 0.755367
0.297459 0.934020 0.756313
0.377996 0.933684 0.753933
0.489906 0.933227 0.756191
0.612696 0.930694 0.763729
0.721462 0.928252 0.766445
0.832914 0.930022 0.734524
0.207126 0.000000 0.688594
0.223331 0.000000 0.687831
0.277684 0.000000 0.684382
0.353002 0.000000 0.675563
0.433814 0.000000 0.660212
0.515221 0.000000 0.651270
0.616205 0.000000 0.668727
0.752377 0.000000 0.707057
0.199741 0.000000 0.694392
0.216953 0.000000 0.693629
0.273594 0.000000 0.690028
0.352117 0.000000 0.681727
0.434913 0.000000 0.665492
0.517266 0.000000 0.654932
0.619287 0.000000 0.671809
0.755764 0.000000 0.709438
0.137026 0.143923 0.715663
0.166354 0.141024 0.714870
0.246555 0.128267 0.710872
0.341588 0.094118 0.701991
0.436011 0.000000 0.685267
0.524865 0.000000 0.669398
0.631464 0.000000 0.684504
0.769162 0.000000 0.718318
0.000000 0.252506 0.750484
0.000000 0.251164 0.750668
0.072358 0.241978 0.746365
0.293736 0.221622 0.737179
0.425177 0.181674 0.719997
0.533867 0.102632 0.694362
0.652064 0.031250 0.706538
0.788693 0.115602 0.732815
0.173892 0.533654 0.791440
0.180606 0.527855 0.790738
0.205173 0.502281 0.787716
0.281987 0.458442 0.779690
0.416876 0.416327 0.762753
0.540093 0.341955 0.733700
0.670436 0.347875 0.732570
0.801755 0.392889 0.750668
0.369390 0.729061 0.829862
0.380102 0.729397 0.830106
0.421729 0.730465 0.831113
0.489448 0.731838 0.832853
0.540215 0.698695 0.817685
0.575769 0.621271 0.787625
0.684291 0.580804 0.763088
0.812436 0.596124 0.776120
0.335119 0.824887 0.838285
0.346044 0.824857 0.838376
0.387274 0.824643 0.838773
0.454871 0.823880 0.839292
0.540459 0.821408 0.839078
0.635492 0.813748 0.835142
0.727077 0.788266 0.816495
0.885313 0.803220 0.829618
0.424323 0.940642 0.863401
0.432288 0.940673 0.863462
0.464424 0.940703 0.863767
0.521477 0.940642 0.864317
0.597223 0.940154 0.864958
0.682948 0.938598 0.865202
0.775784 0.934264 0.865782
0.863859 0.930785 0.841917
0.307378 0.000000 0.874907
0.319402 0.000000 0.874510
0.365057 0.000000 0.872740
0.438209 0.000000 0.868833
0.525963 0.000000 0.861784
0.619257 0.000000 0.849790
0.717433 0.000000 0.850492
0.829343 0.000000 0.861875
0.300420 0.000000 0.877470
0.313024 0.000000 0.877073
0.360357 0.000000 0.875242
0.434852 0.000000 0.871305
0.524376 0.000000 0.864164
0.619196 0.000000 0.852079
0.718257 0.000000 0.852140
0.830900 0.000000 0.863279
0.261448 0.156008 0.887816
0.276890 0.153170 0.887388
0.333776 0.138064 0.885435
0.418463 0.096284 0.881285
0.516258 0.000000 0.873808
0.617731 0.000000 0.861448
0.721248 0.000000 0.858640
0.836790 0.000000 0.868833
0.172366 0.307530 0.904967
0.200961 0.305852 0.904540
0.283726 0.298344 0.902525
0.388891 0.280735 0.898283
0.500572 0.245396 0.890715
0.612940 0.167422 0.878233
0.725154 0.000000 0.870085
0.845792 0.148196 0.878355
0.277531 0.540795 0.923461
0.286992 0.537591 0.923033
0.323369 0.523186 0.921233
0.402655 0.503899 0.917357
0.503502 0.475563 0.910460
0.612116 0.423468 0.898802
0.727749 0.347723 0.883848
0.854887 0.391638 0.890227
0.556146 0.786435 0.939300
0.558831 0.784787 0.939086
0.569726 0.776913 0.937896
0.560021 0.745815 0.936553
0.555108 0.689662 0.933165
0.632319 0.646082 0.922942
0.733913 0.574548 0.904479
0.865263 0.578119 0.904875
0.635798 0.888426 0.947204
0.640620 0.888640 0.947265
0.660700 0.889464 0.947601
0.698726 0.891386 0.948241
0.752682 0.894926 0.949218
0.781613 0.879393 0.946166
0.774838 0.806363 0.935332
0.879240 0.757351 0.922118
0.651911 0.948699 0.947845
0.656245 0.948638 0.947906
0.674098 0.948363 0.948150
0.707912 0.947814 0.948669
0.755917 0.946960 0.949432
0.812406 0.945708 0.950378
0.867002 0.943633 0.950805
0.906889 0.934264 0.945068
