20 Preset/Human Style/【3】LUT video cho PR-AE-FCPX/Joe-Allam/JA – Faded Soft 3.cube
# Created by Adobe Lightroom plugin Export LUT (1.24.0)
# www.johnrellis.com/lightroom/exportlut.htm
# Preset: JA – Faded Soft 3
# Color profile: E:\lut插件\exportlut.1.24\exportlut.lrplugin\color profiles\Rec709gamma2.4.icc
LUT_3D_SIZE 32
DOMAIN_MIN 0.0 0.0 0.0
DOMAIN_MAX 1.0 1.0 1.0
0.074342 0.085328 0.095247
0.074342 0.085328 0.095247
0.074342 0.085328 0.095247
0.074342 0.085328 0.095247
0.091951 0.084627 0.095094
0.150851 0.072602 0.098512
0.190921 0.056367 0.101595
0.231449 0.031830 0.105074
0.273716 0.000000 0.108766
0.316533 0.000000 0.112032
0.358404 0.000000 0.112154
0.400366 0.000000 0.112490
0.444678 0.000000 0.111788
0.493385 0.000000 0.109712
0.547051 0.000000 0.104707
0.606165 0.016144 0.095552
0.669612 0.045533 0.078859
0.732876 0.086061 0.032410
0.791806 0.106416 0.000000
0.843687 0.126375 0.000000
0.890074 0.146120 0.000000
0.926390 0.164187 0.000000
0.954620 0.178500 0.000000
0.979278 0.191379 0.000000
1.000000 0.201999 0.000000
1.000000 0.211612 0.000000
1.000000 0.220462 0.000000
1.000000 0.228702 0.000000
1.000000 0.236484 0.000000
1.000000 0.244541 0.000000
1.000000 0.252689 0.000000
1.000000 0.261662 0.079469
0.074342 0.085328 0.095247
0.074342 0.085328 0.095247
0.074342 0.085328 0.095247
0.074342 0.085328 0.095247
0.093202 0.084321 0.095857
0.151186 0.072358 0.098512
0.190311 0.056825 0.102327
0.230564 0.030549 0.105165
0.272679 0.000000 0.108827
0.314977 0.000000 0.111269
0.356542 0.000000 0.111696
0.398291 0.000000 0.111818
0.442481 0.000000 0.111452
0.490913 0.000000 0.109377
0.544091 0.006928 0.104097
0.602747 0.028504 0.095064
0.666163 0.056977 0.077272
0.729244 0.091829 0.032959
0.788754 0.111025 0.000000
0.840909 0.129702 0.000000
0.887022 0.148043 0.000000
0.923217 0.165255 0.000000
0.951476 0.179263 0.000000
0.976104 0.191653 0.000000
0.998383 0.201846 0.000000
1.000000 0.211490 0.000000
1.000000 0.220218 0.000000
1.000000 0.228305 0.000000
1.000000 0.236210 0.000000
1.000000 0.243961 0.000000
1.000000 0.251926 0.000000
1.000000 0.260777 0.066804
0.074342 0.085328 0.095247
0.074342 0.085328 0.095247
0.074342 0.085328 0.095247
0.074342 0.085328 0.095247
0.101900 0.082521 0.095827
0.154940 0.071107 0.098817
0.193118 0.055573 0.101869
0.232303 0.029725 0.105104
0.273930 0.011322 0.108186
0.316045 0.005646 0.108370
0.357122 0.005249 0.109407
0.398505 0.011810 0.109743
0.442237 0.023499 0.108919
0.490242 0.036439 0.106081
0.543145 0.056458 0.101076
0.601648 0.079530 0.092409
0.664759 0.096620 0.069062
0.727993 0.111604 0.022339
0.787289 0.126284 0.000000
0.839414 0.143709 0.000000
0.885710 0.159976 0.000000
0.921721 0.174411 0.000000
0.949920 0.187320 0.000000
0.974548 0.197940 0.000000
0.996796 0.207797 0.000000
1.000000 0.216342 0.000000
1.000000 0.224643 0.000000
1.000000 0.232120 0.000000
1.000000 0.239322 0.000000
1.000000 0.246891 0.000000
1.000000 0.254551 0.000000
1.000000 0.263096 0.056031
0.074342 0.085328 0.095247
0.074342 0.085328 0.095247
0.074342 0.085328 0.095247
0.074342 0.085328 0.095247
0.120912 0.080507 0.096681
0.162966 0.078859 0.098116
0.198947 0.078340 0.100587
0.237552 0.076661 0.101717
0.278202 0.074006 0.103243
0.319188 0.073335 0.103975
0.359625 0.077760 0.104524
0.400580 0.084993 0.104067
0.443946 0.092653 0.102876
0.491676 0.099489 0.100618
0.544091 0.107118 0.095064
0.601984 0.118013 0.081788
0.664363 0.128786 0.049042
0.726711 0.141024 0.000916
0.785458 0.153780 0.000000
0.837797 0.166629 0.000000
0.883085 0.180209 0.000000
0.918517 0.192172 0.000000
0.946807 0.202243 0.000000
0.971649 0.211215 0.000000
0.994385 0.219516 0.000000
1.000000 0.227298 0.000000
1.000000 0.234287 0.000000
1.000000 0.240940 0.000000
1.000000 0.247410 0.000000
1.000000 0.254093 0.000000
1.000000 0.260716 0.000000
1.000000 0.268589 0.034943
0.028901 0.118166 0.096254
0.025086 0.119142 0.095705
0.023621 0.120302 0.096284
0.065095 0.123629 0.093812
0.125795 0.123934 0.095430
0.166567 0.120790 0.095369
0.203159 0.119142 0.096223
0.242313 0.118837 0.096132
0.282811 0.118746 0.096834
0.323003 0.120058 0.095796
0.362737 0.121523 0.095613
0.403265 0.125124 0.094514
0.446448 0.130617 0.092836
0.493812 0.137087 0.089693
0.545861 0.145480 0.080598
0.604242 0.154696 0.051942
0.666316 0.165377 0.012146
0.728450 0.176272 0.000000
0.786618 0.186465 0.000000
0.839139 0.197360 0.000000
0.882841 0.207980 0.000000
0.917418 0.217136 0.000000
0.945373 0.224826 0.000000
0.970275 0.231388 0.000000
0.993103 0.238041 0.000000
1.000000 0.243961 0.000000
1.000000 0.249516 0.000000
1.000000 0.254612 0.000000
1.000000 0.259739 0.000000
1.000000 0.265354 0.000000
1.000000 0.270878 0.000000
1.000000 0.277562 0.008972
0.000000 0.154360 0.098421
0.000000 0.154665 0.097536
0.000000 0.155184 0.096010
0.081971 0.156832 0.092134
0.127596 0.157839 0.092897
0.164309 0.157748 0.096742
0.207156 0.160159 0.093568
0.246281 0.159060 0.093294
0.285954 0.159579 0.092164
0.325414 0.161257 0.091249
0.364782 0.162997 0.090394
0.405341 0.166537 0.088380
0.448890 0.171054 0.084443
0.496468 0.177646 0.074250
0.549157 0.185885 0.051423
0.607660 0.194858 0.019562
0.669795 0.205020 0.000000
0.731472 0.214908 0.000000
0.788754 0.224674 0.000000
0.841276 0.233738 0.000000
0.883604 0.241764 0.000000
0.917540 0.247837 0.000000
0.961730 0.260563 0.000000
0.985504 0.264897 0.000000
1.000000 0.268956 0.000000
1.000000 0.272648 0.000000
1.000000 0.276310 0.000000
1.000000 0.279698 0.000000
1.000000 0.283635 0.000000
1.000000 0.287633 0.000000
1.000000 0.292241 0.000000
1.000000 0.297429 0.050935
0.000000 0.192660 0.094179
0.000000 0.192874 0.093660
0.028534 0.193362 0.092714
0.101503 0.194644 0.088106
0.139284 0.195621 0.087861
0.174380 0.196811 0.090974
0.208682 0.197696 0.096101
0.255894 0.205142 0.086152
0.295445 0.204410 0.084108
0.334112 0.203708 0.081666
0.373297 0.205753 0.076783
0.414862 0.209537 0.067903
0.459663 0.214450 0.056794
0.508598 0.220981 0.039063
0.562554 0.228916 0.009735
0.621668 0.238529 0.000000
0.683101 0.248295 0.000000
0.743038 0.257816 0.000000
0.800656 0.267124 0.000000
0.852049 0.274998 0.000000
0.893248 0.281163 0.000000
0.926452 0.285222 0.000000
0.954314 0.288609 0.000000
0.979553 0.291814 0.000000
1.000000 0.294316 0.000000
1.000000 0.296605 0.000000
1.000000 0.298528 0.000000
1.000000 0.300481 0.000000
1.000000 0.302800 0.000000
1.000000 0.305272 0.000000
1.000000 0.308659 0.000000
1.000000 0.312596 0.029145
0.036378 0.230320 0.083894
0.048005 0.230198 0.084565
0.089662 0.230991 0.079774
0.121401 0.231754 0.070924
0.153719 0.232578 0.072419
0.185794 0.233799 0.078767
0.218753 0.235172 0.085542
0.251957 0.236667 0.092103
0.298711 0.245335 0.075563
0.337987 0.245457 0.060151
0.377111 0.246006 0.049928
0.418128 0.247990 0.036927
0.463142 0.252506 0.021118
0.512230 0.259709 0.000000
0.566339 0.268284 0.000000
0.624872 0.278386 0.000000
0.685389 0.288121 0.000000
0.745327 0.297887 0.000000
0.803220 0.306767 0.000000
0.851652 0.312993 0.000000
0.891051 0.316503 0.000000
0.923400 0.318975 0.000000
0.950958 0.320531 0.000000
0.976104 0.321721 0.000000
0.998932 0.322667 0.000000
1.000000 0.323278 0.000000
1.000000 0.323674 0.000000
1.000000 0.323888 0.000000
1.000000 0.324987 0.000000
1.000000 0.326207 0.000000
1.000000 0.328252 0.000000
1.000000 0.331029 0.010864
0.106508 0.268650 0.054871
0.110811 0.268498 0.051423
0.123873 0.268894 0.046448
0.147036 0.269078 0.041718
0.172183 0.269902 0.043122
0.200595 0.271092 0.044984
0.231052 0.272374 0.053285
0.263127 0.273930 0.062989
0.295842 0.275547 0.071168
0.341619 0.284459 0.042756
0.383429 0.287297 0.010101
0.425238 0.289891 0.000000
0.470222 0.293858 0.000000
0.518914 0.299382 0.000000
0.573236 0.308202 0.000000
0.631617 0.318639 0.000000
0.692317 0.329412 0.000000
0.752590 0.339452 0.000000
0.807034 0.346868 0.000000
0.852659 0.351080 0.000000
0.890135 0.353460 0.000000
0.921386 0.353826 0.000000
0.948486 0.353552 0.000000
0.973388 0.353277 0.000000
0.996155 0.352758 0.000000
1.000000 0.351751 0.000000
1.000000 0.350744 0.000000
1.000000 0.349889 0.000000
1.000000 0.349523 0.000000
1.000000 0.349523 0.000000
1.000000 0.350256 0.000000
1.000000 0.351843 0.000000
0.131258 0.306584 0.055879
0.135500 0.306523 0.054505
0.146273 0.306493 0.048981
0.166506 0.306462 0.044556
0.189242 0.306859 0.039551
0.214939 0.308019 0.033173
0.243565 0.309056 0.033509
0.274388 0.310704 0.032227
0.306706 0.312535 0.032319
0.339605 0.314488 0.031678
0.387121 0.325597 0.000000
0.433509 0.331548 0.000000
0.479255 0.336858 0.000000
0.528801 0.343389 0.000000
0.583062 0.351659 0.000000
0.641810 0.361089 0.000000
0.702693 0.372259 0.000000
0.760281 0.381231 0.000000
0.811765 0.387396 0.000000
0.854551 0.390173 0.000000
0.890043 0.390478 0.000000
0.919707 0.388739 0.000000
0.945861 0.386908 0.000000
0.970092 0.384894 0.000000
0.992279 0.382788 0.000000
1.000000 0.380621 0.000000
1.000000 0.378515 0.000000
1.000000 0.376410 0.000000
1.000000 0.374823 0.000000
1.000000 0.373877 0.000000
1.000000 0.373571 0.000000
1.000000 0.374060 0.000000
0.150881 0.344915 0.056428
0.154086 0.344854 0.053925
0.162936 0.345098 0.050080
0.181216 0.344915 0.044800
0.204166 0.345006 0.037751
0.228214 0.346380 0.033661
0.256352 0.347875 0.026612
0.286900 0.349584 0.023011
0.318883 0.351873 0.020874
0.353155 0.354589 0.015534
0.387732 0.357214 0.010834
0.439429 0.371466 0.000000
0.492134 0.381323 0.000000
0.544793 0.390326 0.000000
0.601190 0.400458 0.000000
0.658808 0.410101 0.000000
0.715023 0.417853 0.000000
0.767666 0.422950 0.000000
0.815427 0.427375 0.000000
0.855619 0.428412 0.000000
0.889250 0.426856 0.000000
0.917754 0.423926 0.000000
0.943603 0.420630 0.000000
0.967590 0.417212 0.000000
0.989715 0.413825 0.000000
1.000000 0.410742 0.000000
1.000000 0.407630 0.000000
1.000000 0.404608 0.000000
1.000000 0.401862 0.000000
1.000000 0.399725 0.000000
1.000000 0.398535 0.000000
1.000000 0.398016 0.000000
0.169711 0.387732 0.046052
0.172641 0.387732 0.043397
0.181949 0.387884 0.039490
0.198001 0.387884 0.029206
0.221103 0.387304 0.022461
0.244602 0.388800 0.017090
0.272404 0.391150 0.006561
0.302434 0.393103 0.004456
0.335210 0.395575 0.000000
0.369574 0.398871 0.000000
0.406409 0.402930 0.000000
0.445075 0.407904 0.000000
0.523308 0.442267 0.000000
0.587274 0.457923 0.000000
0.646571 0.468330 0.000000
0.702327 0.475685 0.000000
0.754147 0.480018 0.000000
0.800259 0.481117 0.000000
0.839536 0.478645 0.000000
0.873167 0.474617 0.000000
0.902617 0.470619 0.000000
0.928435 0.465797 0.000000
0.952605 0.460670 0.000000
0.975006 0.455482 0.000000
0.995697 0.450446 0.000000
1.000000 0.445533 0.000000
1.000000 0.440925 0.000000
1.000000 0.436683 0.000000
1.000000 0.432776 0.000000
1.000000 0.429572 0.000000
1.000000 0.427039 0.000000
1.000000 0.425605 0.000000
0.194156 0.441749 0.015686
0.195987 0.441840 0.012879
0.204379 0.441718 0.007446
0.220462 0.441352 0.000000
0.242649 0.439979 0.000000
0.266697 0.440742 0.000000
0.293797 0.442939 0.000000
0.325566 0.446448 0.000000
0.360113 0.450294 0.000000
0.397284 0.455573 0.000000
0.437476 0.462074 0.000000
0.480720 0.469825 0.000000
0.525689 0.478004 0.000000
0.594141 0.502434 0.000000
0.658625 0.516991 0.000000
0.714534 0.523980 0.000000
0.762966 0.525841 0.000000
0.804715 0.523919 0.000000
0.840848 0.519127 0.000000
0.872099 0.512413 0.000000
0.899229 0.504662 0.000000
0.924346 0.497688 0.000000
0.948150 0.492287 0.000000
0.970459 0.486824 0.000000
0.991180 0.481086 0.000000
1.000000 0.475135 0.000000
1.000000 0.469703 0.000000
1.000000 0.464668 0.000000
1.000000 0.460151 0.000000
1.000000 0.456336 0.000000
1.000000 0.453071 0.000000
1.000000 0.450813 0.000000
0.218936 0.498939 0.000000
0.220706 0.498726 0.000000
0.228428 0.498299 0.000000
0.244266 0.497902 0.000000
0.265263 0.496895 0.000000
0.291447 0.496590 0.000000
0.318517 0.499123 0.000000
0.349828 0.502525 0.000000
0.384497 0.506249 0.000000
0.422217 0.511254 0.000000
0.462593 0.517601 0.000000
0.506096 0.525048 0.000000
0.552148 0.533379 0.000000
0.598993 0.541222 0.000000
0.664546 0.562219 0.000000
0.722621 0.570947 0.000000
0.770382 0.571527 0.000000
0.808499 0.566613 0.000000
0.842100 0.559594 0.000000
0.871427 0.551019 0.000000
0.897398 0.541833 0.000000
0.921782 0.532799 0.000000
0.944854 0.524224 0.000000
0.966888 0.517388 0.000000
0.987549 0.511284 0.000000
1.000000 0.505180 0.000000
1.000000 0.498970 0.000000
1.000000 0.493080 0.000000
1.000000 0.487861 0.000000
1.000000 0.483619 0.000000
1.000000 0.479713 0.000000
1.000000 0.476692 0.000000
0.245274 0.560266 0.000000
0.247776 0.560174 0.000000
0.255253 0.559564 0.000000
0.269932 0.558770 0.000000
0.290684 0.557183 0.000000
0.316960 0.555016 0.000000
0.343755 0.557000 0.000000
0.374884 0.559869 0.000000
0.409522 0.563592 0.000000
0.446815 0.567926 0.000000
0.487068 0.573388 0.000000
0.530053 0.579889 0.000000
0.575067 0.586969 0.000000
0.621393 0.594232 0.000000
0.667475 0.600183 0.000000
0.724910 0.613977 0.000000
0.772702 0.614771 0.000000
0.811765 0.609461 0.000000
0.842863 0.600153 0.000000
0.870481 0.589593 0.000000
0.895781 0.579065 0.000000
0.919738 0.569116 0.000000
0.942382 0.559442 0.000000
0.963836 0.550042 0.000000
0.984009 0.541131 0.000000
1.000000 0.534447 0.000000
1.000000 0.528099 0.000000
1.000000 0.521721 0.000000
1.000000 0.516014 0.000000
1.000000 0.511162 0.000000
1.000000 0.507164 0.000000
1.000000 0.503655 0.000000
0.272709 0.617121 0.000000
0.273869 0.617212 0.000000
0.281559 0.616785 0.000000
0.295689 0.616358 0.000000
0.315648 0.615198 0.000000
0.342138 0.613153 0.000000
0.369146 0.614252 0.000000
0.400092 0.617060 0.000000
0.433875 0.620630 0.000000
0.470649 0.624140 0.000000
0.509667 0.628107 0.000000
0.550744 0.632441 0.000000
0.593439 0.637201 0.000000
0.636744 0.641688 0.000000
0.680995 0.646021 0.000000
0.723140 0.648341 0.000000
0.769711 0.653651 0.000000
0.808957 0.648463 0.000000
0.841672 0.639155 0.000000
0.868589 0.627466 0.000000
0.893675 0.616022 0.000000
0.917418 0.605005 0.000000
0.939910 0.594507 0.000000
0.961151 0.584405 0.000000
0.981262 0.574640 0.000000
1.000000 0.565362 0.000000
1.000000 0.557031 0.000000
1.000000 0.550530 0.000000
1.000000 0.544305 0.000000
1.000000 0.538781 0.000000
1.000000 0.534264 0.000000
1.000000 0.530297 0.000000
0.296849 0.666987 0.000000
0.298985 0.666865 0.000000
0.305974 0.666499 0.000000
0.318395 0.666133 0.000000
0.337682 0.665339 0.000000
0.362860 0.663447 0.000000
0.390204 0.663050 0.000000
0.419348 0.664942 0.000000
0.451881 0.667353 0.000000
0.486702 0.670039 0.000000
0.523888 0.672663 0.000000
0.562646 0.675349 0.000000
0.603113 0.678309 0.000000
0.644068 0.680995 0.000000
0.685359 0.683497 0.000000
0.727047 0.685756 0.000000
0.766049 0.685695 0.000000
0.804105 0.684962 0.000000
0.837217 0.676081 0.000000
0.865934 0.664759 0.000000
0.891539 0.652644 0.000000
0.914916 0.640803 0.000000
0.937072 0.629511 0.000000
0.958129 0.618555 0.000000
0.978088 0.608026 0.000000
0.997070 0.598016 0.000000
1.000000 0.588556 0.000000
1.000000 0.579706 0.000000
1.000000 0.572473 0.000000
1.000000 0.566644 0.000000
1.000000 0.561517 0.000000
1.000000 0.557336 0.000000
0.320226 0.708278 0.000000
0.322087 0.708309 0.000000
0.334081 0.718257 0.000000
0.345769 0.717800 0.000000
0.364233 0.716976 0.000000
0.387152 0.715450 0.000000
0.414984 0.713588 0.000000
0.442023 0.714382 0.000000
0.472145 0.715602 0.000000
0.505303 0.716976 0.000000
0.540490 0.718227 0.000000
0.576837 0.719387 0.000000
0.614588 0.720394 0.000000
0.652979 0.721157 0.000000
0.691646 0.721767 0.000000
0.730495 0.722225 0.000000
0.769162 0.722316 0.000000
0.804807 0.719997 0.000000
0.835782 0.714260 0.000000
0.864897 0.703548 0.000000
0.891051 0.691188 0.000000
0.915007 0.678492 0.000000
0.936522 0.665949 0.000000
0.956878 0.653925 0.000000
0.976257 0.642267 0.000000
0.994751 0.631373 0.000000
1.000000 0.621027 0.000000
1.000000 0.611414 0.000000
1.000000 0.602655 0.000000
1.000000 0.594598 0.000000
1.000000 0.588708 0.000000
1.000000 0.584131 0.000000
0.341924 0.743069 0.000000
0.343633 0.743771 0.000000
0.349584 0.744350 0.000000
0.360967 0.744625 0.000000
0.377508 0.744442 0.000000
0.398901 0.743374 0.000000
0.425116 0.741573 0.000000
0.450782 0.741390 0.000000
0.478676 0.741970 0.000000
0.509209 0.742763 0.000000
0.541833 0.743496 0.000000
0.576165 0.744015 0.000000
0.611536 0.744411 0.000000
0.647730 0.744656 0.000000
0.684413 0.744808 0.000000
0.721431 0.744869 0.000000
0.758450 0.744808 0.000000
0.795468 0.744717 0.000000
0.829587 0.742153 0.000000
0.857786 0.735409 0.000000
0.884703 0.724483 0.000000
0.909483 0.712032 0.000000
0.932433 0.699306 0.000000
0.952728 0.686641 0.000000
0.971984 0.674556 0.000000
0.990509 0.663020 0.000000
1.000000 0.652186 0.000000
1.000000 0.642023 0.000000
1.000000 0.632868 0.000000
1.000000 0.624445 0.000000
1.000000 0.616785 0.000000
1.000000 0.610346 0.000000
0.358923 0.767453 0.000000
0.361028 0.768063 0.000000
0.366155 0.768612 0.000000
0.375860 0.768856 0.000000
0.390906 0.768673 0.000000
0.410071 0.767849 0.000000
0.434150 0.766232 0.000000
0.459297 0.765255 0.000000
0.484901 0.765530 0.000000
0.513176 0.765835 0.000000
0.543511 0.766293 0.000000
0.575525 0.766598 0.000000
0.609033 0.766720 0.000000
0.643336 0.766781 0.000000
0.678309 0.766812 0.000000
0.713619 0.766690 0.000000
0.749203 0.766506 0.000000
0.784634 0.766262 0.000000
0.820188 0.766018 0.000000
0.852537 0.763180 0.000000
0.878111 0.755276 0.094026
0.902770 0.744076 0.044129
0.926146 0.731533 0.000000
0.948180 0.718776 0.000000
0.967529 0.706172 0.000000
0.986084 0.694179 0.000000
1.000000 0.682979 0.000000
1.000000 0.672511 0.000000
1.000000 0.662898 0.000000
1.000000 0.654108 0.000000
1.000000 0.646143 0.000000
1.000000 0.638941 0.000000
0.376257 0.789609 0.009247
0.377783 0.790066 0.010803
0.382238 0.790494 0.012665
0.391394 0.790646 0.000000
0.403937 0.790524 0.000000
0.421241 0.789822 0.000000
0.442908 0.788449 0.000000
0.467567 0.786893 0.000000
0.491310 0.787015 0.000000
0.517449 0.787167 0.000000
0.545678 0.787442 0.000000
0.575830 0.787625 0.000000
0.607385 0.787625 0.000000
0.639765 0.787533 0.000000
0.672969 0.787411 0.000000
0.706752 0.787228 0.000000
0.740902 0.787076 0.011048
0.775174 0.786923 0.046296
0.809506 0.786770 0.088228
0.843900 0.786709 0.105684
0.874876 0.783932 0.129213
0.898283 0.775509 0.162722
0.920989 0.764157 0.155306
0.943297 0.751797 0.124208
0.964630 0.739376 0.063539
0.983795 0.727108 0.030854
1.000000 0.715663 0.031739
1.000000 0.704982 0.031495
1.000000 0.695186 0.038575
1.000000 0.686122 0.041688
1.000000 0.677821 0.057740
1.000000 0.670314 0.102235
0.396429 0.813230 0.129061
0.397314 0.813413 0.129671
0.401373 0.813382 0.127810
0.408759 0.813138 0.123720
0.419959 0.812711 0.116243
0.435309 0.811917 0.104494
0.454505 0.810636 0.093477
0.477394 0.809018 0.068025
0.499825 0.808621 0.059785
0.524102 0.808682 0.065492
0.550317 0.808774 0.069764
0.578576 0.808835 0.075044
0.607996 0.808743 0.085267
0.638575 0.808530 0.097566
0.670069 0.808194 0.107271
0.702205 0.807767 0.116609
0.734493 0.807340 0.127169
0.767178 0.806912 0.137148
0.799893 0.806455 0.147982
0.832609 0.806027 0.158968
0.865080 0.805539 0.169802
0.894041 0.802243 0.185672
0.914977 0.792996 0.212131
0.935698 0.781491 0.207492
0.957000 0.769100 0.183749
0.977844 0.757137 0.154177
0.997223 0.745418 0.137057
1.000000 0.734646 0.137057
1.000000 0.724605 0.137758
1.000000 0.715297 0.138705
1.000000 0.706752 0.141085
1.000000 0.698878 0.147860
0.414008 0.831601 0.173037
0.414862 0.831724 0.173342
0.418036 0.831754 0.172763
0.424598 0.831540 0.170138
0.434241 0.831144 0.165652
0.448005 0.830472 0.156771
0.465217 0.829435 0.150057
0.486152 0.828031 0.140993
0.507836 0.827115 0.135988
0.530266 0.827054 0.137270
0.554467 0.827024 0.139742
0.580529 0.827024 0.141451
0.608240 0.826902 0.143679
0.637201 0.826596 0.150240
0.666926 0.826200 0.157504
0.697261 0.825803 0.164370
0.728176 0.825345 0.172854
0.759213 0.824826 0.181491
0.790646 0.824308 0.190249
0.821927 0.823789 0.199924
0.853147 0.823270 0.210086
0.884154 0.822721 0.220920
0.911345 0.819242 0.235691
0.930571 0.809903 0.258549
0.948821 0.797421 0.251682
0.969482 0.785611 0.229923
0.990204 0.774197 0.204532
1.000000 0.763180 0.186130
1.000000 0.753017 0.185367
1.000000 0.743618 0.185641
1.000000 0.734951 0.188388
1.000000 0.727016 0.192660
0.434272 0.850126 0.218601
0.435462 0.850340 0.218845
0.438056 0.850340 0.218357
0.443549 0.850065 0.216098
0.451820 0.849546 0.210880
0.463355 0.848783 0.204990
0.478157 0.847684 0.197543
0.496284 0.846281 0.190677
0.517327 0.844724 0.182589
0.537591 0.844388 0.182834
0.559564 0.844022 0.183749
0.583764 0.843717 0.184634
0.609277 0.843381 0.186343
0.636103 0.842893 0.189578
0.663813 0.842252 0.194980
0.692378 0.841581 0.200504
0.721614 0.840879 0.207187
0.751156 0.840238 0.214725
0.780972 0.839658 0.223209
0.811032 0.839139 0.231907
0.841093 0.838682 0.241917
0.870909 0.838132 0.252720
0.900389 0.837552 0.263005
0.925963 0.833921 0.276188
0.943694 0.824613 0.297185
0.961822 0.813870 0.296971
0.981933 0.802457 0.275120
1.000000 0.791592 0.251621
1.000000 0.781033 0.229740
1.000000 0.771450 0.228794
1.000000 0.762722 0.230472
1.000000 0.754574 0.233829
0.452155 0.865080 0.253971
0.453071 0.865232 0.254490
0.455604 0.865293 0.253941
0.460395 0.865110 0.251957
0.467903 0.864744 0.248112
0.477913 0.864256 0.243198
0.491005 0.863554 0.237247
0.507805 0.862455 0.231205
0.526970 0.861234 0.225162
0.546349 0.860746 0.224338
0.566918 0.860502 0.225345
0.589136 0.860288 0.227359
0.612879 0.859953 0.228977
0.637903 0.859586 0.230777
0.664088 0.858946 0.235935
0.690974 0.858244 0.240909
0.718502 0.857511 0.247318
0.746487 0.856840 0.253849
0.774990 0.856229 0.261295
0.803616 0.855680 0.269810
0.832334 0.855192 0.279667
0.860960 0.854704 0.289433
0.889220 0.854185 0.300511
0.917174 0.853666 0.311192
0.941253 0.850126 0.324590
0.957824 0.841184 0.344762
0.974792 0.831296 0.347021
0.994476 0.820371 0.326299
1.000000 0.810361 0.303777
1.000000 0.800351 0.279606
1.000000 0.791440 0.279332
1.000000 0.782956 0.280949
0.473915 0.880735 0.294469
0.474556 0.880827 0.294804
0.476631 0.880797 0.293523
0.480568 0.880644 0.291905
0.486793 0.880339 0.288212
0.495521 0.879850 0.283482
0.506584 0.879301 0.277043
0.521172 0.878386 0.271855
0.538476 0.877256 0.266087
0.556786 0.876463 0.262821
0.575616 0.876219 0.264591
0.596185 0.875944 0.265934
0.618067 0.875669 0.267948
0.641352 0.875303 0.269749
0.665675 0.874784 0.273045
0.691005 0.874144 0.277928
0.717037 0.873411 0.283665
0.743618 0.872770 0.290532
0.770657 0.872160 0.297490
0.797971 0.871641 0.306218
0.825284 0.871183 0.315740
0.852628 0.870695 0.325566
0.879759 0.870176 0.335760
0.906554 0.869657 0.346715
0.932860 0.869078 0.357855
0.955261 0.865568 0.371313
0.970397 0.857084 0.391882
0.986145 0.847898 0.396368
1.000000 0.837491 0.375158
1.000000 0.828183 0.353643
1.000000 0.818540 0.329534
1.000000 0.809689 0.324712
0.497047 0.895750 0.333745
0.497566 0.895811 0.333959
0.499336 0.895811 0.333501
0.502739 0.895720 0.331731
0.508080 0.895567 0.328771
0.515587 0.895354 0.324620
0.525780 0.895171 0.320195
0.538842 0.894743 0.316625
0.554559 0.894224 0.312657
0.572381 0.893645 0.309117
0.590234 0.893828 0.312657
0.609613 0.893950 0.316197
0.630304 0.894011 0.319738
0.652094 0.893950 0.323095
0.674800 0.893767 0.326543
0.698512 0.893248 0.332219
0.722866 0.892638 0.338231
0.747829 0.892027 0.344854
0.773220 0.891447 0.353033
0.798947 0.890898 0.361639
0.824674 0.890440 0.371283
0.850462 0.889952 0.381445
0.875975 0.889433 0.391852
0.901183 0.888884 0.403235
0.925902 0.888334 0.414191
0.950134 0.887755 0.425879
0.970489 0.884398 0.439246
0.983917 0.876341 0.458595
0.997864 0.867979 0.464973
1.000000 0.858000 0.443793
1.000000 0.849241 0.423682
1.000000 0.839811 0.401221
0.531273 0.913268 0.389960
0.531609 0.913268 0.390112
0.532891 0.913207 0.389136
0.535271 0.913054 0.386725
0.539361 0.912902 0.383948
0.544976 0.912657 0.379370
0.552636 0.912383 0.373816
0.562951 0.911925 0.368383
0.575952 0.911315 0.363897
0.591119 0.910552 0.358740
0.606989 0.910246 0.359319
0.624048 0.910155 0.361669
0.642634 0.909972 0.364019
0.662226 0.909728 0.366857
