20 Preset/Human Style/【3】LUT video cho PR-AE-FCPX/Joe-Allam/JA – Static Pop 1.cube
# Created by Adobe Lightroom plugin Export LUT (1.24.0)
# www.johnrellis.com/lightroom/exportlut.htm
# Preset: JA – Static Pop 1
# Color profile: E:\lut插件\exportlut.1.24\exportlut.lrplugin\color profiles\Rec709gamma2.4.icc
LUT_3D_SIZE 5
DOMAIN_MIN 0.000000 0.000000 0.000000
DOMAIN_MAX 0.903226 0.903226 0.903226
0.100343 0.104952 0.108705
0.205692 0.077058 0.107973
0.561517 0.000000 0.038697
0.991852 0.000000 0.000000
1.000000 0.113649 0.000000
0.039033 0.196292 0.085481
0.202609 0.191958 0.083864
0.563897 0.260685 0.000000
0.985321 0.307347 0.000000
1.000000 0.289342 0.000000
0.000000 0.558587 0.000000
0.296757 0.551751 0.000000
0.573083 0.521508 0.000000
0.975830 0.584710 0.000000
1.000000 0.531334 0.000000
0.000000 0.892454 0.000000
0.326268 0.890837 0.000000
0.648463 0.869291 0.000000
0.925597 0.825681 0.000000
1.000000 0.758907 0.000000
0.170474 1.000000 0.000000
0.314611 1.000000 0.000000
0.572686 1.000000 0.000000
0.836759 0.993713 0.000000
1.000000 0.970672 0.000000
0.087495 0.118990 0.179507
0.163119 0.090303 0.187350
0.511467 0.000000 0.196475
0.957366 0.000000 0.087587
1.000000 0.000000 0.000000
0.000000 0.179385 0.188418
0.171878 0.179690 0.186160
0.528008 0.184085 0.158083
0.959106 0.200534 0.000000
1.000000 0.208591 0.000000
0.000000 0.532921 0.062959
0.163455 0.533898 0.007874
0.544182 0.499733 0.000000
0.962005 0.557275 0.000000
1.000000 0.508690 0.000000
0.000000 0.888548 0.000000
0.221042 0.887327 0.000000
0.624567 0.868650 0.000000
0.918944 0.822385 0.000000
1.000000 0.753536 0.000000
0.112490 1.000000 0.000000
0.293095 1.000000 0.000000
0.564477 1.000000 0.000000
0.831052 0.995026 0.000000
1.000000 0.971771 0.000000
0.000000 0.174380 0.513939
0.000000 0.157351 0.512535
0.435340 0.000000 0.476143
0.816403 0.000000 0.504265
1.000000 0.000000 0.449317
0.000000 0.274998 0.520989
0.000000 0.236637 0.518090
0.441505 0.026184 0.480293
0.853117 0.000000 0.503288
1.000000 0.000000 0.443458
0.000000 0.515404 0.536004
0.000000 0.508598 0.527855
0.458015 0.467842 0.479500
0.914244 0.480476 0.472206
1.000000 0.475685 0.446448
0.000000 0.871458 0.512505
0.000000 0.865904 0.505974
0.535393 0.859709 0.498054
0.886107 0.812192 0.421027
1.000000 0.754940 0.436439
0.304448 1.000000 0.538201
0.382666 1.000000 0.535241
0.585962 1.000000 0.521172
0.815854 0.992889 0.457069
1.000000 0.969635 0.326665
0.000000 0.320165 0.866392
0.000000 0.320653 0.866941
0.392309 0.000000 0.850401
0.766445 0.000000 0.803861
1.000000 0.000000 0.764401
0.000000 0.374182 0.867979
0.000000 0.354528 0.866606
0.391363 0.237858 0.852079
0.766629 0.000000 0.802670
1.000000 0.173800 0.762020
0.000000 0.637140 0.870512
0.336522 0.650690 0.869230
0.547234 0.625483 0.855985
0.779690 0.393652 0.804807
1.000000 0.536339 0.770047
0.000000 0.847257 0.859861
0.000000 0.845243 0.857023
0.521355 0.837125 0.845090
0.792874 0.782864 0.786343
1.000000 0.804654 0.799100
0.000000 1.000000 0.773129
0.321508 1.000000 0.781277
0.669306 0.993774 0.816403
0.856962 0.984680 0.830289
1.000000 0.967529 0.757382
0.390661 0.595483 0.995361
0.391394 0.595758 0.995422
0.409491 0.531823 0.998840
0.621912 0.174197 1.000000
0.962585 0.000000 0.997894
0.397894 0.598749 0.995972
0.398260 0.598962 0.996002
0.422522 0.519890 1.000000
0.632807 0.273472 1.000000
0.963806 0.000000 0.998138
0.520226 0.712306 0.990204
0.526604 0.714992 0.990082
0.683589 0.750607 0.987243
0.726650 0.630976 0.993317
0.966918 0.289158 0.994507
0.568109 0.837308 0.984680
0.627985 0.846891 0.983520
0.789334 0.881529 0.979522
0.891478 0.900206 0.977905
0.969177 0.748409 0.976287
0.365423 0.969726 0.981415
0.474098 0.970275 0.980987
0.706386 0.972107 0.979431
0.882506 0.975372 0.978363
0.969879 0.963500 0.962768
