20 Preset/Human Style/【3】LUT video cho PR-AE-FCPX/Joe-Allam/JA – Controlled Contrast 4.cube
# Created by Adobe Lightroom plugin Export LUT (1.24.0)
# www.johnrellis.com/lightroom/exportlut.htm
# Preset: JA – Controlled Contrast 4
# Color profile: E:\lut插件\exportlut.1.24\exportlut.lrplugin\color profiles\Rec709gamma2.4.icc
LUT_3D_SIZE 5
DOMAIN_MIN 0.000000 0.000000 0.000000
DOMAIN_MAX 0.903226 0.903226 0.903226
0.000000 0.000000 0.000000
0.135958 0.024475 0.041108
0.523308 0.000000 0.060609
0.867033 0.000000 0.092226
1.000000 0.000000 0.094026
0.018555 0.127993 0.047211
0.138735 0.121584 0.034455
0.546288 0.000000 0.000000
0.867582 0.000000 0.000000
1.000000 0.000000 0.000000
0.000000 0.543908 0.000000
0.292149 0.550622 0.000000
0.518914 0.455695 0.000000
0.863035 0.440162 0.000000
1.000000 0.322087 0.000000
0.000000 0.794797 0.000000
0.293339 0.796963 0.000000
0.574823 0.780972 0.000000
0.772213 0.693843 0.000000
1.000000 0.641718 0.000000
0.228183 0.978424 0.000000
0.334173 0.978058 0.000000
0.568780 0.975555 0.000000
0.787839 0.957092 0.000000
1.000000 0.916167 0.000000
0.087739 0.099428 0.128603
0.135348 0.065339 0.130220
0.483497 0.000000 0.193454
0.850614 0.000000 0.173098
1.000000 0.000000 0.120790
0.090150 0.123781 0.115023
0.140230 0.129091 0.123110
0.498787 0.000000 0.118654
0.855161 0.000000 0.093935
1.000000 0.000000 0.066590
0.000000 0.506676 0.000000
0.212894 0.518853 0.000000
0.498756 0.436896 0.000000
0.856291 0.431769 0.000000
1.000000 0.327733 0.000000
0.000000 0.787533 0.000000
0.275700 0.790433 0.000000
0.571496 0.779263 0.000000
0.772091 0.692317 0.000000
1.000000 0.641993 0.000000
0.196048 0.979156 0.000000
0.316930 0.978759 0.000000
0.562524 0.976379 0.000000
0.786313 0.958068 0.000000
1.000000 0.916564 0.000000
0.000000 0.199252 0.515740
0.000000 0.131930 0.509270
0.480446 0.000000 0.473701
0.697017 0.000000 0.428046
0.996185 0.000000 0.453681
0.000000 0.311009 0.486366
0.098787 0.267735 0.480476
0.462837 0.092775 0.452033
0.717922 0.000000 0.433875
0.990631 0.000000 0.474281
0.000000 0.417304 0.394842
0.225071 0.423011 0.404059
0.508843 0.497963 0.493629
0.756710 0.487678 0.503990
0.983459 0.507408 0.548943
0.363348 0.712459 0.516381
0.419043 0.718776 0.527031
0.587366 0.748928 0.550774
0.726589 0.680629 0.435523
1.000000 0.700649 0.512139
0.416022 0.964935 0.529503
0.450355 0.967010 0.519799
0.602808 0.968811 0.507469
0.790249 0.958679 0.403204
1.000000 0.916838 0.000000
0.300572 0.468147 0.751461
0.316289 0.440925 0.750515
0.472724 0.369787 0.741543
0.700587 0.158633 0.717403
0.883146 0.196506 0.672450
0.422583 0.545006 0.740017
0.424567 0.523278 0.739162
0.503624 0.455909 0.731991
0.694240 0.310552 0.708949
0.870817 0.311040 0.669734
0.483406 0.631495 0.719326
0.514794 0.633722 0.718624
0.578210 0.614160 0.712367
0.673793 0.523369 0.682887
0.839872 0.499245 0.665156
0.468727 0.671412 0.662226
0.495460 0.671901 0.664027
0.581170 0.678859 0.675624
0.721950 0.728237 0.732967
0.950500 0.734859 0.755154
0.509026 0.913481 0.752651
0.529412 0.917479 0.754604
0.616144 0.933867 0.763455
0.806027 0.953338 0.794339
0.962707 0.916869 0.678920
0.586267 0.697871 0.928313
0.585931 0.686030 0.928374
0.627192 0.659998 0.928771
0.725032 0.598566 0.927214
0.893187 0.486030 0.919951
0.608026 0.719387 0.922301
0.607660 0.708888 0.922637
0.634546 0.677729 0.923217
0.724666 0.618921 0.920836
0.887480 0.513970 0.913634
0.633204 0.772732 0.917174
0.645289 0.770169 0.915831
0.674434 0.749325 0.914488
0.730861 0.691768 0.910307
0.882109 0.605280 0.906188
0.629450 0.831266 0.908629
0.642237 0.830686 0.908354
0.700252 0.834470 0.912596
0.776730 0.821256 0.918883
0.896880 0.742245 0.916991
0.582910 0.903929 0.891936
0.596918 0.903075 0.891691
0.658808 0.904082 0.895293
0.767361 0.904631 0.901396
0.922515 0.929137 0.933196
