20 Preset/Human Style/【3】LUT video cho PR-AE-FCPX/Joe-Allam/JA – Night Pop 2.cube
# Created by Adobe Lightroom plugin Export LUT (1.24.0)
# www.johnrellis.com/lightroom/exportlut.htm
# Preset: JA – Night Pop 2
# Color profile: E:\lut插件\exportlut.1.24\exportlut.lrplugin\color profiles\Rec709gamma2.4.icc
LUT_3D_SIZE 8
DOMAIN_MIN 0.000000 0.000000 0.000000
DOMAIN_MAX 0.903226 0.903226 0.903226
0.046357 0.060670 0.072084
0.097078 0.052369 0.074067
0.186313 0.020996 0.067292
0.292424 0.000000 0.049226
0.495369 0.000000 0.000000
0.759121 0.000000 0.000000
0.935607 0.000000 0.000000
1.000000 0.000000 0.000000
0.012909 0.097139 0.067018
0.093202 0.094514 0.074098
0.171237 0.098909 0.089509
0.288212 0.096437 0.067597
0.498726 0.101564 0.000000
0.762203 0.091768 0.000000
0.939452 0.001221 0.000000
1.000000 0.000000 0.000000
0.005554 0.156313 0.054078
0.084901 0.155032 0.055695
0.155642 0.148806 0.074098
0.222660 0.167453 0.133059
0.404120 0.207156 0.115969
0.704646 0.258488 0.000000
0.901976 0.259586 0.000000
1.000000 0.241611 0.000000
0.000000 0.247532 0.031403
0.032685 0.247166 0.032166
0.169009 0.240635 0.041382
0.242863 0.226902 0.066072
0.347295 0.259831 0.153780
0.585718 0.350561 0.188113
0.841794 0.395117 0.126589
1.000000 0.400580 0.003449
0.000000 0.446540 0.000000
0.000000 0.445563 0.000000
0.195041 0.437079 0.000000
0.324163 0.405035 0.000000
0.415015 0.377478 0.000000
0.613825 0.448493 0.115480
0.776150 0.504570 0.288853
0.969635 0.557702 0.362982
0.000000 0.670558 0.000000
0.000000 0.666743 0.000000
0.156954 0.661372 0.000000
0.394263 0.643580 0.000000
0.542290 0.612940 0.000000
0.656672 0.579187 0.000000
0.814206 0.600244 0.000000
0.937102 0.662226 0.451728
0.000000 0.839139 0.000000
0.000000 0.837644 0.000000
0.000000 0.834134 0.000000
0.391760 0.824857 0.000000
0.584741 0.805142 0.000000
0.737972 0.777584 0.000000
0.864378 0.746090 0.000000
0.993469 0.750546 0.221683
0.000000 0.970672 0.000000
0.000000 0.970092 0.000000
0.000000 0.967315 0.000000
0.339696 0.961608 0.000000
0.571649 0.954101 0.000000
0.753689 0.939300 0.000000
0.912871 0.922118 0.000000
1.000000 0.894652 0.000000
0.028565 0.060243 0.105959
0.082826 0.054017 0.104189
0.182559 0.029206 0.095705
0.290593 0.025940 0.082429
0.501915 0.000000 0.000000
0.763180 0.000000 0.000000
0.943481 0.000000 0.000000
1.000000 0.000000 0.000000
0.000000 0.095888 0.105928
0.085573 0.096040 0.103273
0.173312 0.097292 0.099977
0.284184 0.101381 0.091646
0.489937 0.115053 0.018708
0.757534 0.131991 0.000000
0.941619 0.105104 0.000000
1.000000 0.000000 0.000000
0.000000 0.159426 0.101411
0.061616 0.158083 0.101198
0.154574 0.151431 0.103853
0.224613 0.172335 0.147707
0.419074 0.210605 0.124971
0.714290 0.261448 0.000000
0.911315 0.271031 0.000000
1.000000 0.249699 0.000000
0.000000 0.253696 0.086366
0.000000 0.252811 0.086488
0.165347 0.245762 0.089326
0.246708 0.232059 0.097108
0.362737 0.272221 0.173587
0.617578 0.361730 0.193912
0.858793 0.400305 0.137057
1.000000 0.406165 0.024872
0.000000 0.452949 0.000000
0.000000 0.452583 0.000000
0.177890 0.446937 0.000000
0.328069 0.416236 0.000000
0.425910 0.387732 0.000000
0.624750 0.455329 0.138857
0.781613 0.513787 0.321447
0.974762 0.563745 0.372900
0.000000 0.676967 0.000000
0.000000 0.675471 0.000000
0.093233 0.669673 0.000000
0.389166 0.651606 0.000000
0.544976 0.619715 0.000000
0.661128 0.583398 0.000000
0.818448 0.603204 0.076936
0.939574 0.667750 0.466590
0.000000 0.844968 0.000000
0.000000 0.844663 0.000000
0.000000 0.841093 0.000000
0.381598 0.831662 0.000000
0.582879 0.810391 0.000000
0.740322 0.782376 0.000000
0.869871 0.750912 0.000000
0.996918 0.755734 0.264591
0.000000 0.973449 0.000000
0.000000 0.972534 0.000000
0.000000 0.969787 0.000000
0.321813 0.963989 0.000000
0.563348 0.953582 0.000000
0.749783 0.939513 0.000000
0.911925 0.922911 0.000000
1.000000 0.895171 0.000000
0.000000 0.058930 0.189120
0.000000 0.058930 0.188052
0.146975 0.036835 0.172488
0.271000 0.000000 0.181277
0.465309 0.000000 0.162753
0.750301 0.000000 0.099428
0.938140 0.000000 0.000000
1.000000 0.000000 0.000000
0.000000 0.099977 0.191592
0.000000 0.095735 0.186954
0.145876 0.090700 0.171695
0.271824 0.031403 0.175357
0.474769 0.000000 0.137942
0.755337 0.000000 0.095644
0.942870 0.000000 0.000000
1.000000 0.000000 0.000000
0.000000 0.165469 0.182498
0.000000 0.163058 0.179019
0.138521 0.154086 0.165560
0.260349 0.158297 0.164096
0.464515 0.166354 0.151308
0.740291 0.177188 0.102205
0.927611 0.181216 0.000000
1.000000 0.180117 0.000000
0.000000 0.257206 0.177981
0.000000 0.254887 0.173861
0.125216 0.247837 0.165866
0.237919 0.232914 0.164401
0.350011 0.273259 0.228092
0.650690 0.349004 0.206088
0.876219 0.372259 0.166354
1.000000 0.377935 0.109865
0.000000 0.458595 0.110536
0.000000 0.457099 0.109987
0.000000 0.449348 0.108949
0.305394 0.422339 0.117281
0.418555 0.385931 0.128969
0.620783 0.450111 0.209995
0.778714 0.525170 0.392218
0.988983 0.557855 0.387610
0.000000 0.683345 0.000000
0.000000 0.681453 0.000000
0.000000 0.675288 0.000000
0.338903 0.660700 0.000000
0.533562 0.627008 0.000000
0.661250 0.585962 0.000000
0.817502 0.604913 0.228855
0.930999 0.680018 0.526635
0.000000 0.849668 0.000000
0.000000 0.849210 0.000000
0.000000 0.845762 0.000000
0.305241 0.837430 0.000000
0.558373 0.816373 0.000000
0.732204 0.786069 0.000000
0.867002 0.750149 0.000000
0.989715 0.758297 0.362799
0.000000 0.976959 0.000000
0.000000 0.976471 0.000000
0.000000 0.973632 0.000000
0.210697 0.967193 0.000000
0.530022 0.956970 0.000000
0.734188 0.941711 0.000000
0.904997 0.923980 0.000000
1.000000 0.895232 0.000000
0.000000 0.053864 0.325200
0.000000 0.054231 0.321752
0.067689 0.018921 0.299657
0.230900 0.000000 0.269078
0.429603 0.000000 0.322759
0.732143 0.000000 0.360632
0.937865 0.000000 0.280186
1.000000 0.000000 0.166995
0.000000 0.108400 0.325414
0.000000 0.107240 0.322057
0.040925 0.083589 0.296971
0.229313 0.044404 0.267460
0.429816 0.000000 0.319158
0.733303 0.000000 0.348730
0.939544 0.000000 0.259251
1.000000 0.000000 0.165957
0.000000 0.197971 0.326482
0.000000 0.191043 0.322393
0.000000 0.161379 0.299107
0.227024 0.144717 0.265812
0.439612 0.070222 0.301946
0.733242 0.000000 0.281651
0.935241 0.000000 0.201633
1.000000 0.000000 0.155703
0.000000 0.276524 0.304723
0.000000 0.273747 0.301305
0.000000 0.260746 0.285191
0.214389 0.236728 0.253880
0.445045 0.247410 0.253666
0.726619 0.257694 0.239445
0.925109 0.261021 0.217014
1.000000 0.258671 0.177523
0.000000 0.479194 0.354528
0.000000 0.477546 0.347478
0.000000 0.465278 0.308202
0.170779 0.433692 0.240543
0.406378 0.385809 0.234226
0.604974 0.456153 0.359350
0.821592 0.517174 0.416632
1.000000 0.534905 0.412146
0.000000 0.693935 0.296239
0.000000 0.690120 0.278843
0.000000 0.681849 0.205234
0.000000 0.667140 0.193729
0.489204 0.634882 0.175357
0.654505 0.586053 0.161135
0.804196 0.616510 0.413214
0.915557 0.704250 0.616510
0.000000 0.859617 0.218326
0.000000 0.858244 0.215610
0.000000 0.853147 0.206180
0.000000 0.843168 0.186618
0.500008 0.825071 0.152804
0.710689 0.791897 0.074952
0.860929 0.750851 0.000000
0.978058 0.768124 0.496223
0.000000 0.980560 0.179263
0.000000 0.979919 0.176913
0.000000 0.976989 0.163790
0.000000 0.971008 0.128359
0.471717 0.961822 0.000000
0.705501 0.945800 0.000000
0.890318 0.926513 0.000000
1.000000 0.896300 0.115877
0.000000 0.028138 0.616510
0.000000 0.028443 0.613581
0.000000 0.000000 0.597223
0.253178 0.000000 0.538445
0.407568 0.000000 0.462867
0.684413 0.000000 0.536461
0.914397 0.000000 0.533471
1.000000 0.000000 0.476539
0.000000 0.132204 0.616846
0.000000 0.144686 0.614893
0.000000 0.033661 0.592828
0.243320 0.000000 0.537835
0.407050 0.000000 0.462348
0.685573 0.000000 0.534234
0.915465 0.000000 0.527825
1.000000 0.000000 0.468025
0.000000 0.293889 0.631464
0.000000 0.279576 0.625849
0.000000 0.204318 0.600214
0.188510 0.120912 0.543389
0.407843 0.000000 0.463325
0.696407 0.000000 0.526543
0.923308 0.000000 0.501152
1.000000 0.000000 0.429175
0.000000 0.414893 0.616175
0.000000 0.408240 0.613367
0.000000 0.376837 0.600275
0.000000 0.273777 0.552728
0.398077 0.205020 0.453223
0.707790 0.014160 0.485664
0.931975 0.000000 0.426154
1.000000 0.000000 0.339971
0.000000 0.543450 0.584833
0.000000 0.539818 0.581048
0.000000 0.524010 0.564355
0.000000 0.484962 0.522118
0.368139 0.397681 0.422248
0.686671 0.428870 0.444160
0.905760 0.447303 0.453956
1.000000 0.445136 0.440345
0.000000 0.722225 0.569726
0.000000 0.721004 0.565209
0.000000 0.715602 0.545922
0.000000 0.696376 0.509728
0.407111 0.657618 0.470375
0.637720 0.597009 0.416449
0.782498 0.654597 0.596521
0.960143 0.710658 0.648951
0.000000 0.881682 0.516258
0.000000 0.880766 0.514916
0.000000 0.874907 0.511437
0.000000 0.857786 0.516472
0.440070 0.839384 0.501122
0.685176 0.807218 0.466224
0.847501 0.759304 0.419898
0.967132 0.789029 0.630945
0.000000 0.989410 0.479316
0.000000 0.987945 0.488441
0.000000 0.981842 0.524346
0.000000 0.974853 0.518364
0.441321 0.965606 0.500999
0.680720 0.951781 0.475410
0.869627 0.931914 0.443275
1.000000 0.901884 0.439521
0.000000 0.000916 0.789364
0.000000 0.001068 0.788449
0.000000 0.000000 0.786465
0.000000 0.000000 0.762417
0.430549 0.000000 0.720546
0.622522 0.000000 0.674739
0.868040 0.000000 0.696407
1.000000 0.000000 0.685756
0.000000 0.094148 0.796078
0.000000 0.117952 0.796445
0.000000 0.052979 0.791989
0.000000 0.000000 0.768032
0.428962 0.000000 0.725154
0.625940 0.000000 0.677760
0.872801 0.000000 0.697627
1.000000 0.000000 0.684199
0.000000 0.324254 0.804776
0.000000 0.312139 0.803037
0.000000 0.243412 0.793240
0.000000 0.124178 0.770809
0.406836 0.000000 0.727779
0.625208 0.000000 0.676844
0.879210 0.000000 0.692317
1.000000 0.000000 0.671534
0.000000 0.445808 0.803555
0.000000 0.439033 0.803433
0.000000 0.407599 0.800748
0.000000 0.310430 0.775937
0.336339 0.213291 0.728969
0.619043 0.000000 0.670283
0.882383 0.000000 0.677607
1.000000 0.000000 0.649897
0.000000 0.586236 0.793088
0.000000 0.583093 0.792294
0.000000 0.567163 0.788357
0.000000 0.535088 0.777523
0.313603 0.494392 0.738888
0.614405 0.386664 0.663020
0.880186 0.425208 0.666651
1.000000 0.374884 0.627222
0.000000 0.737179 0.771572
0.000000 0.735073 0.769528
0.000000 0.730007 0.763821
0.000000 0.717861 0.749203
0.233097 0.689815 0.716915
0.585382 0.605219 0.628412
0.855802 0.634638 0.650874
1.000000 0.643885 0.653498
0.000000 0.899168 0.735836
0.000000 0.898131 0.733730
0.000000 0.894713 0.727504
0.000000 0.883879 0.718074
0.249058 0.862669 0.701167
0.639033 0.824704 0.670466
0.817075 0.766751 0.623072
0.947387 0.817258 0.756680
0.000000 1.000000 0.643122
0.000000 1.000000 0.643671
0.000000 0.998322 0.648554
0.000000 0.988220 0.663600
0.386236 0.972137 0.691920
0.661585 0.957610 0.685298
0.844022 0.938628 0.653040
0.998535 0.908690 0.624537
0.000000 0.000000 0.930510
0.000000 0.000000 0.930358
0.000000 0.000000 0.930083
0.000000 0.000000 0.921080
0.297551 0.000000 0.901884
0.595850 0.000000 0.868009
0.804898 0.000000 0.836728
1.000000 0.000000 0.843503
0.000000 0.000000 0.931334
0.000000 0.000000 0.931121
0.000000 0.033021 0.931487
0.000000 0.000000 0.922606
0.283421 0.000000 0.903380
0.594232 0.000000 0.869627
0.806485 0.000000 0.837949
1.000000 0.000000 0.844205
0.000000 0.278477 0.935271
0.000000 0.283177 0.935332
0.000000 0.271336 0.934447
0.000000 0.131472 0.925933
0.208194 0.000000 0.906798
0.583764 0.000000 0.872526
0.807248 0.000000 0.838224
1.000000 0.000000 0.841611
0.000000 0.446876 0.941619
0.000000 0.440436 0.941344
0.000000 0.408118 0.938994
0.000000 0.331365 0.931823
0.000000 0.252171 0.913146
0.558343 0.113191 0.877989
0.808286 0.000000 0.838285
1.000000 0.000000 0.836606
0.000000 0.577478 0.935851
0.000000 0.573693 0.936126
0.000000 0.557488 0.936675
0.000000 0.522728 0.937316
0.000000 0.534569 0.919036
0.569238 0.478218 0.882261
0.808560 0.374182 0.834073
1.000000 0.435462 0.830838
0.000000 0.722560 0.925750
0.000000 0.720974 0.925719
0.000000 0.713436 0.925658
0.000000 0.706264 0.923980
0.000000 0.719051 0.916442
0.617639 0.708064 0.891508
0.802579 0.607874 0.820615
1.000000 0.639246 0.820920
0.000000 0.881682 0.909239
0.000000 0.881559 0.908934
0.000000 0.881224 0.907622
0.000000 0.880797 0.903502
0.000000 0.877653 0.894865
0.581231 0.862669 0.874723
0.777371 0.776791 0.788113
1.000000 0.808835 0.812741
0.000000 1.000000 0.841306
0.000000 1.000000 0.839902
0.000000 1.000000 0.834867
0.000000 1.000000 0.831876
0.000000 0.985595 0.832242
0.611566 0.966888 0.835966
0.837736 0.945830 0.836118
0.969909 0.917174 0.786130
0.000000 0.000000 1.000000
0.000000 0.000000 1.000000
0.000000 0.000000 1.000000
0.000000 0.000000 0.999878
0.000000 0.000000 0.995941
0.460243 0.000000 0.989715
0.726284 0.000000 0.978485
0.952697 0.000000 0.968505
0.000000 0.000000 1.000000
0.000000 0.000000 1.000000
0.000000 0.000000 1.000000
0.000000 0.000000 0.999969
0.000000 0.000000 0.996277
0.454078 0.000000 0.990112
0.724788 0.000000 0.978973
0.953307 0.000000 0.969024
0.000000 0.107240 1.000000
0.000000 0.118837 1.000000
0.000000 0.157656 1.000000
0.000000 0.097322 1.000000
0.000000 0.000000 0.997162
0.427893 0.000000 0.991028
0.717708 0.000000 0.980011
0.954406 0.000000 0.969696
0.000000 0.330053 1.000000
0.000000 0.332494 1.000000
0.000000 0.342779 1.000000
0.000000 0.305028 1.000000
0.000000 0.228977 0.998108
0.369390 0.140993 0.992126
0.702266 0.000000 0.981506
0.955688 0.000000 0.970001
0.000000 0.475685 0.998749
0.000000 0.475319 0.998749
0.000000 0.474037 0.998840
0.000000 0.452399 0.999145
0.000000 0.444587 0.996094
0.427863 0.491585 0.986664
0.707393 0.419440 0.978058
0.955077 0.330480 0.965911
0.000000 0.630091 0.991333
0.000000 0.629938 0.991394
0.000000 0.627192 0.991608
0.000000 0.605768 0.993042
0.000000 0.586694 0.993378
0.536675 0.698360 0.978424
0.745632 0.669612 0.969574
0.952483 0.595239 0.957366
0.000000 0.778988 0.981079
0.000000 0.778805 0.981109
0.000000 0.776761 0.981323
0.000000 0.766171 0.982086
0.000000 0.771176 0.979950
0.503441 0.816526 0.971283
0.840726 0.867369 0.959228
0.948333 0.790280 0.945708
0.000000 0.936248 0.966308
0.000000 0.936614 0.966247
0.000000 0.936797 0.966155
0.000000 0.937377 0.965606
0.000000 0.940490 0.962219
0.468879 0.944121 0.956909
0.842710 0.946777 0.951141
0.935485 0.926574 0.927031
