20 Preset/Human Style/【3】LUT video cho PR-AE-FCPX/Joe-Allam/JA – Static Pop 2.cube
# Created by Adobe Lightroom plugin Export LUT (1.24.0)
# www.johnrellis.com/lightroom/exportlut.htm
# Preset: JA – Static Pop 2
# Color profile: E:\lut插件\exportlut.1.24\exportlut.lrplugin\color profiles\Rec709gamma2.4.icc
LUT_3D_SIZE 8
DOMAIN_MIN 0.000000 0.000000 0.000000
DOMAIN_MAX 0.903226 0.903226 0.903226
0.093263 0.097353 0.100832
0.114351 0.095064 0.101411
0.273869 0.016663 0.101045
0.537987 0.000000 0.056916
0.793210 0.000000 0.000000
1.000000 0.000000 0.000000
1.000000 0.128481 0.000000
1.000000 0.180789 0.000000
0.080781 0.112886 0.100221
0.117281 0.114534 0.100374
0.259556 0.121614 0.095125
0.504784 0.132265 0.027771
0.759701 0.146731 0.000000
0.984680 0.172152 0.000000
1.000000 0.190738 0.000000
1.000000 0.213169 0.000000
0.007965 0.230259 0.071107
0.130312 0.232456 0.064698
0.263554 0.237156 0.042023
0.524285 0.308721 0.000000
0.791775 0.344793 0.000000
0.994171 0.348058 0.000000
1.000000 0.342229 0.000000
1.000000 0.339757 0.000000
0.000000 0.457496 0.000000
0.079133 0.455909 0.000000
0.338964 0.466011 0.000000
0.554070 0.484596 0.000000
0.831083 0.536767 0.000000
1.000000 0.526696 0.000000
1.000000 0.497810 0.000000
1.000000 0.476051 0.000000
0.000000 0.689479 0.000000
0.000000 0.688289 0.000000
0.363104 0.688136 0.000000
0.577173 0.678004 0.000000
0.757351 0.654444 0.000000
0.952331 0.657527 0.000000
1.000000 0.639185 0.000000
1.000000 0.612696 0.181796
0.000000 0.841611 0.172763
0.202518 0.848753 0.194034
0.398993 0.847227 0.199619
0.584649 0.837522 0.177646
0.758480 0.818173 0.099062
0.916625 0.791592 0.000000
1.000000 0.772030 0.195682
1.000000 0.747402 0.322728
0.372107 0.945922 0.403143
0.401617 0.946563 0.407538
0.487648 0.943877 0.407843
0.612726 0.939055 0.406775
0.743923 0.926299 0.374182
0.885985 0.912535 0.338231
1.000000 0.888548 0.301549
1.000000 0.854154 0.392981
0.574487 1.000000 0.584161
0.584192 1.000000 0.584314
0.625544 1.000000 0.587854
0.698848 1.000000 0.596887
0.762814 0.996185 0.555169
0.867765 0.991699 0.545525
0.980316 0.986664 0.532708
1.000000 0.968231 0.513848
0.091798 0.099397 0.111452
0.099367 0.096559 0.113527
0.230198 0.048890 0.114778
0.465339 0.000000 0.096437
0.735286 0.000000 0.000000
0.962158 0.000000 0.000000
1.000000 0.040803 0.000000
1.000000 0.144717 0.000000
0.083436 0.107881 0.113954
0.106538 0.110964 0.115053
0.229221 0.113222 0.111788
0.464149 0.119600 0.088930
0.728206 0.130465 0.000000
0.950072 0.142153 0.000000
1.000000 0.158602 0.000000
1.000000 0.187961 0.000000
0.000000 0.214542 0.115877
0.095583 0.217258 0.115145
0.243473 0.222995 0.106844
0.490150 0.281315 0.000000
0.744381 0.311101 0.000000
0.949798 0.317510 0.000000
1.000000 0.313725 0.000000
1.000000 0.316808 0.000000
0.000000 0.425360 0.000000
0.000000 0.426856 0.000000
0.301122 0.435431 0.000000
0.495766 0.436957 0.000000
0.757076 0.486397 0.000000
0.951751 0.488319 0.000000
1.000000 0.469520 0.000000
1.000000 0.454719 0.000000
0.000000 0.671839 0.000000
0.000000 0.668879 0.000000
0.330755 0.666926 0.000000
0.544671 0.650324 0.000000
0.718654 0.623560 0.000000
0.921050 0.634333 0.000000
1.000000 0.623835 0.000000
1.000000 0.599908 0.176913
0.000000 0.824918 0.201358
0.099062 0.825101 0.203342
0.363775 0.824887 0.209354
0.561151 0.818845 0.197330
0.738705 0.801999 0.144625
0.901640 0.779843 0.000000
1.000000 0.763699 0.211582
1.000000 0.739803 0.320928
0.337865 0.935576 0.397345
0.361212 0.933745 0.393652
0.456184 0.930907 0.393042
0.592462 0.927703 0.397040
0.731258 0.917449 0.372961
0.874815 0.903410 0.335821
1.000000 0.877317 0.290166
1.000000 0.843687 0.373297
0.552209 1.000000 0.573297
0.566918 1.000000 0.577417
0.609339 1.000000 0.579980
0.685939 1.000000 0.589349
0.772457 0.999054 0.583642
0.869108 0.992523 0.562585
0.978027 0.985382 0.538933
1.000000 0.966857 0.517845
0.033448 0.111391 0.195468
0.033448 0.111391 0.195468
0.191287 0.059998 0.207858
0.440436 0.000000 0.263920
0.722530 0.000000 0.229374
0.964599 0.000000 0.186099
1.000000 0.000000 0.193057
1.000000 0.000000 0.215824
0.030976 0.125246 0.192050
0.059724 0.124544 0.195102
0.192782 0.104860 0.209140
0.433936 0.000000 0.246281
0.717861 0.000000 0.188968
0.948058 0.000000 0.181186
1.000000 0.000000 0.182071
1.000000 0.120790 0.205325
0.000000 0.209354 0.221744
0.000000 0.210147 0.221653
0.202823 0.211765 0.219150
0.458198 0.207126 0.200320
0.739956 0.224582 0.190616
0.951751 0.243656 0.184237
1.000000 0.266911 0.193820
1.000000 0.298100 0.223972
0.000000 0.420661 0.261601
0.000000 0.424598 0.254887
0.208530 0.435431 0.238834
0.480842 0.435309 0.216434
0.757748 0.474617 0.207095
0.951843 0.470924 0.208835
1.000000 0.461433 0.229892
1.000000 0.457282 0.265843
0.000000 0.658747 0.275608
0.000000 0.658656 0.275395
0.232517 0.660212 0.276585
0.518853 0.654688 0.263432
0.714351 0.628534 0.214755
0.918730 0.634699 0.233738
1.000000 0.626062 0.286229
1.000000 0.606226 0.328435
0.000000 0.816861 0.355505
0.000000 0.817746 0.357855
0.324102 0.817014 0.360021
0.540429 0.813565 0.359258
0.718959 0.795712 0.322423
0.885405 0.773526 0.280674
1.000000 0.763516 0.346319
1.000000 0.747646 0.422156
0.356542 0.935088 0.489967
0.377752 0.933623 0.487129
0.462531 0.929961 0.483223
0.593286 0.926299 0.485695
0.726528 0.916381 0.464088
0.867643 0.903532 0.431525
1.000000 0.881102 0.394873
1.000000 0.852293 0.461524
0.565240 1.000000 0.619196
0.572839 1.000000 0.617609
0.612909 1.000000 0.619135
0.690913 1.000000 0.631098
0.775753 0.997833 0.629084
0.869261 0.992676 0.611994
0.974731 0.986542 0.589380
1.000000 0.969299 0.565270
0.000000 0.132235 0.386542
0.000000 0.132815 0.391211
0.142947 0.078248 0.396948
0.370642 0.000000 0.398016
0.660060 0.000000 0.459937
0.917784 0.000000 0.451179
1.000000 0.000000 0.403784
1.000000 0.000000 0.388586
0.000000 0.156863 0.395727
0.000000 0.163668 0.395361
0.133333 0.121950 0.404425
0.377935 0.000000 0.404974
0.672267 0.000000 0.463447
0.917205 0.000000 0.444160
1.000000 0.000000 0.397864
1.000000 0.000000 0.391089
0.000000 0.271977 0.405463
0.000000 0.271427 0.405280
0.151369 0.260319 0.405280
0.378820 0.191623 0.405249
0.688441 0.176547 0.450446
0.925414 0.085603 0.423713
1.000000 0.205966 0.413733
1.000000 0.310369 0.427131
0.000000 0.426215 0.448707
0.000000 0.425971 0.448005
0.000000 0.424750 0.443671
0.402502 0.413581 0.425116
0.696864 0.411383 0.412696
0.909819 0.423835 0.414954
1.000000 0.444007 0.427558
1.000000 0.466041 0.444526
0.000000 0.658320 0.494270
0.000000 0.655573 0.490059
0.000000 0.650019 0.480079
0.457435 0.650446 0.479835
0.684596 0.629023 0.443061
0.903319 0.641871 0.464698
1.000000 0.634821 0.480598
1.000000 0.624201 0.493446
0.000000 0.818204 0.528313
0.000000 0.823423 0.536675
0.285191 0.817716 0.535851
0.523613 0.817563 0.540246
0.706538 0.805386 0.520073
0.867185 0.776669 0.470527
1.000000 0.772885 0.512016
1.000000 0.765438 0.558404
0.373846 0.930602 0.605219
0.399695 0.930785 0.606775
0.483040 0.929870 0.608606
0.605310 0.928130 0.612573
0.734005 0.922301 0.606378
0.859525 0.908202 0.568872
0.988952 0.884855 0.523552
1.000000 0.862028 0.571679
0.600183 1.000000 0.699855
0.608148 1.000000 0.699641
0.641779 1.000000 0.699886
0.704829 1.000000 0.702968
0.786862 0.997162 0.707057
0.868681 0.992523 0.687617
0.967315 0.987335 0.663844
1.000000 0.973419 0.639429
0.000000 0.181247 0.616327
0.000000 0.182467 0.619684
0.000000 0.148501 0.618982
0.335058 0.000000 0.620111
0.575860 0.000000 0.604120
0.858030 0.000000 0.643214
1.000000 0.000000 0.621027
1.000000 0.145541 0.592279
0.000000 0.202426 0.622553
0.000000 0.213413 0.626337
0.000000 0.190402 0.626795
0.331792 0.011749 0.622339
0.580957 0.000000 0.609033
0.858671 0.000000 0.642664
1.000000 0.000000 0.619806
1.000000 0.208133 0.592828
0.000000 0.368536 0.627008
0.000000 0.365393 0.628077
0.000000 0.341131 0.627283
0.328008 0.270298 0.621637
0.583154 0.151217 0.609552
0.841062 0.207126 0.628504
1.000000 0.244144 0.609491
1.000000 0.327733 0.588220
0.000000 0.486885 0.643824
0.000000 0.488502 0.643824
0.175174 0.498634 0.643183
0.429328 0.498787 0.634455
0.592187 0.405951 0.613825
0.837736 0.442786 0.626551
1.000000 0.442329 0.604822
1.000000 0.464393 0.588373
0.000000 0.641871 0.664240
0.000000 0.641871 0.663722
0.000000 0.638087 0.657771
0.397711 0.626886 0.642512
0.590326 0.593774 0.603876
0.832334 0.595117 0.599023
1.000000 0.606592 0.604425
1.000000 0.618006 0.610925
0.000000 0.789303 0.648035
0.000000 0.788724 0.647700
0.000000 0.781979 0.641627
0.368536 0.774197 0.635492
0.626368 0.769100 0.634546
0.811887 0.755184 0.606256
0.988220 0.773342 0.646204
1.000000 0.768734 0.662623
0.000000 0.924407 0.681575
0.069947 0.922606 0.680537
0.340368 0.918029 0.681331
0.549493 0.913420 0.695827
0.704952 0.912016 0.703548
0.832029 0.901457 0.680781
0.960388 0.877073 0.630426
1.000000 0.862272 0.663294
0.515190 0.998444 0.734401
0.535210 0.997467 0.737545
0.608728 0.993835 0.751431
0.690486 0.993744 0.763058
0.773587 0.991730 0.766781
0.859770 0.988434 0.761746
0.950469 0.983062 0.734340
1.000000 0.970092 0.701259
0.000000 0.287175 0.802060
0.000000 0.288273 0.803372
0.000000 0.280674 0.800137
0.179599 0.192325 0.798367
0.515923 0.000000 0.791775
0.761105 0.000000 0.779751
1.000000 0.000000 0.787808
1.000000 0.275242 0.761257
0.000000 0.280858 0.792172
0.000000 0.285893 0.791745
0.000000 0.295262 0.790188
0.184207 0.233890 0.788998
0.509850 0.000000 0.785031
0.750576 0.000000 0.769650
0.990631 0.000000 0.779446
1.000000 0.291478 0.755886
0.000000 0.445899 0.797665
0.000000 0.444251 0.797238
0.000000 0.433875 0.797055
0.285252 0.389441 0.792233
0.520775 0.286564 0.790127
0.754177 0.139620 0.771176
0.985412 0.275975 0.778897
1.000000 0.407416 0.758022
0.000000 0.579736 0.809537
0.098054 0.583642 0.808682
0.377020 0.604669 0.808499
0.493141 0.602045 0.812222
0.589105 0.533440 0.805570
0.771572 0.434333 0.782498
0.978393 0.508568 0.787503
1.000000 0.554742 0.768734
0.000000 0.677790 0.811154
0.000000 0.679072 0.810361
0.331518 0.685725 0.808347
0.540673 0.700587 0.804929
0.662501 0.695399 0.790982
0.754910 0.597375 0.760800
0.952789 0.639033 0.771847
1.000000 0.648493 0.755642
0.000000 0.792172 0.809232
0.000000 0.794736 0.811246
0.121828 0.792996 0.808072
0.440955 0.788907 0.801144
0.618036 0.776608 0.785489
0.751431 0.743893 0.748959
0.953429 0.761593 0.761349
1.000000 0.771511 0.767086
0.000000 0.927276 0.802365
0.000000 0.927550 0.803098
0.000000 0.923705 0.799924
0.411933 0.917815 0.798825
0.644404 0.909209 0.799252
0.811185 0.901701 0.802029
0.930663 0.878752 0.758328
1.000000 0.881926 0.788998
0.240726 1.000000 0.789120
0.281132 1.000000 0.788998
0.415961 0.998138 0.792874
0.582971 0.993744 0.805478
0.741482 0.987030 0.827604
0.847410 0.984192 0.837156
0.933135 0.980468 0.821408
1.000000 0.969543 0.785031
0.000000 0.415320 0.907500
0.000000 0.416236 0.908080
0.000000 0.415595 0.907683
0.000000 0.355413 0.909453
0.418799 0.261631 0.910063
0.653346 0.000000 0.905608
0.879820 0.000000 0.890867
1.000000 0.000000 0.885069
0.000000 0.411261 0.905089
0.000000 0.412451 0.905821
0.000000 0.413397 0.905547
0.000000 0.382910 0.906004
0.424567 0.297551 0.906676
0.650446 0.000000 0.901518
0.874907 0.000000 0.885863
1.000000 0.091463 0.880064
0.000000 0.504814 0.905089
0.000000 0.508049 0.904936
0.000000 0.511620 0.904173
0.324743 0.502708 0.905028
0.476081 0.434241 0.905272
0.658717 0.284672 0.901122
0.877958 0.154391 0.887236
1.000000 0.335729 0.881071
0.326848 0.642878 0.903960
0.341772 0.642542 0.903532
0.407141 0.644373 0.903746
0.506554 0.645716 0.904509
0.583276 0.608606 0.903593
0.691463 0.508873 0.900511
0.881987 0.423011 0.887449
1.000000 0.512657 0.880034
0.330266 0.714168 0.906554
0.362768 0.716304 0.905760
0.474281 0.728084 0.904173
0.617090 0.751888 0.902464
0.698177 0.752682 0.900633
0.739986 0.685603 0.895109
0.880308 0.594263 0.880522
1.000000 0.664332 0.878904
0.291295 0.798001 0.909941
0.330877 0.799496 0.909880
0.446967 0.804959 0.909361
0.591638 0.815671 0.908385
0.734432 0.832334 0.906523
0.825834 0.837369 0.900847
0.884672 0.750271 0.878202
1.000000 0.792508 0.882750
0.000000 0.898894 0.913573
0.127840 0.899382 0.913817
0.342412 0.899992 0.913207
0.521935 0.901244 0.912047
0.677424 0.901640 0.909148
0.800137 0.897704 0.901549
0.878294 0.865721 0.866209
1.000000 0.881224 0.877531
0.000000 1.000000 0.891478
0.000000 1.000000 0.891386
0.000000 1.000000 0.891691
0.381170 0.997436 0.890959
0.623224 0.989960 0.892546
0.798917 0.982940 0.899779
0.918334 0.979187 0.908202
1.000000 0.970092 0.876799
0.343969 0.564874 0.977356
0.345006 0.565332 0.977539
0.342596 0.564233 0.977111
0.346410 0.557397 0.977783
0.411566 0.457069 0.984619
0.569146 0.338018 0.988800
0.759121 0.000000 0.991547
0.974792 0.000000 0.983551
0.339361 0.562737 0.976562
0.340520 0.563256 0.976776
0.339361 0.562799 0.976593
0.344182 0.552667 0.977386
0.423377 0.471595 0.983246
0.574853 0.366552 0.987182
0.758541 0.000000 0.989807
0.972961 0.000000 0.981506
0.349065 0.572839 0.976684
0.351934 0.575128 0.976593
0.361364 0.583551 0.975799
0.423102 0.599115 0.976196
0.498177 0.557031 0.979675
0.607050 0.472358 0.983581
0.764187 0.274083 0.987335
0.972290 0.214542 0.979583
0.463172 0.666224 0.971771
0.465278 0.667903 0.971740
0.471931 0.673671 0.971099
0.527001 0.682734 0.971588
0.613581 0.679377 0.973571
0.671534 0.616754 0.978058
0.783474 0.487984 0.983001
0.972381 0.427955 0.977173
0.577020 0.759548 0.965148
0.577630 0.759731 0.965301
0.577600 0.759121 0.965087
0.618463 0.765286 0.965820
0.703975 0.778500 0.967590
0.750729 0.751614 0.970794
0.813931 0.662318 0.975799
0.971557 0.593256 0.972778
0.479072 0.801175 0.969818
0.478065 0.800748 0.969635
0.489754 0.800229 0.969055
0.610163 0.815854 0.967071
0.743771 0.842679 0.964752
0.832029 0.861295 0.967285
0.864897 0.818387 0.971313
0.973053 0.750149 0.970123
0.304143 0.867155 0.974670
0.334295 0.867918 0.974456
0.436347 0.871580 0.973571
0.577966 0.880247 0.972290
0.721157 0.894285 0.970764
0.845060 0.913848 0.970153
0.924468 0.930053 0.972137
0.973053 0.873930 0.967193
0.000000 0.961822 0.979004
0.000000 0.961975 0.978882
0.313970 0.962982 0.978729
0.511833 0.964996 0.978424
0.677241 0.967742 0.977966
0.811124 0.971344 0.977783
0.910918 0.975250 0.978027
0.970703 0.964508 0.963775
