20 Preset/Bright-Style/【2】XMP cho Photoshop - Lightroom CC/Tone 3.xmp
<x:xmpmeta xmlns:x="adobe:ns:meta/" x:xmptk="Adobe XMP Core 5.6-c140 79.160451, 2017/05/06-01:08:21        ">
 <rdf:RDF xmlns:rdf="http://www.w3.org/1999/02/22-rdf-syntax-ns#">
  <rdf:Description rdf:about=""
    xmlns:crs="http://ns.adobe.com/camera-raw-settings/1.0/"
   crs:PresetType="Normal"
   crs:Cluster=""
   crs:UUID="183068E77CBE4340900E1560CC211FB7"
   crs:SupportsAmount="False"
   crs:SupportsColor="True"
   crs:SupportsMonochrome="True"
   crs:SupportsHighDynamicRange="True"
   crs:SupportsNormalDynamicRange="True"
   crs:SupportsSceneReferred="True"
   crs:SupportsOutputReferred="True"
   crs:CameraModelRestriction=""
   crs:Copyright=""
   crs:ContactInfo=""
   crs:Version="12.0"
   crs:ProcessVersion="10.0"
   crs:WhiteBalance="Custom"
   crs:Temperature="6214"
   crs:Tint="-5"
   crs:Saturation="0"
   crs:Sharpness="29"
   crs:LuminanceSmoothing="5"
   crs:ColorNoiseReduction="25"
   crs:VignetteAmount="0"
   crs:ShadowTint="-2"
   crs:RedHue="+15"
   crs:RedSaturation="+37"
   crs:GreenHue="+25"
   crs:GreenSaturation="+55"
   crs:BlueHue="-18"
   crs:BlueSaturation="+65"
   crs:Vibrance="0"
   crs:HueAdjustmentRed="-5"
   crs:HueAdjustmentOrange="+8"
   crs:HueAdjustmentYellow="0"
   crs:HueAdjustmentGreen="-40"
   crs:HueAdjustmentAqua="+19"
   crs:HueAdjustmentBlue="-21"
   crs:HueAdjustmentPurple="+20"
   crs:HueAdjustmentMagenta="+22"
   crs:SaturationAdjustmentRed="-4"
   crs:SaturationAdjustmentOrange="-54"
   crs:SaturationAdjustmentYellow="-76"
   crs:SaturationAdjustmentGreen="-60"
   crs:SaturationAdjustmentAqua="-65"
   crs:SaturationAdjustmentBlue="-69"
   crs:SaturationAdjustmentPurple="-29"
   crs:SaturationAdjustmentMagenta="+4"
   crs:LuminanceAdjustmentRed="-16"
   crs:LuminanceAdjustmentOrange="+2"
   crs:LuminanceAdjustmentYellow="+78"
   crs:LuminanceAdjustmentGreen="+81"
   crs:LuminanceAdjustmentAqua="+70"
   crs:LuminanceAdjustmentBlue="-40"
   crs:LuminanceAdjustmentPurple="+11"
   crs:LuminanceAdjustmentMagenta="+5"
   crs:SplitToningShadowHue="257"
   crs:SplitToningShadowSaturation="4"
   crs:SplitToningHighlightHue="57"
   crs:SplitToningHighlightSaturation="4"
   crs:SplitToningBalance="-11"
   crs:ParametricShadows="-41"
   crs:ParametricDarks="-13"
   crs:ParametricLights="+45"
   crs:ParametricHighlights="-74"
   crs:ParametricShadowSplit="30"
   crs:ParametricMidtoneSplit="61"
   crs:ParametricHighlightSplit="90"
   crs:SharpenRadius="+1.0"
   crs:SharpenDetail="25"
   crs:SharpenEdgeMasking="0"
   crs:PostCropVignetteAmount="0"
   crs:GrainAmount="0"
   crs:LuminanceNoiseReductionDetail="50"
   crs:ColorNoiseReductionDetail="50"
   crs:LuminanceNoiseReductionContrast="0"
   crs:ColorNoiseReductionSmoothness="50"
   crs:LensManualDistortionAmount="0"
   crs:AutoLateralCA="0"
   crs:Exposure2012="+0.35"
   crs:Contrast2012="-26"
   crs:Highlights2012="-100"
   crs:Shadows2012="+69"
   crs:Whites2012="-42"
   crs:Blacks2012="+17"
   crs:Clarity2012="0"
   crs:DefringePurpleAmount="0"
   crs:DefringePurpleHueLo="30"
   crs:DefringePurpleHueHi="70"
   crs:DefringeGreenAmount="0"
   crs:DefringeGreenHueLo="40"
   crs:DefringeGreenHueHi="60"
   crs:Dehaze="0"
   crs:ConvertToGrayscale="False"
   crs:OverrideLookVignette="False"
   crs:ToneCurveName2012="Medium Contrast"
   crs:CameraProfile="Embedded"
   crs:HasSettings="True">
   <crs:Name>
    <rdf:Alt>
     <rdf:li xml:lang="x-default">Tone 3</rdf:li>
    </rdf:Alt>
   </crs:Name>
   <crs:ShortName>
    <rdf:Alt>
     <rdf:li xml:lang="x-default"/>
    </rdf:Alt>
   </crs:ShortName>
   <crs:SortName>
    <rdf:Alt>
     <rdf:li xml:lang="x-default"/>
    </rdf:Alt>
   </crs:SortName>
   <crs:Group>
    <rdf:Alt>
     <rdf:li xml:lang="x-default">Bright-Style</rdf:li>
    </rdf:Alt>
   </crs:Group>
   <crs:Description>
    <rdf:Alt>
     <rdf:li xml:lang="x-default"/>
    </rdf:Alt>
   </crs:Description>
   <crs:ToneCurvePV2012>
    <rdf:Seq>
     <rdf:li>0, 0</rdf:li>
     <rdf:li>32, 22</rdf:li>
     <rdf:li>64, 56</rdf:li>
     <rdf:li>128, 128</rdf:li>
     <rdf:li>192, 196</rdf:li>
     <rdf:li>255, 255</rdf:li>
    </rdf:Seq>
   </crs:ToneCurvePV2012>
   <crs:ToneCurvePV2012Red>
    <rdf:Seq>
     <rdf:li>0, 0</rdf:li>
     <rdf:li>255, 255</rdf:li>
    </rdf:Seq>
   </crs:ToneCurvePV2012Red>
   <crs:ToneCurvePV2012Green>
    <rdf:Seq>
     <rdf:li>0, 0</rdf:li>
     <rdf:li>255, 255</rdf:li>
    </rdf:Seq>
   </crs:ToneCurvePV2012Green>
   <crs:ToneCurvePV2012Blue>
    <rdf:Seq>
     <rdf:li>0, 0</rdf:li>
     <rdf:li>255, 255</rdf:li>
    </rdf:Seq>
   </crs:ToneCurvePV2012Blue>
   <crs:Look
    crs:Name=""/>
  </rdf:Description>
 </rdf:RDF>
</x:xmpmeta>
