20 Preset/Art Style/【2】XMP cho Photoshop - Lightroom CC/Tone 26.xmp
<x:xmpmeta xmlns:x="adobe:ns:meta/" x:xmptk="Adobe XMP Core 5.6-c140 79.160451, 2017/05/06-01:08:21        ">
 <rdf:RDF xmlns:rdf="http://www.w3.org/1999/02/22-rdf-syntax-ns#">
  <rdf:Description rdf:about=""
    xmlns:crs="http://ns.adobe.com/camera-raw-settings/1.0/"
   crs:PresetType="Normal"
   crs:Cluster=""
   crs:UUID="EDA62EA80B29A942A5378CDFABB1D14B"
   crs:SupportsAmount="False"
   crs:SupportsColor="True"
   crs:SupportsMonochrome="True"
   crs:SupportsHighDynamicRange="True"
   crs:SupportsNormalDynamicRange="True"
   crs:SupportsSceneReferred="True"
   crs:SupportsOutputReferred="True"
   crs:CameraModelRestriction=""
   crs:Copyright=""
   crs:ContactInfo=""
   crs:Version="12.0"
   crs:ProcessVersion="6.7"
   crs:Saturation="0"
   crs:ShadowTint="-4"
   crs:RedHue="+25"
   crs:RedSaturation="+40"
   crs:GreenHue="+58"
   crs:GreenSaturation="+1"
   crs:BlueHue="-29"
   crs:BlueSaturation="+1"
   crs:Vibrance="-15"
   crs:HueAdjustmentRed="+10"
   crs:HueAdjustmentOrange="+8"
   crs:HueAdjustmentYellow="0"
   crs:HueAdjustmentGreen="+21"
   crs:HueAdjustmentAqua="-3"
   crs:HueAdjustmentBlue="-4"
   crs:HueAdjustmentPurple="+20"
   crs:HueAdjustmentMagenta="+30"
   crs:SaturationAdjustmentRed="-30"
   crs:SaturationAdjustmentOrange="-25"
   crs:SaturationAdjustmentYellow="-20"
   crs:SaturationAdjustmentGreen="-50"
   crs:SaturationAdjustmentAqua="-35"
   crs:SaturationAdjustmentBlue="-30"
   crs:SaturationAdjustmentPurple="-45"
   crs:SaturationAdjustmentMagenta="-45"
   crs:LuminanceAdjustmentRed="+5"
   crs:LuminanceAdjustmentOrange="0"
   crs:LuminanceAdjustmentYellow="+10"
   crs:LuminanceAdjustmentGreen="+65"
   crs:LuminanceAdjustmentAqua="0"
   crs:LuminanceAdjustmentBlue="-25"
   crs:LuminanceAdjustmentPurple="-15"
   crs:LuminanceAdjustmentMagenta="0"
   crs:SplitToningShadowHue="40"
   crs:SplitToningShadowSaturation="100"
   crs:SplitToningHighlightHue="0"
   crs:SplitToningHighlightSaturation="1"
   crs:SplitToningBalance="+98"
   crs:ParametricShadows="-5"
   crs:ParametricDarks="0"
   crs:ParametricLights="0"
   crs:ParametricHighlights="0"
   crs:ParametricShadowSplit="25"
   crs:ParametricMidtoneSplit="57"
   crs:ParametricHighlightSplit="90"
   crs:GrainAmount="13"
   crs:GrainSize="20"
   crs:GrainFrequency="65"
   crs:Contrast2012="+10"
   crs:Highlights2012="-18"
   crs:Shadows2012="+50"
   crs:Whites2012="+16"
   crs:Blacks2012="+45"
   crs:Clarity2012="0"
   crs:ConvertToGrayscale="False"
   crs:ToneCurveName2012="Custom"
   crs:CameraProfile="Adobe Standard"
   crs:HasSettings="True">
   <crs:Name>
    <rdf:Alt>
     <rdf:li xml:lang="x-default">Tone 26</rdf:li>
    </rdf:Alt>
   </crs:Name>
   <crs:ShortName>
    <rdf:Alt>
     <rdf:li xml:lang="x-default"/>
    </rdf:Alt>
   </crs:ShortName>
   <crs:SortName>
    <rdf:Alt>
     <rdf:li xml:lang="x-default"/>
    </rdf:Alt>
   </crs:SortName>
   <crs:Group>
    <rdf:Alt>
     <rdf:li xml:lang="x-default">Art Style</rdf:li>
    </rdf:Alt>
   </crs:Group>
   <crs:Description>
    <rdf:Alt>
     <rdf:li xml:lang="x-default"/>
    </rdf:Alt>
   </crs:Description>
   <crs:ToneCurvePV2012>
    <rdf:Seq>
     <rdf:li>0, 19</rdf:li>
     <rdf:li>26, 33</rdf:li>
     <rdf:li>93, 104</rdf:li>
     <rdf:li>164, 166</rdf:li>
     <rdf:li>213, 208</rdf:li>
     <rdf:li>251, 247</rdf:li>
    </rdf:Seq>
   </crs:ToneCurvePV2012>
   <crs:ToneCurvePV2012Red>
    <rdf:Seq>
     <rdf:li>0, 0</rdf:li>
     <rdf:li>42, 9</rdf:li>
     <rdf:li>80, 51</rdf:li>
     <rdf:li>125, 123</rdf:li>
     <rdf:li>182, 204</rdf:li>
     <rdf:li>255, 255</rdf:li>
    </rdf:Seq>
   </crs:ToneCurvePV2012Red>
   <crs:ToneCurvePV2012Green>
    <rdf:Seq>
     <rdf:li>0, 0</rdf:li>
     <rdf:li>36, 10</rdf:li>
     <rdf:li>76, 52</rdf:li>
     <rdf:li>119, 120</rdf:li>
     <rdf:li>163, 183</rdf:li>
     <rdf:li>219, 230</rdf:li>
     <rdf:li>255, 255</rdf:li>
    </rdf:Seq>
   </crs:ToneCurvePV2012Green>
   <crs:ToneCurvePV2012Blue>
    <rdf:Seq>
     <rdf:li>0, 0</rdf:li>
     <rdf:li>49, 25</rdf:li>
     <rdf:li>118, 115</rdf:li>
     <rdf:li>183, 206</rdf:li>
     <rdf:li>222, 235</rdf:li>
     <rdf:li>255, 255</rdf:li>
    </rdf:Seq>
   </crs:ToneCurvePV2012Blue>
   <crs:Look
    crs:Name=""/>
  </rdf:Description>
 </rdf:RDF>
</x:xmpmeta>
