20 Preset/Art Style/【2】XMP cho Photoshop - Lightroom CC/Tone 30.xmp
<x:xmpmeta xmlns:x="adobe:ns:meta/" x:xmptk="Adobe XMP Core 5.6-c140 79.160451, 2017/05/06-01:08:21        ">
 <rdf:RDF xmlns:rdf="http://www.w3.org/1999/02/22-rdf-syntax-ns#">
  <rdf:Description rdf:about=""
    xmlns:crs="http://ns.adobe.com/camera-raw-settings/1.0/"
   crs:PresetType="Normal"
   crs:Cluster=""
   crs:UUID="D8755BF287BDCE4390B5986F667B8431"
   crs:SupportsAmount="False"
   crs:SupportsColor="True"
   crs:SupportsMonochrome="True"
   crs:SupportsHighDynamicRange="True"
   crs:SupportsNormalDynamicRange="True"
   crs:SupportsSceneReferred="True"
   crs:SupportsOutputReferred="True"
   crs:CameraModelRestriction=""
   crs:Copyright=""
   crs:ContactInfo=""
   crs:Version="12.0"
   crs:ProcessVersion="6.7"
   crs:Saturation="-5"
   crs:ShadowTint="-4"
   crs:RedHue="+25"
   crs:RedSaturation="+40"
   crs:GreenHue="+58"
   crs:GreenSaturation="+1"
   crs:BlueHue="-29"
   crs:BlueSaturation="+1"
   crs:Vibrance="0"
   crs:HueAdjustmentRed="+20"
   crs:HueAdjustmentOrange="+23"
   crs:HueAdjustmentYellow="+15"
   crs:HueAdjustmentGreen="+21"
   crs:HueAdjustmentAqua="-3"
   crs:HueAdjustmentBlue="-4"
   crs:HueAdjustmentPurple="+20"
   crs:HueAdjustmentMagenta="+30"
   crs:SaturationAdjustmentRed="-20"
   crs:SaturationAdjustmentOrange="-20"
   crs:SaturationAdjustmentYellow="-20"
   crs:SaturationAdjustmentGreen="-50"
   crs:SaturationAdjustmentAqua="-35"
   crs:SaturationAdjustmentBlue="-30"
   crs:SaturationAdjustmentPurple="-45"
   crs:SaturationAdjustmentMagenta="-45"
   crs:LuminanceAdjustmentRed="+5"
   crs:LuminanceAdjustmentOrange="0"
   crs:LuminanceAdjustmentYellow="+10"
   crs:LuminanceAdjustmentGreen="+65"
   crs:LuminanceAdjustmentAqua="0"
   crs:LuminanceAdjustmentBlue="-25"
   crs:LuminanceAdjustmentPurple="-15"
   crs:LuminanceAdjustmentMagenta="0"
   crs:SplitToningShadowHue="0"
   crs:SplitToningShadowSaturation="0"
   crs:SplitToningHighlightHue="0"
   crs:SplitToningHighlightSaturation="0"
   crs:SplitToningBalance="0"
   crs:ParametricShadows="0"
   crs:ParametricDarks="+5"
   crs:ParametricLights="0"
   crs:ParametricHighlights="-20"
   crs:ParametricShadowSplit="20"
   crs:ParametricMidtoneSplit="48"
   crs:ParametricHighlightSplit="75"
   crs:GrainAmount="27"
   crs:GrainSize="27"
   crs:GrainFrequency="65"
   crs:Contrast2012="+15"
   crs:Highlights2012="-21"
   crs:Shadows2012="+53"
   crs:Whites2012="+18"
   crs:Blacks2012="+53"
   crs:Clarity2012="+15"
   crs:ConvertToGrayscale="False"
   crs:ToneCurveName2012="Custom"
   crs:CameraProfile="Adobe Standard"
   crs:HasSettings="True">
   <crs:Name>
    <rdf:Alt>
     <rdf:li xml:lang="x-default">Tone 30</rdf:li>
    </rdf:Alt>
   </crs:Name>
   <crs:ShortName>
    <rdf:Alt>
     <rdf:li xml:lang="x-default"/>
    </rdf:Alt>
   </crs:ShortName>
   <crs:SortName>
    <rdf:Alt>
     <rdf:li xml:lang="x-default"/>
    </rdf:Alt>
   </crs:SortName>
   <crs:Group>
    <rdf:Alt>
     <rdf:li xml:lang="x-default">Art Style</rdf:li>
    </rdf:Alt>
   </crs:Group>
   <crs:Description>
    <rdf:Alt>
     <rdf:li xml:lang="x-default"/>
    </rdf:Alt>
   </crs:Description>
   <crs:ToneCurvePV2012>
    <rdf:Seq>
     <rdf:li>3, 74</rdf:li>
     <rdf:li>44, 82</rdf:li>
     <rdf:li>116, 127</rdf:li>
     <rdf:li>200, 179</rdf:li>
     <rdf:li>254, 249</rdf:li>
    </rdf:Seq>
   </crs:ToneCurvePV2012>
   <crs:ToneCurvePV2012Red>
    <rdf:Seq>
     <rdf:li>0, 0</rdf:li>
     <rdf:li>100, 47</rdf:li>
     <rdf:li>133, 125</rdf:li>
     <rdf:li>163, 195</rdf:li>
     <rdf:li>255, 255</rdf:li>
    </rdf:Seq>
   </crs:ToneCurvePV2012Red>
   <crs:ToneCurvePV2012Green>
    <rdf:Seq>
     <rdf:li>0, 0</rdf:li>
     <rdf:li>100, 51</rdf:li>
     <rdf:li>135, 126</rdf:li>
     <rdf:li>170, 200</rdf:li>
     <rdf:li>255, 255</rdf:li>
    </rdf:Seq>
   </crs:ToneCurvePV2012Green>
   <crs:ToneCurvePV2012Blue>
    <rdf:Seq>
     <rdf:li>0, 0</rdf:li>
     <rdf:li>97, 61</rdf:li>
     <rdf:li>132, 121</rdf:li>
     <rdf:li>169, 196</rdf:li>
     <rdf:li>255, 255</rdf:li>
    </rdf:Seq>
   </crs:ToneCurvePV2012Blue>
   <crs:Look
    crs:Name=""/>
  </rdf:Description>
 </rdf:RDF>
</x:xmpmeta>
