20 Preset/Japan Style/【2】XMP cho Photoshop - Lightroom CC/Japan Style (2)/Tone 24.xmp
<x:xmpmeta xmlns:x="adobe:ns:meta/" x:xmptk="Adobe XMP Core 5.6-c140 79.160451, 2017/05/06-01:08:21        ">
 <rdf:RDF xmlns:rdf="http://www.w3.org/1999/02/22-rdf-syntax-ns#">
  <rdf:Description rdf:about=""
    xmlns:crs="http://ns.adobe.com/camera-raw-settings/1.0/"
   crs:PresetType="Normal"
   crs:Cluster=""
   crs:UUID="25C46B301BBBA544851DF45E2B53C332"
   crs:SupportsAmount="False"
   crs:SupportsColor="True"
   crs:SupportsMonochrome="True"
   crs:SupportsHighDynamicRange="True"
   crs:SupportsNormalDynamicRange="True"
   crs:SupportsSceneReferred="True"
   crs:SupportsOutputReferred="True"
   crs:CameraModelRestriction=""
   crs:Copyright=""
   crs:ContactInfo=""
   crs:Version="12.0"
   crs:ProcessVersion="10.0"
   crs:WhiteBalance="Custom"
   crs:Temperature="5061"
   crs:Tint="+3"
   crs:Saturation="-2"
   crs:Sharpness="25"
   crs:LuminanceSmoothing="0"
   crs:ColorNoiseReduction="25"
   crs:VignetteAmount="0"
   crs:ShadowTint="-13"
   crs:RedHue="+56"
   crs:RedSaturation="0"
   crs:GreenHue="+100"
   crs:GreenSaturation="-5"
   crs:BlueHue="-2"
   crs:BlueSaturation="+11"
   crs:Vibrance="0"
   crs:HueAdjustmentRed="-57"
   crs:HueAdjustmentOrange="+33"
   crs:HueAdjustmentYellow="+21"
   crs:HueAdjustmentGreen="+45"
   crs:HueAdjustmentAqua="-77"
   crs:HueAdjustmentBlue="0"
   crs:HueAdjustmentPurple="0"
   crs:HueAdjustmentMagenta="0"
   crs:SaturationAdjustmentRed="+70"
   crs:SaturationAdjustmentOrange="+2"
   crs:SaturationAdjustmentYellow="-43"
   crs:SaturationAdjustmentGreen="-55"
   crs:SaturationAdjustmentAqua="-56"
   crs:SaturationAdjustmentBlue="0"
   crs:SaturationAdjustmentPurple="0"
   crs:SaturationAdjustmentMagenta="0"
   crs:LuminanceAdjustmentRed="+16"
   crs:LuminanceAdjustmentOrange="+52"
   crs:LuminanceAdjustmentYellow="+1"
   crs:LuminanceAdjustmentGreen="+1"
   crs:LuminanceAdjustmentAqua="-40"
   crs:LuminanceAdjustmentBlue="0"
   crs:LuminanceAdjustmentPurple="0"
   crs:LuminanceAdjustmentMagenta="0"
   crs:SplitToningShadowHue="215"
   crs:SplitToningShadowSaturation="5"
   crs:SplitToningHighlightHue="26"
   crs:SplitToningHighlightSaturation="3"
   crs:SplitToningBalance="+59"
   crs:ParametricShadows="0"
   crs:ParametricDarks="0"
   crs:ParametricLights="0"
   crs:ParametricHighlights="0"
   crs:ParametricShadowSplit="25"
   crs:ParametricMidtoneSplit="50"
   crs:ParametricHighlightSplit="75"
   crs:SharpenRadius="+1.0"
   crs:SharpenDetail="25"
   crs:SharpenEdgeMasking="0"
   crs:PostCropVignetteAmount="0"
   crs:GrainAmount="20"
   crs:GrainSize="30"
   crs:GrainFrequency="55"
   crs:ColorNoiseReductionDetail="50"
   crs:ColorNoiseReductionSmoothness="50"
   crs:LensManualDistortionAmount="0"
   crs:AutoLateralCA="0"
   crs:Exposure2012="+0.15"
   crs:Contrast2012="-16"
   crs:Highlights2012="-100"
   crs:Shadows2012="+14"
   crs:Whites2012="-100"
   crs:Blacks2012="+22"
   crs:Clarity2012="+8"
   crs:DefringePurpleAmount="0"
   crs:DefringePurpleHueLo="30"
   crs:DefringePurpleHueHi="70"
   crs:DefringeGreenAmount="0"
   crs:DefringeGreenHueLo="40"
   crs:DefringeGreenHueHi="60"
   crs:Dehaze="0"
   crs:ConvertToGrayscale="False"
   crs:OverrideLookVignette="False"
   crs:ToneCurveName2012="Custom"
   crs:CameraProfile="Adobe Standard"
   crs:HasSettings="True"
   crs:CropConstrainToWarp="0">
   <crs:Name>
    <rdf:Alt>
     <rdf:li xml:lang="x-default">Tone 24</rdf:li>
    </rdf:Alt>
   </crs:Name>
   <crs:ShortName>
    <rdf:Alt>
     <rdf:li xml:lang="x-default"/>
    </rdf:Alt>
   </crs:ShortName>
   <crs:SortName>
    <rdf:Alt>
     <rdf:li xml:lang="x-default"/>
    </rdf:Alt>
   </crs:SortName>
   <crs:Group>
    <rdf:Alt>
     <rdf:li xml:lang="x-default">Japan Style (2)</rdf:li>
    </rdf:Alt>
   </crs:Group>
   <crs:Description>
    <rdf:Alt>
     <rdf:li xml:lang="x-default"/>
    </rdf:Alt>
   </crs:Description>
   <crs:ToneCurvePV2012>
    <rdf:Seq>
     <rdf:li>0, 25</rdf:li>
     <rdf:li>56, 59</rdf:li>
     <rdf:li>110, 107</rdf:li>
     <rdf:li>179, 181</rdf:li>
     <rdf:li>255, 255</rdf:li>
    </rdf:Seq>
   </crs:ToneCurvePV2012>
   <crs:ToneCurvePV2012Red>
    <rdf:Seq>
     <rdf:li>0, 0</rdf:li>
     <rdf:li>22, 8</rdf:li>
     <rdf:li>63, 46</rdf:li>
     <rdf:li>117, 133</rdf:li>
     <rdf:li>182, 204</rdf:li>
     <rdf:li>255, 255</rdf:li>
    </rdf:Seq>
   </crs:ToneCurvePV2012Red>
   <crs:ToneCurvePV2012Green>
    <rdf:Seq>
     <rdf:li>0, 0</rdf:li>
     <rdf:li>26, 9</rdf:li>
     <rdf:li>73, 53</rdf:li>
     <rdf:li>124, 139</rdf:li>
     <rdf:li>181, 198</rdf:li>
     <rdf:li>255, 255</rdf:li>
    </rdf:Seq>
   </crs:ToneCurvePV2012Green>
   <crs:ToneCurvePV2012Blue>
    <rdf:Seq>
     <rdf:li>0, 0</rdf:li>
     <rdf:li>26, 9</rdf:li>
     <rdf:li>74, 57</rdf:li>
     <rdf:li>119, 133</rdf:li>
     <rdf:li>173, 198</rdf:li>
     <rdf:li>255, 255</rdf:li>
    </rdf:Seq>
   </crs:ToneCurvePV2012Blue>
   <crs:Look
    crs:Name=""/>
  </rdf:Description>
 </rdf:RDF>
</x:xmpmeta>
