20 Preset/Rover Style/【1】LRtemplate Lightroom bản cũ/TONE (2)/Rover 03 Mod.lrtemplate
s = {
	id = "C2832214-1D0A-4575-93A7-9BE9D087C24E",
	internalName = "Rover 03 Mod",
	title = "Rover 03 Mod",
	type = "Develop",
	value = {
		settings = {
			AutoLateralCA = 0,
			Blacks2012 = 27,
			BlueHue = -13,
			BlueSaturation = 8,
			CameraProfile = "Adobe Standard",
			ChromaticAberrationB = 0,
			ChromaticAberrationR = 0,
			Clarity2012 = 1,
			ColorNoiseReduction = 25,
			ColorNoiseReductionDetail = 50,
			ColorNoiseReductionSmoothness = 50,
			Contrast2012 = -20,
			ConvertToGrayscale = false,
			CropConstrainToWarp = 0,
			Defringe = 0,
			DefringeGreenAmount = 0,
			DefringeGreenHueHi = 60,
			DefringeGreenHueLo = 40,
			DefringePurpleAmount = 0,
			DefringePurpleHueHi = 70,
			DefringePurpleHueLo = 30,
			Dehaze = 0,
			EnableCalibration = true,
			EnableCircularGradientBasedCorrections = true,
			EnableColorAdjustments = true,
			EnableDetail = true,
			EnableEffects = true,
			EnableGradientBasedCorrections = true,
			EnableLensCorrections = true,
			EnableSplitToning = true,
			EnableTransform = true,
			Exposure2012 = 0.13,
			GrainAmount = 26,
			GrainFrequency = 45,
			GrainSize = 37,
			GreenHue = 53,
			GreenSaturation = -12,
			Highlights2012 = -54,
			HueAdjustmentAqua = 5,
			HueAdjustmentBlue = 4,
			HueAdjustmentGreen = -15,
			HueAdjustmentMagenta = -3,
			HueAdjustmentOrange = -27,
			HueAdjustmentPurple = 0,
			HueAdjustmentRed = 0,
			HueAdjustmentYellow = 10,
			LensManualDistortionAmount = 0,
			LensProfileEnable = 0,
			LensProfileSetup = "LensDefaults",
			LuminanceAdjustmentAqua = -23,
			LuminanceAdjustmentBlue = -29,
			LuminanceAdjustmentGreen = -5,
			LuminanceAdjustmentMagenta = 1,
			LuminanceAdjustmentOrange = 8,
			LuminanceAdjustmentPurple = 1,
			LuminanceAdjustmentRed = 5,
			LuminanceAdjustmentYellow = 0,
			LuminanceNoiseReductionContrast = 0,
			LuminanceNoiseReductionDetail = 50,
			LuminanceSmoothing = 0,
			ParametricDarks = 0,
			ParametricHighlightSplit = 75,
			ParametricHighlights = 0,
			ParametricLights = 0,
			ParametricMidtoneSplit = 50,
			ParametricShadowSplit = 25,
			ParametricShadows = 0,
			PerspectiveAspect = 0,
			PerspectiveHorizontal = 0,
			PerspectiveRotate = 0,
			PerspectiveScale = 100,
			PerspectiveUpright = 0,
			PerspectiveVertical = 0,
			PerspectiveX = 0,
			PerspectiveY = 0,
			PostCropVignetteAmount = 0,
			PostCropVignetteFeather = 50,
			PostCropVignetteHighlightContrast = 0,
			PostCropVignetteMidpoint = 50,
			PostCropVignetteRoundness = 0,
			PostCropVignetteStyle = 1,
			ProcessVersion = "6.7",
			RedHue = 28,
			RedSaturation = 47,
			Saturation = -55,
			SaturationAdjustmentAqua = -34,
			SaturationAdjustmentBlue = -24,
			SaturationAdjustmentGreen = -68,
			SaturationAdjustmentMagenta = -15,
			SaturationAdjustmentOrange = 15,
			SaturationAdjustmentPurple = -22,
			SaturationAdjustmentRed = 18,
			SaturationAdjustmentYellow = -45,
			ShadowTint = 0,
			Shadows2012 = 33,
			SharpenDetail = 25,
			SharpenEdgeMasking = 0,
			SharpenRadius = 1,
			Sharpness = 30,
			SplitToningBalance = 0,
			SplitToningHighlightHue = 27,
			SplitToningHighlightSaturation = 4,
			SplitToningShadowHue = 235,
			SplitToningShadowSaturation = 8,
			Temperature = 6849,
			Tint = -5,
			ToneCurveName2012 = "Custom",
			ToneCurvePV2012 = {
				0,
				0,
				45,
				39,
				101,
				93,
				210,
				198,
				255,
				228,
			},
			ToneCurvePV2012Blue = {
				0,
				0,
				44,
				14,
				86,
				62,
				123,
				127,
				181,
				200,
				255,
				255,
			},
			ToneCurvePV2012Green = {
				0,
				0,
				41,
				15,
				86,
				67,
				118,
				126,
				180,
				196,
				255,
				255,
			},
			ToneCurvePV2012Red = {
				0,
				0,
				43,
				13,
				82,
				56,
				119,
				122,
				196,
				207,
				255,
				255,
			},
			UprightCenterMode = 0,
			UprightCenterNormX = 0.5,
			UprightCenterNormY = 0.5,
			UprightFocalLength35mm = 35,
			UprightFocalMode = 0,
			UprightFourSegmentsCount = 0,
			UprightPreview = false,
			UprightTransformCount = 6,
			UprightTransform_5 = "1.000000000,0.000000000,0.000000000,0.000000000,1.000000000,0.000000000,0.000000000,0.000000000,1.000000000",
			UprightVersion = 151388160,
			Vibrance = -2,
			VignetteAmount = 0,
			VignetteMidpoint = 50,
			WhiteBalance = "Custom",
			Whites2012 = -33,
			orientation = "DA",
		},
		uuid = "5B38064E-0F00-42B5-9314-F30CB0C12F44",
	},
	version = 0,
}
