20 Preset/Rover Style/【1】LRtemplate Lightroom bản cũ/TONE (2)/Rover 06 P Mod.lrtemplate
s = {
	id = "E50BA80C-7F51-4D39-820F-D0A3215B11E7",
	internalName = "Rover 06 P Mod",
	title = "Rover 06 P Mod",
	type = "Develop",
	value = {
		settings = {
			AutoLateralCA = 1,
			Blacks2012 = 24,
			BlueHue = -10,
			BlueSaturation = -1,
			CameraProfile = "Adobe Standard",
			ChromaticAberrationB = 0,
			ChromaticAberrationR = 0,
			Clarity2012 = 0,
			ColorNoiseReduction = 25,
			ColorNoiseReductionDetail = 50,
			ColorNoiseReductionSmoothness = 50,
			Contrast2012 = -32,
			ConvertToGrayscale = false,
			CropConstrainToWarp = 0,
			Defringe = 0,
			DefringeGreenAmount = 0,
			DefringeGreenHueHi = 60,
			DefringeGreenHueLo = 40,
			DefringePurpleAmount = 0,
			DefringePurpleHueHi = 70,
			DefringePurpleHueLo = 30,
			Dehaze = 0,
			EnableCalibration = true,
			EnableCircularGradientBasedCorrections = true,
			EnableColorAdjustments = true,
			EnableDetail = true,
			EnableEffects = true,
			EnableGradientBasedCorrections = true,
			EnableLensCorrections = true,
			EnableSplitToning = true,
			EnableTransform = true,
			Exposure2012 = 0.15,
			GrainAmount = 26,
			GrainFrequency = 45,
			GrainSize = 37,
			GreenHue = 45,
			GreenSaturation = 1,
			Highlights2012 = -66,
			HueAdjustmentAqua = 14,
			HueAdjustmentBlue = 0,
			HueAdjustmentGreen = -15,
			HueAdjustmentMagenta = -3,
			HueAdjustmentOrange = -15,
			HueAdjustmentPurple = 0,
			HueAdjustmentRed = 10,
			HueAdjustmentYellow = -11,
			LensManualDistortionAmount = 0,
			LensProfileEnable = 1,
			LensProfileSetup = "LensDefaults",
			LuminanceAdjustmentAqua = 11,
			LuminanceAdjustmentBlue = -28,
			LuminanceAdjustmentGreen = 0,
			LuminanceAdjustmentMagenta = 1,
			LuminanceAdjustmentOrange = 0,
			LuminanceAdjustmentPurple = 1,
			LuminanceAdjustmentRed = -6,
			LuminanceAdjustmentYellow = 0,
			LuminanceNoiseReductionContrast = 0,
			LuminanceNoiseReductionDetail = 50,
			LuminanceSmoothing = 0,
			ParametricDarks = 0,
			ParametricHighlightSplit = 75,
			ParametricHighlights = 0,
			ParametricLights = 0,
			ParametricMidtoneSplit = 50,
			ParametricShadowSplit = 25,
			ParametricShadows = 0,
			PerspectiveAspect = 0,
			PerspectiveHorizontal = 0,
			PerspectiveRotate = 0,
			PerspectiveScale = 100,
			PerspectiveUpright = 0,
			PerspectiveVertical = 0,
			PerspectiveX = 0,
			PerspectiveY = 0,
			PostCropVignetteAmount = -15,
			PostCropVignetteFeather = 50,
			PostCropVignetteHighlightContrast = 0,
			PostCropVignetteMidpoint = 50,
			PostCropVignetteRoundness = 0,
			PostCropVignetteStyle = 1,
			ProcessVersion = "6.7",
			RedHue = 27,
			RedSaturation = 45,
			Saturation = -56,
			SaturationAdjustmentAqua = -34,
			SaturationAdjustmentBlue = -22,
			SaturationAdjustmentGreen = -44,
			SaturationAdjustmentMagenta = -32,
			SaturationAdjustmentOrange = 14,
			SaturationAdjustmentPurple = -31,
			SaturationAdjustmentRed = 2,
			SaturationAdjustmentYellow = -44,
			ShadowTint = 0,
			Shadows2012 = 37,
			SharpenDetail = 25,
			SharpenEdgeMasking = 0,
			SharpenRadius = 1,
			Sharpness = 30,
			SplitToningBalance = 0,
			SplitToningHighlightHue = 0,
			SplitToningHighlightSaturation = 0,
			SplitToningShadowHue = 53,
			SplitToningShadowSaturation = 3,
			Temperature = 6507,
			Tint = -3,
			ToneCurveName2012 = "Custom",
			ToneCurvePV2012 = {
				0,
				13,
				49,
				35,
				89,
				81,
				153,
				152,
				255,
				214,
			},
			ToneCurvePV2012Blue = {
				0,
				0,
				51,
				19,
				86,
				53,
				119,
				120,
				175,
				188,
				255,
				255,
			},
			ToneCurvePV2012Green = {
				0,
				0,
				38,
				11,
				86,
				59,
				117,
				122,
				176,
				189,
				255,
				255,
			},
			ToneCurvePV2012Red = {
				0,
				0,
				44,
				12,
				88,
				58,
				119,
				123,
				177,
				190,
				255,
				255,
			},
			UprightCenterMode = 0,
			UprightCenterNormX = 0.5,
			UprightCenterNormY = 0.5,
			UprightFocalLength35mm = 35,
			UprightFocalMode = 0,
			UprightFourSegmentsCount = 0,
			UprightPreview = false,
			UprightTransformCount = 6,
			UprightTransform_5 = "1.000000000,0.000000000,0.000000000,0.000000000,1.000000000,0.000000000,0.000000000,0.000000000,1.000000000",
			UprightVersion = 151388160,
			Vibrance = 0,
			VignetteAmount = 0,
			VignetteMidpoint = 50,
			WhiteBalance = "Custom",
			Whites2012 = -41,
			orientation = "DA",
		},
		uuid = "E5836803-2D2E-456C-83F1-A3EBA6707286",
	},
	version = 0,
}
